(1001)
(Machine)
(  vendor: Autodesk)
(  description: Generic 3-axis)
(T3  D=3 CR=0 - ZMIN=-8.35 - flat end mill)
G90 G94
G17
G21

(Drill1)
T3
S1 M3
G54
M8
G0 X0 Y0
Z15
Z5
G1 Z0 F200
G0 Z5
X0.001 Y-28.478
G1 Z0 F200
G0 Z5
X22.433 Y-51.991
G1 Z0 F200
G0 Z5
X55.852 Y-52.37
G1 Z0 F200
G0 Z5
X79.268 Y-28.753
G1 Z0 F200
G0 Z5
Y0
G1 Z0 F200
G0 Z5
Z15

(2D Adaptive2)
S1000 M3
X12.868 Y3.364
Z15
Z5
Z-0.1
G1 Z-0.4 F200
X12.864 Y3.358 Z-0.467
X12.853 Y3.339 Z-0.53
X12.835 Y3.308 Z-0.587
X12.81 Y3.267 Z-0.635
X12.781 Y3.218 Z-0.67
X12.749 Y3.164 Z-0.692
X12.715 Y3.106 Z-0.7
G3 X12.25 Y1.523 I2.858 J-1.699
G1 Y1.352
X12.252 Y1.314
X12.34 Y1.193
X12.446 Y1.086
X12.562 Y0.992
X12.687 Y0.908
X12.817 Y0.833
X12.951 Y0.766
X13.089 Y0.707
X13.229 Y0.654
X13.371 Y0.606
X13.515 Y0.564
X13.66 Y0.526
X13.806 Y0.491
X13.953 Y0.461
X14.1 Y0.433
X14.248 Y0.409
X14.397 Y0.387
X14.546 Y0.367
X14.694 Y0.349
X14.844 Y0.333
X14.993 Y0.319
X15.142 Y0.306
X15.292 Y0.294
X15.448 Y0.284
X15.622 Y0.273
X15.821 Y0.262
X16.05 Y0.251
X16.322 Y0.24
X16.656 Y0.229
X17.088 Y0.219
X17.697 Y0.208
X18.321 Y0.201
X18.945 Y0.197
X20.193 Y0.194
X22.923 Y0.192
X23.391
X23.543 Y0.158
X23.684 Y0.09
X23.806 Y-0.007
X23.904 Y-0.128
X23.972 Y-0.268
X24.008 Y-0.42
X24.009 Y-0.576
X23.976 Y-0.729
X23.71 Y-1.293
X23.481 Y-1.618
X23.172 Y-2.063
X22.819 Y-2.578
X22.47 Y-3.095
X22.212 Y-3.478
X22.13 Y-3.604
X22.049 Y-3.73
X21.97 Y-3.858
X21.893 Y-3.986
X21.816 Y-4.115
X21.741 Y-4.245
X21.66 Y-4.387
X21.57 Y-4.547
X21.468 Y-4.731
X21.351 Y-4.947
X21.213 Y-5.207
X21.042 Y-5.533
X20.882 Y-5.846
X20.814 Y-5.98
X20.749 Y-6.114
X20.685 Y-6.25
X20.623 Y-6.387
X20.562 Y-6.524
X20.503 Y-6.662
X20.446 Y-6.8
X20.387 Y-6.943
X20.323 Y-7.103
X20.252 Y-7.284
X20.172 Y-7.494
X20.079 Y-7.743
X19.967 Y-8.048
X19.83 Y-8.431
X19.78 Y-8.572
X19.733 Y-8.715
X19.688 Y-8.858
X19.644 Y-9.001
X19.603 Y-9.145
X19.562 Y-9.29
X19.523 Y-9.434
X19.486 Y-9.58
X19.445 Y-9.742
X19.4 Y-9.925
X19.35 Y-10.136
X19.293 Y-10.384
X19.226 Y-10.685
X19.145 Y-11.065
X19.114 Y-11.212
X19.085 Y-11.359
X19.058 Y-11.506
X19.034 Y-11.654
X19.01 Y-11.803
X18.989 Y-11.951
X18.969 Y-12.1
X18.95 Y-12.249
X18.932 Y-12.404
X18.913 Y-12.578
X18.893 Y-12.775
X18.871 Y-13.004
X18.847 Y-13.275
X18.82 Y-13.608
X18.795 Y-13.956
X18.785 Y-14.106
X18.777 Y-14.256
X18.772 Y-14.406
X18.768 Y-14.556
X18.767 Y-14.706
X18.766 Y-14.856
X18.767 Y-15.006
X18.77 Y-15.157
X18.774 Y-15.325
X18.779 Y-15.515
X18.788 Y-15.734
X18.799 Y-15.991
X18.815 Y-16.302
X18.839 Y-16.696
X18.849 Y-16.846
X18.86 Y-16.995
X18.874 Y-17.145
X18.89 Y-17.294
X18.908 Y-17.443
X18.927 Y-17.592
X18.948 Y-17.74
X18.969 Y-17.889
X18.994 Y-18.047
X19.023 Y-18.224
X19.057 Y-18.425
X19.099 Y-18.66
X19.151 Y-18.939
X19.217 Y-19.284
X19.273 Y-19.56
X19.304 Y-19.706
X19.336 Y-19.853
X19.371 Y-19.999
X19.408 Y-20.144
X19.447 Y-20.289
X19.486 Y-20.434
X19.528 Y-20.578
X19.571 Y-20.724
X19.62 Y-20.887
X19.677 Y-21.072
X19.744 Y-21.283
X19.825 Y-21.532
X19.926 Y-21.834
X20.058 Y-22.218
X20.107 Y-22.359
X20.159 Y-22.5
X20.213 Y-22.64
X20.269 Y-22.779
X20.326 Y-22.918
X20.384 Y-23.056
X20.444 Y-23.194
X20.505 Y-23.331
X20.574 Y-23.481
X20.652 Y-23.651
X20.744 Y-23.845
X20.852 Y-24.07
X20.985 Y-24.342
X21.155 Y-24.682
X21.234 Y-24.837
X21.303 Y-24.97
X21.374 Y-25.102
X21.447 Y-25.233
X21.521 Y-25.363
X21.597 Y-25.493
X21.674 Y-25.621
X21.752 Y-25.749
X21.834 Y-25.881
X21.927 Y-26.027
X22.033 Y-26.193
X22.157 Y-26.383
X22.306 Y-26.606
X22.489 Y-26.879
X22.699 Y-27.185
X22.785 Y-27.308
X22.873 Y-27.43
X22.962 Y-27.55
X23.053 Y-27.67
X23.145 Y-27.788
X23.239 Y-27.905
X23.333 Y-28.022
X23.429 Y-28.138
X23.536 Y-28.266
X23.659 Y-28.411
X23.801 Y-28.576
X23.97 Y-28.768
X24.175 Y-28.999
X24.437 Y-29.29
X24.538 Y-29.401
X24.641 Y-29.51
X24.744 Y-29.618
X24.85 Y-29.725
X24.956 Y-29.831
X25.064 Y-29.935
X25.173 Y-30.038
X25.283 Y-30.141
X25.399 Y-30.247
X25.53 Y-30.366
X25.681 Y-30.5
X25.856 Y-30.654
X26.066 Y-30.836
X26.326 Y-31.058
X26.569 Y-31.262
X26.685 Y-31.358
X26.802 Y-31.452
X26.92 Y-31.544
X27.04 Y-31.635
X27.16 Y-31.724
X27.281 Y-31.812
X27.404 Y-31.899
X27.528 Y-31.986
X27.667 Y-32.082
X27.826 Y-32.19
X28.009 Y-32.312
X28.226 Y-32.455
X28.49 Y-32.625
X28.827 Y-32.84
X28.954 Y-32.92
X29.082 Y-32.998
X29.212 Y-33.074
X29.342 Y-33.148
X29.908 Y-33.411
X30.477 Y-33.666
X31.049 Y-33.917
X31.621 Y-34.166
X32.199 Y-34.4
X32.788 Y-34.606
X33.383 Y-34.794
X33.981 Y-34.973
X34.58 Y-35.147
X35.188 Y-35.286
X35.801 Y-35.401
X36.417 Y-35.503
X37.034 Y-35.597
X37.653 Y-35.672
X38.276 Y-35.715
X38.899 Y-35.739
X39.523 Y-35.753
X40.147 Y-35.761
X40.77 Y-35.732
X41.392 Y-35.679
X42.012 Y-35.613
X42.632 Y-35.54
X43.249 Y-35.446
X43.86 Y-35.321
X44.467 Y-35.178
X45.072 Y-35.025
X45.676 Y-34.866
X46.268 Y-34.671
X46.853 Y-34.454
X47.434 Y-34.225
X48.011 Y-33.988
X48.58 Y-33.733
X49.136 Y-33.448
X49.683 Y-33.148
X50.225 Y-32.84
X50.764 Y-32.526
X51.283 Y-32.179
X51.789 Y-31.814
X52.287 Y-31.438
X52.78 Y-31.056
X53.26 Y-30.657
X53.719 Y-30.235
X54.166 Y-29.8
X54.606 Y-29.357
X55.042 Y-28.911
X55.449 Y-28.438
X55.839 Y-27.951
X56.218 Y-27.455
X56.592 Y-26.956
X56.948 Y-26.443
X57.277 Y-25.913
X57.592 Y-25.374
X57.898 Y-24.831
X58.199 Y-24.284
X58.464 Y-23.719
X58.71 Y-23.146
X58.943 Y-22.567
X59.17 Y-21.986
X59.375 Y-21.397
X59.551 Y-20.798
X59.71 Y-20.195
X59.861 Y-19.589
X60.004 Y-18.982
X60.109 Y-18.367
X60.192 Y-17.748
X60.263 Y-17.128
X60.326 Y-16.508
X60.366 Y-15.885
X60.375 Y-15.261
X60.368 Y-14.637
X60.351 Y-14.014
X60.326 Y-13.39
X60.263 Y-12.769
X60.178 Y-12.151
X60.081 Y-11.535
X59.977 Y-10.92
X59.848 Y-10.309
X59.69 Y-9.706
X59.517 Y-9.106
X59.334 Y-8.51
X59.143 Y-7.916
X59.074 Y-7.698
X59.027 Y-7.556
X58.977 Y-7.414
X58.926 Y-7.273
X58.874 Y-7.133
X58.82 Y-6.993
X58.764 Y-6.853
X58.705 Y-6.706
X58.636 Y-6.541
X58.557 Y-6.353
X58.464 Y-6.136
X58.372 Y-5.928
X58.311 Y-5.791
X58.247 Y-5.656
X58.182 Y-5.521
X58.114 Y-5.387
X58.045 Y-5.254
X57.974 Y-5.122
X57.902 Y-4.99
X57.829 Y-4.859
X57.752 Y-4.724
X57.665 Y-4.575
X57.565 Y-4.405
X57.449 Y-4.21
X57.309 Y-3.981
X57.136 Y-3.702
X56.991 Y-3.471
X56.91 Y-3.345
X56.827 Y-3.219
X56.743 Y-3.096
X56.657 Y-2.973
X56.569 Y-2.851
X56.48 Y-2.73
X56.39 Y-2.61
X56.299 Y-2.49
X56.197 Y-2.358
X56.08 Y-2.209
X55.944 Y-2.038
X55.784 Y-1.84
X55.588 Y-1.601
X55.274 Y-1.227
X55.203 Y-1.089
X55.163 Y-0.938
X55.159 Y-0.782
X55.189 Y-0.629
X55.252 Y-0.486
X55.345 Y-0.361
X55.463 Y-0.259
X55.739 Y-0.114
X56.35 Y0.013
X56.97 Y0.087
X57.592 Y0.131
X58.216 Y0.157
X58.839 Y0.171
X59.463 Y0.18
X60.087 Y0.185
X60.711 Y0.188
X61.959 Y0.191
X65.703 Y0.192
X66.29
X66.506 Y0.226
X66.701 Y0.326
X66.856 Y0.481
X66.956 Y0.676
X66.99 Y0.892
G0 Z5
X12.625 Y2.363
Z-0.1
G1 Z-0.4 F200
X12.621 Y2.357 Z-0.467
X12.609 Y2.337 Z-0.53
X12.591 Y2.307 Z-0.587
X12.567 Y2.266 Z-0.635
X12.538 Y2.217 Z-0.67
X12.505 Y2.162 Z-0.692
X12.471 Y2.105 Z-0.7
G3 X12.25 Y1.352 I1.36 J-0.809
G1 Y0.921
X12.257 Y0.771
X12.317 Y0.634
X12.393 Y0.504
X12.482 Y0.384
X12.583 Y0.27
X12.708 Y0.15
X12.861 Y0.026
X13.049 Y-0.103
X13.28 Y-0.236
X13.568 Y-0.373
X13.934 Y-0.511
X14.421 Y-0.652
X15.032 Y-0.776
X15.651 Y-0.857
X16.273 Y-0.911
X16.896 Y-0.946
X17.519 Y-0.968
X18.143 Y-0.983
X18.767 Y-0.992
X19.391 Y-0.998
X20.249 Y-1.003
X20.405
X20.557 Y-1.038
X20.697 Y-1.106
X20.819 Y-1.203
X20.916 Y-1.325
X20.984 Y-1.466
X21.055 Y-1.77
X20.994 Y-2.391
X20.827 Y-2.992
X20.603 Y-3.574
X20.351 Y-4.145
X20.085 Y-4.709
X19.821 Y-5.275
X19.568 Y-5.845
X19.327 Y-6.42
X19.097 Y-7.001
X18.878 Y-7.585
X18.677 Y-8.175
X18.495 Y-8.772
X18.33 Y-9.374
X18.179 Y-9.979
X18.042 Y-10.588
X17.926 Y-11.201
X17.829 Y-11.817
X17.75 Y-12.436
X17.684 Y-13.057
X17.635 Y-13.679
X17.607 Y-14.302
X17.599 Y-14.926
X17.607 Y-15.55
X17.629 Y-16.174
X17.669 Y-16.796
X17.73 Y-17.417
X17.81 Y-18.036
X17.905 Y-18.653
X18.014 Y-19.267
X18.142 Y-19.878
X18.291 Y-20.484
X18.457 Y-21.085
X18.638 Y-21.682
X18.832 Y-22.275
X19.046 Y-22.861
X19.279 Y-23.44
X19.529 Y-24.012
X19.791 Y-24.578
X20.067 Y-25.137
X20.363 Y-25.687
X20.676 Y-26.227
X21.003 Y-26.758
X21.341 Y-27.282
X21.694 Y-27.797
X22.065 Y-28.299
X22.451 Y-28.789
X22.849 Y-29.269
X23.258 Y-29.741
X23.681 Y-30.199
X24.119 Y-30.644
X24.57 Y-31.074
X25.032 Y-31.494
X25.503 Y-31.904
X25.987 Y-32.298
X26.483 Y-32.675
X26.991 Y-33.038
X27.506 Y-33.39
X28.03 Y-33.728
X28.572 Y-34.037
X29.127 Y-34.324
X29.688 Y-34.596
X30.254 Y-34.858
X30.825 Y-35.11
X31.403 Y-35.347
X31.987 Y-35.565
X32.577 Y-35.769
X33.17 Y-35.961
X33.769 Y-36.138
X34.372 Y-36.295
X34.981 Y-36.433
X35.593 Y-36.554
X36.208 Y-36.661
X36.825 Y-36.753
X37.445 Y-36.823
X38.067 Y-36.873
X38.69 Y-36.907
X39.313 Y-36.93
X39.937 Y-36.931
X40.561 Y-36.911
X41.184 Y-36.872
X41.805 Y-36.818
X42.426 Y-36.75
X43.043 Y-36.662
X43.658 Y-36.553
X44.269 Y-36.427
X44.877 Y-36.288
X45.481 Y-36.134
X46.08 Y-35.958
X46.673 Y-35.763
X47.26 Y-35.552
X47.843 Y-35.329
X48.419 Y-35.089
X48.986 Y-34.83
X49.545 Y-34.553
X50.097 Y-34.262
X50.644 Y-33.961
X51.179 Y-33.641
X51.703 Y-33.302
X52.217 Y-32.948
X52.723 Y-32.583
X53.219 Y-32.205
X53.703 Y-31.811
X54.174 Y-31.401
X54.633 Y-30.979
X55.084 Y-30.547
X55.523 Y-30.103
X55.946 Y-29.645
X56.353 Y-29.172
X56.748 Y-28.689
X57.133 Y-28.198
X57.503 Y-27.696
X57.856 Y-27.181
X58.193 Y-26.656
X58.516 Y-26.123
X58.83 Y-25.583
X59.125 Y-25.033
X59.4 Y-24.473
X59.658 Y-23.905
X59.904 Y-23.332
X60.135 Y-22.752
X60.347 Y-22.165
X60.54 Y-21.572
X60.716 Y-20.973
X60.88 Y-20.371
X61.028 Y-19.765
X61.154 Y-19.154
X61.261 Y-18.539
X61.351 Y-17.922
X61.428 Y-17.303
X61.487 Y-16.682
X61.525 Y-16.059
X61.543 Y-15.435
X61.546 Y-14.811
X61.537 Y-14.187
X61.506 Y-13.564
X61.454 Y-12.943
X61.383 Y-12.323
X61.299 Y-11.704
X61.199 Y-11.089
X61.079 Y-10.476
X60.938 Y-9.868
X60.782 Y-9.264
X60.612 Y-8.664
X60.434 Y-8.066
X60.242 Y-7.472
X60.032 Y-6.885
X59.807 Y-6.303
X59.565 Y-5.728
X59.302 Y-5.162
X59.018 Y-4.606
X58.718 Y-4.059
X58.404 Y-3.52
X58.076 Y-2.989
X57.989 Y-2.86
X57.901 Y-2.731
X57.844 Y-2.586
X57.821 Y-2.431
X57.832 Y-2.276
X57.878 Y-2.127
X57.955 Y-1.991
X58.166 Y-1.761
X58.714 Y-1.462
X59.31 Y-1.278
X59.924 Y-1.167
X60.544 Y-1.101
X61.167 Y-1.062
X61.79 Y-1.04
X62.414 Y-1.026
X63.038 Y-1.019
X63.662 Y-1.014
X64.286 Y-1.012
X65.527 Y-1.008
X65.828 Y-0.983
X66.105 Y-0.937
X66.306 Y-0.887
X66.509 Y-0.819
X66.566 Y-0.794
X66.739 Y-0.688
X66.874 Y-0.536
X66.96 Y-0.352
X66.99 Y-0.151
Y-0.057
G0 Z5
X12.625 Y1.933
Z-0.1
G1 Z-0.4 F200
X12.621 Y1.926 Z-0.467
X12.609 Y1.907 Z-0.53
X12.591 Y1.876 Z-0.587
X12.567 Y1.836 Z-0.635
X12.538 Y1.787 Z-0.67
X12.505 Y1.732 Z-0.692
X12.471 Y1.675 Z-0.7
G3 X12.25 Y0.921 I1.36 J-0.809
G1 Y0.248
X12.257 Y0.098
X12.291 Y-0.048
X12.343 Y-0.189
X12.411 Y-0.323
X12.49 Y-0.45
X12.589 Y-0.584
X12.712 Y-0.724
X12.858 Y-0.866
X13.05 Y-1.025
X13.26 Y-1.171
X13.543 Y-1.338
X13.86 Y-1.49
X14.277 Y-1.652
X14.809 Y-1.81
X15.419 Y-1.939
X16.037 Y-2.028
X16.658 Y-2.088
X17.281 Y-2.128
X17.904 Y-2.155
X18.06 Y-2.16
X18.211 Y-2.199
X18.35 Y-2.27
X18.469 Y-2.371
X18.563 Y-2.495
X18.692 Y-2.779
X18.792 Y-3.395
X18.742 Y-4.017
X18.608 Y-4.627
X18.43 Y-5.224
X18.23 Y-5.816
X18.022 Y-6.404
X17.817 Y-6.993
X17.622 Y-7.586
X17.439 Y-8.182
X17.268 Y-8.783
X17.111 Y-9.386
X16.969 Y-9.994
X16.844 Y-10.605
X16.736 Y-11.22
X16.643 Y-11.837
X16.566 Y-12.456
X16.505 Y-13.077
X16.462 Y-13.699
X16.436 Y-14.323
X16.427 Y-14.947
X16.433 Y-15.57
X16.456 Y-16.194
X16.496 Y-16.817
X16.554 Y-17.438
X16.628 Y-18.057
X16.718 Y-18.675
X16.824 Y-19.29
X16.948 Y-19.901
X17.089 Y-20.509
X17.246 Y-21.113
X17.418 Y-21.713
X17.606 Y-22.308
X17.811 Y-22.897
X18.032 Y-23.48
X18.269 Y-24.058
X18.52 Y-24.629
X18.786 Y-25.193
X19.067 Y-25.75
X19.365 Y-26.299
X19.676 Y-26.839
X20.001 Y-27.372
X20.34 Y-27.896
X20.694 Y-28.41
X21.062 Y-28.914
X21.443 Y-29.407
X21.837 Y-29.892
X22.243 Y-30.365
X22.662 Y-30.827
X23.095 Y-31.277
X23.54 Y-31.714
X23.995 Y-32.141
X24.461 Y-32.556
X24.939 Y-32.957
X25.428 Y-33.345
X25.927 Y-33.719
X26.435 Y-34.081
X26.954 Y-34.428
X27.485 Y-34.755
X28.028 Y-35.064
X28.579 Y-35.356
X29.137 Y-35.634
X29.702 Y-35.9
X30.272 Y-36.153
X30.849 Y-36.39
X31.432 Y-36.614
X32.019 Y-36.823
X32.612 Y-37.019
X33.209 Y-37.199
X33.811 Y-37.362
X34.418 Y-37.509
X35.028 Y-37.64
X35.641 Y-37.756
X36.257 Y-37.856
X36.876 Y-37.938
X37.496 Y-38.002
X38.118 Y-38.051
X38.741 Y-38.085
X39.365 Y-38.102
X39.989 Y-38.099
X40.612 Y-38.08
X41.235 Y-38.044
X41.857 Y-37.993
X42.477 Y-37.925
X43.095 Y-37.839
X43.711 Y-37.735
X44.323 Y-37.617
X44.933 Y-37.483
X45.538 Y-37.332
X46.139 Y-37.163
X46.735 Y-36.978
X47.325 Y-36.777
X47.911 Y-36.562
X48.491 Y-36.331
X49.063 Y-36.083
X49.629 Y-35.819
X50.187 Y-35.541
X50.739 Y-35.25
X51.282 Y-34.943
X51.817 Y-34.621
X52.341 Y-34.283
X52.857 Y-33.932
X53.364 Y-33.568
X53.861 Y-33.191
X54.347 Y-32.799
X54.821 Y-32.394
X55.286 Y-31.977
X55.739 Y-31.549
X56.181 Y-31.108
X56.609 Y-30.655
X57.025 Y-30.189
X57.428 Y-29.714
X57.82 Y-29.228
X58.198 Y-28.731
X58.561 Y-28.224
X58.911 Y-27.707
X59.247 Y-27.182
X59.571 Y-26.648
X59.879 Y-26.106
X60.171 Y-25.554
X60.447 Y-24.995
X60.709 Y-24.429
X60.957 Y-23.856
X61.189 Y-23.277
X61.404 Y-22.691
X61.602 Y-22.099
X61.786 Y-21.503
X61.955 Y-20.903
X62.107 Y-20.297
X62.241 Y-19.688
X62.358 Y-19.075
X62.46 Y-18.46
X62.546 Y-17.842
X62.615 Y-17.221
X62.665 Y-16.6
X62.699 Y-15.976
X62.717 Y-15.353
X62.72 Y-14.729
X62.706 Y-14.105
X62.672 Y-13.482
X62.622 Y-12.86
X62.555 Y-12.24
X62.473 Y-11.621
X62.374 Y-11.005
X62.257 Y-10.392
X62.124 Y-9.783
X61.974 Y-9.177
X61.813 Y-8.574
X61.639 Y-7.975
X61.451 Y-7.38
X61.248 Y-6.79
X61.03 Y-6.206
X60.796 Y-5.627
X60.543 Y-5.057
X60.273 Y-4.494
X60.13 Y-4.217
X60.057 Y-4.079
X60.017 Y-3.928
X60.01 Y-3.773
X60.039 Y-3.619
X60.1 Y-3.476
X60.284 Y-3.224
X60.773 Y-2.836
X61.346 Y-2.59
X61.951 Y-2.437
X62.568 Y-2.345
X63.19 Y-2.289
X63.813 Y-2.256
X64.437 Y-2.236
X65.06 Y-2.213
X65.593 Y-2.162
X65.941 Y-2.1
X66.235 Y-2.023
X66.443 Y-1.95
X66.573 Y-1.893
X66.744 Y-1.786
X66.877 Y-1.635
X66.961 Y-1.452
X66.99 Y-1.253
Y-0.151
G0 Z5
X12.625 Y1.259
Z-0.1
G1 Z-0.4 F200
X12.621 Y1.253 Z-0.467
X12.609 Y1.234 Z-0.53
X12.591 Y1.203 Z-0.587
X12.567 Y1.162 Z-0.635
X12.538 Y1.113 Z-0.67
X12.505 Y1.059 Z-0.692
X12.471 Y1.001 Z-0.7
G3 X12.25 Y0.248 I1.36 J-0.809
G1 Y-0.637
X12.257 Y-0.787
X12.285 Y-0.935
X12.33 Y-1.078
X12.39 Y-1.215
X12.461 Y-1.348
X12.556 Y-1.495
X12.669 Y-1.642
X12.814 Y-1.802
X12.988 Y-1.966
X13.201 Y-2.137
X13.462 Y-2.313
X13.773 Y-2.489
X14.152 Y-2.665
X14.631 Y-2.842
X15.232 Y-3.01
X15.844 Y-3.131
X15.999 Y-3.152
X16.145 Y-3.207
X16.275 Y-3.293
X16.491 Y-3.518
X16.792 Y-4.064
X16.891 Y-4.68
X16.864 Y-5.304
X16.764 Y-5.92
X16.625 Y-6.528
X16.469 Y-7.132
X16.307 Y-7.735
X16.148 Y-8.338
X15.997 Y-8.943
X15.856 Y-9.551
X15.729 Y-10.162
X15.617 Y-10.776
X15.518 Y-11.392
X15.435 Y-12.01
X15.367 Y-12.631
X15.315 Y-13.252
X15.279 Y-13.875
X15.258 Y-14.499
X15.253 Y-15.123
X15.264 Y-15.747
X15.291 Y-16.37
X15.334 Y-16.992
X15.393 Y-17.614
X15.467 Y-18.233
X15.557 Y-18.851
X15.664 Y-19.465
X15.786 Y-20.077
X15.924 Y-20.686
X16.077 Y-21.291
X16.246 Y-21.891
X16.43 Y-22.488
X16.629 Y-23.079
X16.844 Y-23.664
X17.074 Y-24.244
X17.318 Y-24.819
X17.577 Y-25.386
X17.85 Y-25.947
X18.138 Y-26.501
X18.44 Y-27.047
X18.755 Y-27.586
X19.084 Y-28.116
X19.426 Y-28.638
X19.782 Y-29.15
X20.151 Y-29.653
X20.532 Y-30.147
X20.925 Y-30.632
X21.332 Y-31.105
X21.75 Y-31.568
X22.18 Y-32.02
X22.622 Y-32.461
X23.074 Y-32.891
X23.537 Y-33.309
X24.012 Y-33.714
X24.496 Y-34.107
X24.991 Y-34.487
X25.495 Y-34.855
X26.01 Y-35.208
X26.535 Y-35.544
X27.07 Y-35.865
X27.615 Y-36.17
X28.166 Y-36.461
X28.725 Y-36.739
X29.29 Y-37.003
X29.862 Y-37.254
X30.439 Y-37.491
X31.021 Y-37.715
X31.608 Y-37.926
X32.201 Y-38.122
X32.798 Y-38.303
X33.399 Y-38.468
X34.005 Y-38.619
X34.614 Y-38.755
X35.226 Y-38.876
X35.841 Y-38.98
X36.459 Y-39.068
X37.079 Y-39.141
X37.7 Y-39.199
X38.322 Y-39.24
X38.946 Y-39.266
X39.57 Y-39.275
X40.194 Y-39.267
X40.817 Y-39.245
X41.44 Y-39.206
X42.061 Y-39.151
X42.681 Y-39.08
X43.299 Y-38.993
X43.915 Y-38.891
X44.527 Y-38.773
X45.137 Y-38.64
X45.743 Y-38.491
X46.344 Y-38.325
X46.942 Y-38.145
X47.534 Y-37.949
X48.121 Y-37.738
X48.703 Y-37.512
X49.278 Y-37.27
X49.847 Y-37.014
X50.41 Y-36.745
X50.965 Y-36.461
X51.513 Y-36.162
X52.053 Y-35.849
X52.584 Y-35.522
X53.108 Y-35.182
X53.622 Y-34.829
X54.127 Y-34.463
X54.622 Y-34.083
X55.108 Y-33.691
X55.583 Y-33.287
X56.048 Y-32.871
X56.503 Y-32.444
X56.946 Y-32.004
X57.377 Y-31.553
X57.796 Y-31.091
X58.204 Y-30.619
X58.599 Y-30.136
X58.982 Y-29.643
X59.351 Y-29.14
X59.707 Y-28.628
X60.051 Y-28.108
X60.382 Y-27.578
X60.699 Y-27.041
X61.001 Y-26.495
X61.289 Y-25.941
X61.563 Y-25.381
X61.822 Y-24.813
X62.068 Y-24.24
X62.297 Y-23.66
X62.512 Y-23.074
X62.712 Y-22.483
X62.897 Y-21.887
X63.067 Y-21.287
X63.221 Y-20.682
X63.359 Y-20.073
X63.482 Y-19.462
X63.589 Y-18.847
X63.68 Y-18.23
X63.754 Y-17.61
X63.813 Y-16.989
X63.855 Y-16.367
X63.883 Y-15.743
X63.894 Y-15.119
X63.89 Y-14.495
X63.868 Y-13.872
X63.831 Y-13.249
X63.778 Y-12.627
X63.709 Y-12.007
X63.625 Y-11.389
X63.524 Y-10.773
X63.407 Y-10.16
X63.275 Y-9.551
X63.129 Y-8.944
X62.97 Y-8.34
X62.798 Y-7.741
X62.612 Y-7.145
X62.412 Y-6.554
X62.198 Y-5.968
X62.082 Y-5.678
X61.962 Y-5.39
X61.935 Y-5.237
X61.943 Y-5.081
X61.985 Y-4.931
X62.133 Y-4.656
X62.557 Y-4.199
X63.104 Y-3.897
X63.697 Y-3.705
X64.309 Y-3.581
X64.925 Y-3.483
X65.54 Y-3.375
X65.976 Y-3.271
X66.298 Y-3.167
X66.519 Y-3.075
X66.61 Y-3.028
X66.766 Y-2.919
X66.887 Y-2.77
X66.964 Y-2.595
X66.99 Y-2.406
Y-1.253
G0 Z5
X12.625 Y0.374
Z-0.1
G1 Z-0.4 F200
X12.621 Y0.367 Z-0.467
X12.609 Y0.348 Z-0.53
X12.591 Y0.318 Z-0.587
X12.567 Y0.277 Z-0.635
X12.538 Y0.228 Z-0.67
X12.505 Y0.173 Z-0.692
X12.471 Y0.116 Z-0.7
G3 X12.25 Y-0.637 I1.36 J-0.809
G1 Y-1.629
X12.257 Y-1.779
X12.284 Y-1.927
X12.328 Y-2.07
X12.384 Y-2.209
X12.458 Y-2.352
X12.552 Y-2.505
X12.668 Y-2.664
X12.818 Y-2.836
X12.992 Y-3.008
X13.218 Y-3.197
X13.475 Y-3.379
X13.809 Y-3.577
X14.369 Y-3.851
X14.621 Y-4.036
X14.821 Y-4.275
X15.125 Y-4.82
X15.252 Y-5.431
X15.262 Y-6.054
X15.202 Y-6.675
X15.101 Y-7.291
X14.979 Y-7.903
X14.85 Y-8.513
X14.721 Y-9.124
X14.6 Y-9.736
X14.488 Y-10.35
X14.388 Y-10.966
X14.301 Y-11.584
X14.227 Y-12.203
X14.169 Y-12.824
X14.124 Y-13.447
X14.095 Y-14.07
X14.08 Y-14.694
Y-15.318
X14.096 Y-15.941
X14.126 Y-16.565
X14.172 Y-17.187
X14.233 Y-17.808
X14.309 Y-18.427
X14.399 Y-19.045
X14.506 Y-19.659
X14.627 Y-20.271
X14.763 Y-20.88
X14.913 Y-21.486
X15.079 Y-22.088
X15.259 Y-22.685
X15.454 Y-23.277
X15.664 Y-23.865
X15.888 Y-24.447
X16.126 Y-25.024
X16.378 Y-25.595
X16.645 Y-26.159
X16.925 Y-26.717
X17.218 Y-27.268
X17.524 Y-27.811
X17.844 Y-28.347
X18.176 Y-28.875
X18.521 Y-29.395
X18.879 Y-29.906
X19.249 Y-30.408
X19.631 Y-30.902
X20.025 Y-31.385
X20.431 Y-31.859
X20.849 Y-32.323
X21.277 Y-32.776
X21.716 Y-33.22
X22.166 Y-33.652
X22.627 Y-34.073
X23.098 Y-34.482
X23.579 Y-34.879
X24.07 Y-35.264
X24.571 Y-35.637
X25.081 Y-35.995
X25.601 Y-36.34
X26.131 Y-36.67
X26.669 Y-36.985
X27.215 Y-37.287
X27.768 Y-37.576
X28.328 Y-37.852
X28.894 Y-38.114
X29.466 Y-38.363
X30.044 Y-38.6
X30.626 Y-38.823
X31.214 Y-39.033
X31.806 Y-39.23
X32.403 Y-39.412
X33.004 Y-39.58
X33.608 Y-39.734
X34.217 Y-39.873
X34.828 Y-39.998
X35.442 Y-40.107
X35.513 Y-40.116
X35.548 Y-40.119
X35.583 Y-40.12
X42.454
X43.077 Y-40.089
X43.7 Y-40.049
X44.319 Y-39.971
X44.934 Y-39.865
X45.544 Y-39.737
X46.15 Y-39.589
X46.752 Y-39.425
X47.35 Y-39.245
X47.942 Y-39.049
X48.529 Y-38.838
X49.111 Y-38.613
X49.687 Y-38.373
X50.257 Y-38.119
X50.821 Y-37.852
X51.378 Y-37.571
X51.928 Y-37.276
X52.47 Y-36.968
X53.005 Y-36.646
X53.531 Y-36.311
X54.05 Y-35.963
X54.559 Y-35.603
X55.059 Y-35.23
X55.551 Y-34.846
X56.032 Y-34.449
X56.504 Y-34.041
X56.966 Y-33.622
X57.418 Y-33.191
X57.858 Y-32.749
X58.288 Y-32.297
X58.706 Y-31.834
X59.114 Y-31.361
X59.509 Y-30.878
X59.892 Y-30.386
X60.263 Y-29.884
X60.622 Y-29.374
X60.968 Y-28.855
X61.302 Y-28.328
X61.622 Y-27.792
X61.929 Y-27.249
X62.222 Y-26.698
X62.502 Y-26.14
X62.768 Y-25.576
X63.02 Y-25.005
X63.258 Y-24.428
X63.482 Y-23.846
X63.691 Y-23.258
X63.887 Y-22.666
X64.068 Y-22.069
X64.234 Y-21.467
X64.385 Y-20.862
X64.521 Y-20.253
X64.643 Y-19.641
X64.749 Y-19.026
X64.84 Y-18.409
X64.916 Y-17.79
X64.977 Y-17.169
X65.022 Y-16.546
X65.053 Y-15.923
X65.068 Y-15.299
Y-14.675
X65.052 Y-14.052
X65.021 Y-13.428
X64.975 Y-12.806
X64.913 Y-12.185
X64.836 Y-11.566
X64.744 Y-10.949
X64.637 Y-10.334
X64.516 Y-9.722
X64.381 Y-9.113
X64.232 Y-8.507
X64.07 Y-7.905
X63.896 Y-7.306
X63.708 Y-6.711
X63.695 Y-6.555
X63.735 Y-6.246
X63.869 Y-5.964
X64.253 Y-5.472
X64.766 Y-5.117
X65.329 Y-4.848
X65.908 Y-4.615
X66.354 Y-4.426
X66.612 Y-4.291
X66.663 Y-4.258
X66.799 Y-4.147
X66.903 Y-4.004
X66.968 Y-3.841
X66.99 Y-3.666
Y-2.406
G0 Z5
X41.442 Y-39.745
Z-0.1
G1 Z-0.4 F200
X41.449 Y-39.749 Z-0.467
X41.468 Y-39.761 Z-0.53
X41.499 Y-39.779 Z-0.587
X41.539 Y-39.803 Z-0.635
X41.588 Y-39.832 Z-0.67
X41.643 Y-39.865 Z-0.692
X41.7 Y-39.899 Z-0.7
G3 X42.454 Y-40.12 I0.809 J1.36
G1 X47.13
X47.672 Y-40.093
X48.136 Y-40.032
X48.746 Y-39.901
X49.344 Y-39.723
X49.931 Y-39.511
X50.509 Y-39.276
X51.079 Y-39.022
X51.641 Y-38.751
X52.195 Y-38.465
X52.743 Y-38.165
X53.073 Y-37.973
X53.125 Y-37.939
X53.175 Y-37.901
X53.22 Y-37.859
G3 X52.895 Y-37.375 I-0.221 J0.203
G1 X47.036 Y-39.539
G3 X47.13 Y-40.12 I0.104 J-0.281
G1 X50.247
X50.388
X50.431
X50.581 Y-40.112
X50.832 Y-40.077
X50.979 Y-40.04
X51.115 Y-39.972
X51.233 Y-39.875
G3 X50.937 Y-39.382 I-0.221 J0.203
G1 X50.922 Y-39.386
X50.367 Y-39.53
G3 X50.431 Y-40.12 I0.075 J-0.29
G1 X50.813
X50.955 Y-40.119
X50.97 Y-40.116
X50.986 Y-40.112
X51.001 Y-40.105
X51.016 Y-40.095
X51.575 Y-39.528
X61.865 Y-29.086
X62.281 Y-28.62
X62.66 Y-28.131
X63.002 Y-27.609
X63.314 Y-27.068
X63.604 Y-26.516
X63.875 Y-25.954
X64.129 Y-25.384
X64.368 Y-24.808
X64.592 Y-24.225
X64.803 Y-23.638
X64.999 Y-23.046
X65.181 Y-22.449
X65.349 Y-21.848
X65.503 Y-21.243
X65.642 Y-20.635
X65.768 Y-20.024
X65.878 Y-19.41
X65.974 Y-18.793
X66.056 Y-18.175
X66.123 Y-17.554
X66.175 Y-16.933
X66.213 Y-16.31
X66.237 Y-15.686
X66.245 Y-15.062
X66.239 Y-14.439
X66.219 Y-13.815
X66.183 Y-13.192
X66.133 Y-12.57
X66.069 Y-11.949
X65.99 Y-11.331
X65.897 Y-10.714
X65.789 Y-10.099
X65.668 Y-9.487
X65.534 Y-8.877
X65.387 Y-8.271
X65.307 Y-7.97
X65.272 Y-7.66
X65.329 Y-7.353
X65.575 Y-6.78
X65.988 Y-6.312
X66.472 Y-5.918
X66.72 Y-5.724
X66.865 Y-5.57
X66.958 Y-5.38
X66.99 Y-5.172
Y-3.666
G0 Z5
X60.889 Y-29.543
Z-0.1
G1 Z-0.4 F200
X60.896 Y-29.541 Z-0.467
X60.917 Y-29.536 Z-0.53
X60.952 Y-29.527 Z-0.587
X60.998 Y-29.514 Z-0.635
X61.053 Y-29.5 Z-0.67
X61.114 Y-29.484 Z-0.692
X61.179 Y-29.467 Z-0.7
G3 X61.865 Y-29.086 I-0.401 J1.531
G1 X64.416 Y-26.497
X64.705 Y-26.172
X64.944 Y-25.858
X65.216 Y-25.43
X65.508 Y-24.878
X65.761 Y-24.308
X65.984 Y-23.725
X66.186 Y-23.135
X66.369 Y-22.538
X66.536 Y-21.937
X66.688 Y-21.332
X66.824 Y-20.723
X66.947 Y-20.111
X66.979 Y-19.928
X66.985 Y-19.888
X66.989 Y-19.847
X66.99 Y-19.807
G3 X66.41 Y-19.71 I-0.3 J-0.01
G1 X63.929 Y-26.172
G3 X64.416 Y-26.497 I0.28 J-0.108
G1 X66.377 Y-24.508
X66.583 Y-24.276
X66.768 Y-24.031
X66.88 Y-23.855
X66.94 Y-23.738
X66.977 Y-23.611
X66.99 Y-23.479
G3 X66.439 Y-23.326 I-0.3 J-0.01
G1 X66.424 Y-23.348
X65.919 Y-24.126
G3 X66.377 Y-24.508 I0.252 J-0.163
G1 X66.935 Y-23.941
X66.966 Y-23.907
X66.974 Y-23.894
X66.98 Y-23.88
X66.988 Y-23.853
X66.99 Y-23.84
Y-11.329
X66.959 Y-10.706
X66.91 Y-10.084
X66.825 Y-9.466
X66.713 Y-8.852
X66.719 Y-8.54
X66.848 Y-7.93
X66.91 Y-7.813
X66.954 Y-7.709
X66.981 Y-7.6
X66.99 Y-7.487
G3 X66.39 Y-7.498 I-0.3 J-0.01
G1 Y-11.319
G3 X66.99 Y-11.329 I0.3 J0
G1 Y-5.172
G0 Z5
X12.625 Y-0.618
Z-0.1
G1 Z-0.4 F200
X12.621 Y-0.624 Z-0.467
X12.609 Y-0.644 Z-0.53
X12.591 Y-0.674 Z-0.587
X12.567 Y-0.715 Z-0.635
X12.538 Y-0.764 Z-0.67
X12.505 Y-0.818 Z-0.692
X12.471 Y-0.876 Z-0.7
G3 X12.25 Y-1.629 I1.36 J-0.809
G1 Y-2.685
X12.257 Y-2.835
X12.286 Y-2.982
X12.33 Y-3.126
X12.386 Y-3.265
X12.462 Y-3.414
X12.56 Y-3.575
X12.681 Y-3.742
X13.087 Y-4.215
X13.468 Y-4.709
X13.703 Y-5.287
X13.811 Y-5.902
X13.829 Y-6.526
X13.787 Y-7.148
X13.709 Y-7.767
X13.611 Y-8.383
X13.4 Y-9.613
X13.299 Y-10.229
X13.206 Y-10.846
X13.124 Y-11.464
X13.054 Y-12.084
X12.996 Y-12.706
X12.952 Y-13.328
X12.921 Y-13.951
X12.905 Y-14.575
X12.902 Y-15.199
X12.914 Y-15.823
X12.941 Y-16.446
X12.982 Y-17.069
X13.037 Y-17.69
X13.107 Y-18.31
X13.192 Y-18.928
X13.291 Y-19.544
X13.404 Y-20.158
X13.531 Y-20.769
X13.673 Y-21.376
X13.829 Y-21.981
X13.999 Y-22.581
X14.183 Y-23.177
X14.381 Y-23.769
X14.593 Y-24.356
X14.818 Y-24.937
X15.057 Y-25.514
X15.31 Y-26.084
X15.576 Y-26.649
X15.854 Y-27.207
X16.146 Y-27.759
X16.203 Y-27.861
X16.236 Y-27.915
X16.274 Y-27.965
X16.316 Y-28.011
X25.43 Y-37.261
X25.822 Y-37.62
X26.288 Y-37.984
X26.809 Y-38.327
X27.35 Y-38.639
X27.903 Y-38.927
X28.465 Y-39.197
X29.035 Y-39.451
X29.611 Y-39.69
X30.193 Y-39.916
X30.644 Y-40.078
X30.722 Y-40.101
X30.801 Y-40.115
X30.882 Y-40.12
G3 X31.012 Y-39.555 I-0.01 J0.3
G1 X25.792 Y-36.793
G3 X25.43 Y-37.261 I-0.14 J-0.265
G1 X27.804 Y-39.67
X27.86 Y-39.726
X27.944 Y-39.812
X28.091 Y-39.947
X28.123 Y-39.972
X28.255 Y-40.053
X28.4 Y-40.103
X28.554 Y-40.12
G3 X28.69 Y-39.558 I-0.01 J0.3
G1 X28.684 Y-39.555
X28.311 Y-39.347
G3 X27.944 Y-39.812 I-0.146 J-0.262
G1 X28.224 Y-40.095
X28.239 Y-40.105
X28.254 Y-40.112
X28.269 Y-40.116
X28.285 Y-40.119
X28.568 Y-40.12
X35.583
G0 Z5
X12.625 Y-1.674
Z-0.1
G1 Z-0.4 F200
X12.621 Y-1.68 Z-0.467
X12.609 Y-1.699 Z-0.53
X12.591 Y-1.73 Z-0.587
X12.567 Y-1.771 Z-0.635
X12.538 Y-1.82 Z-0.67
X12.505 Y-1.874 Z-0.692
X12.471 Y-1.932 Z-0.7
G3 X12.25 Y-2.685 I1.36 J-0.809
G1 Y-3.819
X12.257 Y-3.969
X12.341 Y-4.587
X12.455 Y-5.2
X12.522 Y-5.821
X12.537 Y-6.444
X12.508 Y-7.068
X12.448 Y-7.689
X12.369 Y-8.308
X12.28 Y-8.925
X12.258 Y-9.077
X12.253 Y-9.112
X12.251 Y-9.146
X12.25 Y-9.181
G3 X12.85 Y-9.17 I0.3 J0.01
G1 Y-3.829
G3 X12.25 Y-3.819 I-0.3 J0
G1 Y-19.123
X12.281 Y-19.746
X12.331 Y-20.368
X12.423 Y-20.985
X12.543 Y-21.597
X12.686 Y-22.205
X12.848 Y-22.807
X13.025 Y-23.405
X13.218 Y-23.999
X13.425 Y-24.588
X13.645 Y-25.171
X13.682 Y-25.262
X13.722 Y-25.345
X13.772 Y-25.422
X13.832 Y-25.491
G3 X14.33 Y-25.202 I0.206 J0.218
G1 X14.326 Y-25.187
X12.841 Y-19.063
G3 X12.25 Y-19.123 I-0.292 J-0.071
G1 Y-23.516
Y-23.84
X12.252 Y-23.853
X12.26 Y-23.88
X12.265 Y-23.894
X12.274 Y-23.907
X12.305 Y-23.941
X16.316 Y-28.011
G3 X16.749 Y-27.989 I0.206 J0.218
G1 X16.773 Y-27.942 Z-0.695
X16.795 Y-27.896 Z-0.681
X16.816 Y-27.853 Z-0.658
X16.819 Y-27.821 Z-0.636
X16.822 Y-27.793 Z-0.611
X16.817 Y-27.757 Z-0.566
X16.813 Y-27.73 Z-0.514
X16.81 Y-27.713 Z-0.458
Y-27.708 Z-0.4
G0 Z5
X12.868 Y3.364
Z-0.8
G1 Z-1.1 F200
X12.864 Y3.358 Z-1.167
X12.853 Y3.339 Z-1.23
X12.835 Y3.308 Z-1.287
X12.81 Y3.267 Z-1.335
X12.781 Y3.218 Z-1.37
X12.749 Y3.164 Z-1.392
X12.715 Y3.106 Z-1.4
G3 X12.25 Y1.523 I2.858 J-1.699
G1 Y1.352
X12.252 Y1.314
X12.34 Y1.193
X12.446 Y1.086
X12.562 Y0.992
X12.687 Y0.908
X12.817 Y0.833
X12.951 Y0.766
X13.089 Y0.707
X13.229 Y0.654
X13.371 Y0.606
X13.515 Y0.564
X13.66 Y0.526
X13.806 Y0.491
X13.953 Y0.461
X14.1 Y0.433
X14.248 Y0.409
X14.397 Y0.387
X14.546 Y0.367
X14.694 Y0.349
X14.844 Y0.333
X14.993 Y0.319
X15.142 Y0.306
X15.292 Y0.294
X15.448 Y0.284
X15.622 Y0.273
X15.821 Y0.262
X16.05 Y0.251
X16.322 Y0.24
X16.656 Y0.229
X17.088 Y0.219
X17.697 Y0.208
X18.321 Y0.201
X18.945 Y0.197
X20.193 Y0.194
X22.923 Y0.192
X23.391
X23.543 Y0.158
X23.684 Y0.09
X23.806 Y-0.007
X23.904 Y-0.128
X23.972 Y-0.268
X24.008 Y-0.42
X24.009 Y-0.576
X23.976 Y-0.729
X23.71 Y-1.293
X23.481 Y-1.618
X23.172 Y-2.063
X22.819 Y-2.578
X22.47 Y-3.095
X22.212 Y-3.478
X22.13 Y-3.604
X22.049 Y-3.73
X21.97 Y-3.858
X21.893 Y-3.986
X21.816 Y-4.115
X21.741 Y-4.245
X21.66 Y-4.387
X21.57 Y-4.547
X21.468 Y-4.731
X21.351 Y-4.947
X21.213 Y-5.207
X21.042 Y-5.533
X20.882 Y-5.846
X20.814 Y-5.98
X20.749 Y-6.114
X20.685 Y-6.25
X20.623 Y-6.387
X20.562 Y-6.524
X20.503 Y-6.662
X20.446 Y-6.8
X20.387 Y-6.943
X20.323 Y-7.103
X20.252 Y-7.284
X20.172 Y-7.494
X20.079 Y-7.743
X19.967 Y-8.048
X19.83 Y-8.431
X19.78 Y-8.572
X19.733 Y-8.715
X19.688 Y-8.858
X19.644 Y-9.001
X19.603 Y-9.145
X19.562 Y-9.29
X19.523 Y-9.434
X19.486 Y-9.58
X19.445 Y-9.742
X19.4 Y-9.925
X19.35 Y-10.136
X19.293 Y-10.384
X19.226 Y-10.685
X19.145 Y-11.065
X19.114 Y-11.212
X19.085 Y-11.359
X19.058 Y-11.506
X19.034 Y-11.654
X19.01 Y-11.803
X18.989 Y-11.951
X18.969 Y-12.1
X18.95 Y-12.249
X18.932 Y-12.404
X18.913 Y-12.578
X18.893 Y-12.775
X18.871 Y-13.004
X18.847 Y-13.275
X18.82 Y-13.608
X18.795 Y-13.956
X18.785 Y-14.106
X18.777 Y-14.256
X18.772 Y-14.406
X18.768 Y-14.556
X18.767 Y-14.706
X18.766 Y-14.856
X18.767 Y-15.006
X18.77 Y-15.157
X18.774 Y-15.325
X18.779 Y-15.515
X18.788 Y-15.734
X18.799 Y-15.991
X18.815 Y-16.302
X18.839 Y-16.696
X18.849 Y-16.846
X18.86 Y-16.995
X18.874 Y-17.145
X18.89 Y-17.294
X18.908 Y-17.443
X18.927 Y-17.592
X18.948 Y-17.74
X18.969 Y-17.889
X18.994 Y-18.047
X19.023 Y-18.224
X19.057 Y-18.425
X19.099 Y-18.66
X19.151 Y-18.939
X19.217 Y-19.284
X19.273 Y-19.56
X19.304 Y-19.706
X19.336 Y-19.853
X19.371 Y-19.999
X19.408 Y-20.144
X19.447 Y-20.289
X19.486 Y-20.434
X19.528 Y-20.578
X19.571 Y-20.724
X19.62 Y-20.887
X19.677 Y-21.072
X19.744 Y-21.283
X19.825 Y-21.532
X19.926 Y-21.834
X20.058 Y-22.218
X20.107 Y-22.359
X20.159 Y-22.5
X20.213 Y-22.64
X20.269 Y-22.779
X20.326 Y-22.918
X20.384 Y-23.056
X20.444 Y-23.194
X20.505 Y-23.331
X20.574 Y-23.481
X20.652 Y-23.651
X20.744 Y-23.845
X20.852 Y-24.07
X20.985 Y-24.342
X21.155 Y-24.682
X21.234 Y-24.837
X21.303 Y-24.97
X21.374 Y-25.102
X21.447 Y-25.233
X21.521 Y-25.363
X21.597 Y-25.493
X21.674 Y-25.621
X21.752 Y-25.749
X21.834 Y-25.881
X21.927 Y-26.027
X22.033 Y-26.193
X22.157 Y-26.383
X22.306 Y-26.606
X22.489 Y-26.879
X22.699 Y-27.185
X22.785 Y-27.308
X22.873 Y-27.43
X22.962 Y-27.55
X23.053 Y-27.67
X23.145 Y-27.788
X23.239 Y-27.905
X23.333 Y-28.022
X23.429 Y-28.138
X23.536 Y-28.266
X23.659 Y-28.411
X23.801 Y-28.576
X23.97 Y-28.768
X24.175 Y-28.999
X24.437 Y-29.29
X24.538 Y-29.401
X24.641 Y-29.51
X24.744 Y-29.618
X24.85 Y-29.725
X24.956 Y-29.831
X25.064 Y-29.935
X25.173 Y-30.038
X25.283 Y-30.141
X25.399 Y-30.247
X25.53 Y-30.366
X25.681 Y-30.5
X25.856 Y-30.654
X26.066 Y-30.836
X26.326 Y-31.058
X26.569 Y-31.262
X26.685 Y-31.358
X26.802 Y-31.452
X26.92 Y-31.544
X27.04 Y-31.635
X27.16 Y-31.724
X27.281 Y-31.812
X27.404 Y-31.899
X27.528 Y-31.986
X27.667 Y-32.082
X27.826 Y-32.19
X28.009 Y-32.312
X28.226 Y-32.455
X28.49 Y-32.625
X28.827 Y-32.84
X28.954 Y-32.92
X29.082 Y-32.998
X29.212 Y-33.074
X29.342 Y-33.148
X29.908 Y-33.411
X30.477 Y-33.666
X31.049 Y-33.917
X31.621 Y-34.166
X32.199 Y-34.4
X32.788 Y-34.606
X33.383 Y-34.794
X33.981 Y-34.973
X34.58 Y-35.147
X35.188 Y-35.286
X35.801 Y-35.401
X36.417 Y-35.503
X37.034 Y-35.597
X37.653 Y-35.672
X38.276 Y-35.715
X38.899 Y-35.739
X39.523 Y-35.753
X40.147 Y-35.761
X40.77 Y-35.732
X41.392 Y-35.679
X42.012 Y-35.613
X42.632 Y-35.54
X43.249 Y-35.446
X43.86 Y-35.321
X44.467 Y-35.178
X45.072 Y-35.025
X45.676 Y-34.866
X46.268 Y-34.671
X46.853 Y-34.454
X47.434 Y-34.225
X48.011 Y-33.988
X48.58 Y-33.733
X49.136 Y-33.448
X49.683 Y-33.148
X50.225 Y-32.84
X50.764 Y-32.526
X51.283 Y-32.179
X51.789 Y-31.814
X52.287 Y-31.438
X52.78 Y-31.056
X53.26 Y-30.657
X53.719 Y-30.235
X54.166 Y-29.8
X54.606 Y-29.357
X55.042 Y-28.911
X55.449 Y-28.438
X55.839 Y-27.951
X56.218 Y-27.455
X56.592 Y-26.956
X56.948 Y-26.443
X57.277 Y-25.913
X57.592 Y-25.374
X57.898 Y-24.831
X58.199 Y-24.284
X58.464 Y-23.719
X58.71 Y-23.146
X58.943 Y-22.567
X59.17 Y-21.986
X59.375 Y-21.397
X59.551 Y-20.798
X59.71 Y-20.195
X59.861 Y-19.589
X60.004 Y-18.982
X60.109 Y-18.367
X60.192 Y-17.748
X60.263 Y-17.128
X60.326 Y-16.508
X60.366 Y-15.885
X60.375 Y-15.261
X60.368 Y-14.637
X60.351 Y-14.014
X60.326 Y-13.39
X60.263 Y-12.769
X60.178 Y-12.151
X60.081 Y-11.535
X59.977 Y-10.92
X59.848 Y-10.309
X59.69 Y-9.706
X59.517 Y-9.106
X59.334 Y-8.51
X59.143 Y-7.916
X59.074 Y-7.698
X59.027 Y-7.556
X58.977 Y-7.414
X58.926 Y-7.273
X58.874 Y-7.133
X58.82 Y-6.993
X58.764 Y-6.853
X58.705 Y-6.706
X58.636 Y-6.541
X58.557 Y-6.353
X58.464 Y-6.136
X58.372 Y-5.928
X58.311 Y-5.791
X58.247 Y-5.656
X58.182 Y-5.521
X58.114 Y-5.387
X58.045 Y-5.254
X57.974 Y-5.122
X57.902 Y-4.99
X57.829 Y-4.859
X57.752 Y-4.724
X57.665 Y-4.575
X57.565 Y-4.405
X57.449 Y-4.21
X57.309 Y-3.981
X57.136 Y-3.702
X56.991 Y-3.471
X56.91 Y-3.345
X56.827 Y-3.219
X56.743 Y-3.096
X56.657 Y-2.973
X56.569 Y-2.851
X56.48 Y-2.73
X56.39 Y-2.61
X56.299 Y-2.49
X56.197 Y-2.358
X56.08 Y-2.209
X55.944 Y-2.038
X55.784 Y-1.84
X55.588 Y-1.601
X55.274 Y-1.227
X55.203 Y-1.089
X55.163 Y-0.938
X55.159 Y-0.782
X55.189 Y-0.629
X55.252 Y-0.486
X55.345 Y-0.361
X55.463 Y-0.259
X55.739 Y-0.114
X56.35 Y0.013
X56.97 Y0.087
X57.592 Y0.131
X58.216 Y0.157
X58.839 Y0.171
X59.463 Y0.18
X60.087 Y0.185
X60.711 Y0.188
X61.959 Y0.191
X65.703 Y0.192
X66.29
X66.506 Y0.226
X66.701 Y0.326
X66.856 Y0.481
X66.956 Y0.676
X66.99 Y0.892
G0 Z5
X12.625 Y2.363
Z-0.8
G1 Z-1.1 F200
X12.621 Y2.357 Z-1.167
X12.609 Y2.337 Z-1.23
X12.591 Y2.307 Z-1.287
X12.567 Y2.266 Z-1.335
X12.538 Y2.217 Z-1.37
X12.505 Y2.162 Z-1.392
X12.471 Y2.105 Z-1.4
G3 X12.25 Y1.352 I1.36 J-0.809
G1 Y0.921
X12.257 Y0.771
X12.317 Y0.634
X12.393 Y0.504
X12.482 Y0.384
X12.583 Y0.27
X12.708 Y0.15
X12.861 Y0.026
X13.049 Y-0.103
X13.28 Y-0.236
X13.568 Y-0.373
X13.934 Y-0.511
X14.421 Y-0.652
X15.032 Y-0.776
X15.651 Y-0.857
X16.273 Y-0.911
X16.896 Y-0.946
X17.519 Y-0.968
X18.143 Y-0.983
X18.767 Y-0.992
X19.391 Y-0.998
X20.249 Y-1.003
X20.405
X20.557 Y-1.038
X20.697 Y-1.106
X20.819 Y-1.203
X20.916 Y-1.325
X20.984 Y-1.466
X21.055 Y-1.77
X20.994 Y-2.391
X20.827 Y-2.992
X20.603 Y-3.574
X20.351 Y-4.145
X20.085 Y-4.709
X19.821 Y-5.275
X19.568 Y-5.845
X19.327 Y-6.42
X19.097 Y-7.001
X18.878 Y-7.585
X18.677 Y-8.175
X18.495 Y-8.772
X18.33 Y-9.374
X18.179 Y-9.979
X18.042 Y-10.588
X17.926 Y-11.201
X17.829 Y-11.817
X17.75 Y-12.436
X17.684 Y-13.057
X17.635 Y-13.679
X17.607 Y-14.302
X17.599 Y-14.926
X17.607 Y-15.55
X17.629 Y-16.174
X17.669 Y-16.796
X17.73 Y-17.417
X17.81 Y-18.036
X17.905 Y-18.653
X18.014 Y-19.267
X18.142 Y-19.878
X18.291 Y-20.484
X18.457 Y-21.085
X18.638 Y-21.682
X18.832 Y-22.275
X19.046 Y-22.861
X19.279 Y-23.44
X19.529 Y-24.012
X19.791 Y-24.578
X20.067 Y-25.137
X20.363 Y-25.687
X20.676 Y-26.227
X21.003 Y-26.758
X21.341 Y-27.282
X21.694 Y-27.797
X22.065 Y-28.299
X22.451 Y-28.789
X22.849 Y-29.269
X23.258 Y-29.741
X23.681 Y-30.199
X24.119 Y-30.644
X24.57 Y-31.074
X25.032 Y-31.494
X25.503 Y-31.904
X25.987 Y-32.298
X26.483 Y-32.675
X26.991 Y-33.038
X27.506 Y-33.39
X28.03 Y-33.728
X28.572 Y-34.037
X29.127 Y-34.324
X29.688 Y-34.596
X30.254 Y-34.858
X30.825 Y-35.11
X31.403 Y-35.347
X31.987 Y-35.565
X32.577 Y-35.769
X33.17 Y-35.961
X33.769 Y-36.138
X34.372 Y-36.295
X34.981 Y-36.433
X35.593 Y-36.554
X36.208 Y-36.661
X36.825 Y-36.753
X37.445 Y-36.823
X38.067 Y-36.873
X38.69 Y-36.907
X39.313 Y-36.93
X39.937 Y-36.931
X40.561 Y-36.911
X41.184 Y-36.872
X41.805 Y-36.818
X42.426 Y-36.75
X43.043 Y-36.662
X43.658 Y-36.553
X44.269 Y-36.427
X44.877 Y-36.288
X45.481 Y-36.134
X46.08 Y-35.958
X46.673 Y-35.763
X47.26 Y-35.552
X47.843 Y-35.329
X48.419 Y-35.089
X48.986 Y-34.83
X49.545 Y-34.553
X50.097 Y-34.262
X50.644 Y-33.961
X51.179 Y-33.641
X51.703 Y-33.302
X52.217 Y-32.948
X52.723 Y-32.583
X53.219 Y-32.205
X53.703 Y-31.811
X54.174 Y-31.401
X54.633 Y-30.979
X55.084 Y-30.547
X55.523 Y-30.103
X55.946 Y-29.645
X56.353 Y-29.172
X56.748 Y-28.689
X57.133 Y-28.198
X57.503 Y-27.696
X57.856 Y-27.181
X58.193 Y-26.656
X58.516 Y-26.123
X58.83 Y-25.583
X59.125 Y-25.033
X59.4 Y-24.473
X59.658 Y-23.905
X59.904 Y-23.332
X60.135 Y-22.752
X60.347 Y-22.165
X60.54 Y-21.572
X60.716 Y-20.973
X60.88 Y-20.371
X61.028 Y-19.765
X61.154 Y-19.154
X61.261 Y-18.539
X61.351 Y-17.922
X61.428 Y-17.303
X61.487 Y-16.682
X61.525 Y-16.059
X61.543 Y-15.435
X61.546 Y-14.811
X61.537 Y-14.187
X61.506 Y-13.564
X61.454 Y-12.943
X61.383 Y-12.323
X61.299 Y-11.704
X61.199 Y-11.089
X61.079 Y-10.476
X60.938 Y-9.868
X60.782 Y-9.264
X60.612 Y-8.664
X60.434 Y-8.066
X60.242 Y-7.472
X60.032 Y-6.885
X59.807 Y-6.303
X59.565 Y-5.728
X59.302 Y-5.162
X59.018 Y-4.606
X58.718 Y-4.059
X58.404 Y-3.52
X58.076 Y-2.989
X57.989 Y-2.86
X57.901 Y-2.731
X57.844 Y-2.586
X57.821 Y-2.431
X57.832 Y-2.276
X57.878 Y-2.127
X57.955 Y-1.991
X58.166 Y-1.761
X58.714 Y-1.462
X59.31 Y-1.278
X59.924 Y-1.167
X60.544 Y-1.101
X61.167 Y-1.062
X61.79 Y-1.04
X62.414 Y-1.026
X63.038 Y-1.019
X63.662 Y-1.014
X64.286 Y-1.012
X65.527 Y-1.008
X65.828 Y-0.983
X66.105 Y-0.937
X66.306 Y-0.887
X66.509 Y-0.819
X66.566 Y-0.794
X66.739 Y-0.688
X66.874 Y-0.536
X66.96 Y-0.352
X66.99 Y-0.151
Y-0.057
G0 Z5
X12.625 Y1.933
Z-0.8
G1 Z-1.1 F200
X12.621 Y1.926 Z-1.167
X12.609 Y1.907 Z-1.23
X12.591 Y1.876 Z-1.287
X12.567 Y1.836 Z-1.335
X12.538 Y1.787 Z-1.37
X12.505 Y1.732 Z-1.392
X12.471 Y1.675 Z-1.4
G3 X12.25 Y0.921 I1.36 J-0.809
G1 Y0.248
X12.257 Y0.098
X12.291 Y-0.048
X12.343 Y-0.189
X12.411 Y-0.323
X12.49 Y-0.45
X12.589 Y-0.584
X12.712 Y-0.724
X12.858 Y-0.866
X13.05 Y-1.025
X13.26 Y-1.171
X13.543 Y-1.338
X13.86 Y-1.49
X14.277 Y-1.652
X14.809 Y-1.81
X15.419 Y-1.939
X16.037 Y-2.028
X16.658 Y-2.088
X17.281 Y-2.128
X17.904 Y-2.155
X18.06 Y-2.16
X18.211 Y-2.199
X18.35 Y-2.27
X18.469 Y-2.371
X18.563 Y-2.495
X18.692 Y-2.779
X18.792 Y-3.395
X18.742 Y-4.017
X18.608 Y-4.627
X18.43 Y-5.224
X18.23 Y-5.816
X18.022 Y-6.404
X17.817 Y-6.993
X17.622 Y-7.586
X17.439 Y-8.182
X17.268 Y-8.783
X17.111 Y-9.386
X16.969 Y-9.994
X16.844 Y-10.605
X16.736 Y-11.22
X16.643 Y-11.837
X16.566 Y-12.456
X16.505 Y-13.077
X16.462 Y-13.699
X16.436 Y-14.323
X16.427 Y-14.947
X16.433 Y-15.57
X16.456 Y-16.194
X16.496 Y-16.817
X16.554 Y-17.438
X16.628 Y-18.057
X16.718 Y-18.675
X16.824 Y-19.29
X16.948 Y-19.901
X17.089 Y-20.509
X17.246 Y-21.113
X17.418 Y-21.713
X17.606 Y-22.308
X17.811 Y-22.897
X18.032 Y-23.48
X18.269 Y-24.058
X18.52 Y-24.629
X18.786 Y-25.193
X19.067 Y-25.75
X19.365 Y-26.299
X19.676 Y-26.839
X20.001 Y-27.372
X20.34 Y-27.896
X20.694 Y-28.41
X21.062 Y-28.914
X21.443 Y-29.407
X21.837 Y-29.892
X22.243 Y-30.365
X22.662 Y-30.827
X23.095 Y-31.277
X23.54 Y-31.714
X23.995 Y-32.141
X24.461 Y-32.556
X24.939 Y-32.957
X25.428 Y-33.345
X25.927 Y-33.719
X26.435 Y-34.081
X26.954 Y-34.428
X27.485 Y-34.755
X28.028 Y-35.064
X28.579 Y-35.356
X29.137 Y-35.634
X29.702 Y-35.9
X30.272 Y-36.153
X30.849 Y-36.39
X31.432 Y-36.614
X32.019 Y-36.823
X32.612 Y-37.019
X33.209 Y-37.199
X33.811 Y-37.362
X34.418 Y-37.509
X35.028 Y-37.64
X35.641 Y-37.756
X36.257 Y-37.856
X36.876 Y-37.938
X37.496 Y-38.002
X38.118 Y-38.051
X38.741 Y-38.085
X39.365 Y-38.102
X39.989 Y-38.099
X40.612 Y-38.08
X41.235 Y-38.044
X41.857 Y-37.993
X42.477 Y-37.925
X43.095 Y-37.839
X43.711 Y-37.735
X44.323 Y-37.617
X44.933 Y-37.483
X45.538 Y-37.332
X46.139 Y-37.163
X46.735 Y-36.978
X47.325 Y-36.777
X47.911 Y-36.562
X48.491 Y-36.331
X49.063 Y-36.083
X49.629 Y-35.819
X50.187 Y-35.541
X50.739 Y-35.25
X51.282 Y-34.943
X51.817 Y-34.621
X52.341 Y-34.283
X52.857 Y-33.932
X53.364 Y-33.568
X53.861 Y-33.191
X54.347 Y-32.799
X54.821 Y-32.394
X55.286 Y-31.977
X55.739 Y-31.549
X56.181 Y-31.108
X56.609 Y-30.655
X57.025 Y-30.189
X57.428 Y-29.714
X57.82 Y-29.228
X58.198 Y-28.731
X58.561 Y-28.224
X58.911 Y-27.707
X59.247 Y-27.182
X59.571 Y-26.648
X59.879 Y-26.106
X60.171 Y-25.554
X60.447 Y-24.995
X60.709 Y-24.429
X60.957 Y-23.856
X61.189 Y-23.277
X61.404 Y-22.691
X61.602 Y-22.099
X61.786 Y-21.503
X61.955 Y-20.903
X62.107 Y-20.297
X62.241 Y-19.688
X62.358 Y-19.075
X62.46 Y-18.46
X62.546 Y-17.842
X62.615 Y-17.221
X62.665 Y-16.6
X62.699 Y-15.976
X62.717 Y-15.353
X62.72 Y-14.729
X62.706 Y-14.105
X62.672 Y-13.482
X62.622 Y-12.86
X62.555 Y-12.24
X62.473 Y-11.621
X62.374 Y-11.005
X62.257 Y-10.392
X62.124 Y-9.783
X61.974 Y-9.177
X61.813 Y-8.574
X61.639 Y-7.975
X61.451 Y-7.38
X61.248 Y-6.79
X61.03 Y-6.206
X60.796 Y-5.627
X60.543 Y-5.057
X60.273 Y-4.494
X60.13 Y-4.217
X60.057 Y-4.079
X60.017 Y-3.928
X60.01 Y-3.773
X60.039 Y-3.619
X60.1 Y-3.476
X60.284 Y-3.224
X60.773 Y-2.836
X61.346 Y-2.59
X61.951 Y-2.437
X62.568 Y-2.345
X63.19 Y-2.289
X63.813 Y-2.256
X64.437 Y-2.236
X65.06 Y-2.213
X65.593 Y-2.162
X65.941 Y-2.1
X66.235 Y-2.023
X66.443 Y-1.95
X66.573 Y-1.893
X66.744 Y-1.786
X66.877 Y-1.635
X66.961 Y-1.452
X66.99 Y-1.253
Y-0.151
G0 Z5
X12.625 Y1.259
Z-0.8
G1 Z-1.1 F200
X12.621 Y1.253 Z-1.167
X12.609 Y1.234 Z-1.23
X12.591 Y1.203 Z-1.287
X12.567 Y1.162 Z-1.335
X12.538 Y1.113 Z-1.37
X12.505 Y1.059 Z-1.392
X12.471 Y1.001 Z-1.4
G3 X12.25 Y0.248 I1.36 J-0.809
G1 Y-0.637
X12.257 Y-0.787
X12.285 Y-0.935
X12.33 Y-1.078
X12.39 Y-1.215
X12.461 Y-1.348
X12.556 Y-1.495
X12.669 Y-1.642
X12.814 Y-1.802
X12.988 Y-1.966
X13.201 Y-2.137
X13.462 Y-2.313
X13.773 Y-2.489
X14.152 Y-2.665
X14.631 Y-2.842
X15.232 Y-3.01
X15.844 Y-3.131
X15.999 Y-3.152
X16.145 Y-3.207
X16.275 Y-3.293
X16.491 Y-3.518
X16.792 Y-4.064
X16.891 Y-4.68
X16.864 Y-5.304
X16.764 Y-5.92
X16.625 Y-6.528
X16.469 Y-7.132
X16.307 Y-7.735
X16.148 Y-8.338
X15.997 Y-8.943
X15.856 Y-9.551
X15.729 Y-10.162
X15.617 Y-10.776
X15.518 Y-11.392
X15.435 Y-12.01
X15.367 Y-12.631
X15.315 Y-13.252
X15.279 Y-13.875
X15.258 Y-14.499
X15.253 Y-15.123
X15.264 Y-15.747
X15.291 Y-16.37
X15.334 Y-16.992
X15.393 Y-17.614
X15.467 Y-18.233
X15.557 Y-18.851
X15.664 Y-19.465
X15.786 Y-20.077
X15.924 Y-20.686
X16.077 Y-21.291
X16.246 Y-21.891
X16.43 Y-22.488
X16.629 Y-23.079
X16.844 Y-23.664
X17.074 Y-24.244
X17.318 Y-24.819
X17.577 Y-25.386
X17.85 Y-25.947
X18.138 Y-26.501
X18.44 Y-27.047
X18.755 Y-27.586
X19.084 Y-28.116
X19.426 Y-28.638
X19.782 Y-29.15
X20.151 Y-29.653
X20.532 Y-30.147
X20.925 Y-30.632
X21.332 Y-31.105
X21.75 Y-31.568
X22.18 Y-32.02
X22.622 Y-32.461
X23.074 Y-32.891
X23.537 Y-33.309
X24.012 Y-33.714
X24.496 Y-34.107
X24.991 Y-34.487
X25.495 Y-34.855
X26.01 Y-35.208
X26.535 Y-35.544
X27.07 Y-35.865
X27.615 Y-36.17
X28.166 Y-36.461
X28.725 Y-36.739
X29.29 Y-37.003
X29.862 Y-37.254
X30.439 Y-37.491
X31.021 Y-37.715
X31.608 Y-37.926
X32.201 Y-38.122
X32.798 Y-38.303
X33.399 Y-38.468
X34.005 Y-38.619
X34.614 Y-38.755
X35.226 Y-38.876
X35.841 Y-38.98
X36.459 Y-39.068
X37.079 Y-39.141
X37.7 Y-39.199
X38.322 Y-39.24
X38.946 Y-39.266
X39.57 Y-39.275
X40.194 Y-39.267
X40.817 Y-39.245
X41.44 Y-39.206
X42.061 Y-39.151
X42.681 Y-39.08
X43.299 Y-38.993
X43.915 Y-38.891
X44.527 Y-38.773
X45.137 Y-38.64
X45.743 Y-38.491
X46.344 Y-38.325
X46.942 Y-38.145
X47.534 Y-37.949
X48.121 Y-37.738
X48.703 Y-37.512
X49.278 Y-37.27
X49.847 Y-37.014
X50.41 Y-36.745
X50.965 Y-36.461
X51.513 Y-36.162
X52.053 Y-35.849
X52.584 Y-35.522
X53.108 Y-35.182
X53.622 Y-34.829
X54.127 Y-34.463
X54.622 Y-34.083
X55.108 Y-33.691
X55.583 Y-33.287
X56.048 Y-32.871
X56.503 Y-32.444
X56.946 Y-32.004
X57.377 Y-31.553
X57.796 Y-31.091
X58.204 Y-30.619
X58.599 Y-30.136
X58.982 Y-29.643
X59.351 Y-29.14
X59.707 Y-28.628
X60.051 Y-28.108
X60.382 Y-27.578
X60.699 Y-27.041
X61.001 Y-26.495
X61.289 Y-25.941
X61.563 Y-25.381
X61.822 Y-24.813
X62.068 Y-24.24
X62.297 Y-23.66
X62.512 Y-23.074
X62.712 Y-22.483
X62.897 Y-21.887
X63.067 Y-21.287
X63.221 Y-20.682
X63.359 Y-20.073
X63.482 Y-19.462
X63.589 Y-18.847
X63.68 Y-18.23
X63.754 Y-17.61
X63.813 Y-16.989
X63.855 Y-16.367
X63.883 Y-15.743
X63.894 Y-15.119
X63.89 Y-14.495
X63.868 Y-13.872
X63.831 Y-13.249
X63.778 Y-12.627
X63.709 Y-12.007
X63.625 Y-11.389
X63.524 Y-10.773
X63.407 Y-10.16
X63.275 Y-9.551
X63.129 Y-8.944
X62.97 Y-8.34
X62.798 Y-7.741
X62.612 Y-7.145
X62.412 Y-6.554
X62.198 Y-5.968
X62.082 Y-5.678
X61.962 Y-5.39
X61.935 Y-5.237
X61.943 Y-5.081
X61.985 Y-4.931
X62.133 Y-4.656
X62.557 Y-4.199
X63.104 Y-3.897
X63.697 Y-3.705
X64.309 Y-3.581
X64.925 Y-3.483
X65.54 Y-3.375
X65.976 Y-3.271
X66.298 Y-3.167
X66.519 Y-3.075
X66.61 Y-3.028
X66.766 Y-2.919
X66.887 Y-2.77
X66.964 Y-2.595
X66.99 Y-2.406
Y-1.253
G0 Z5
X12.625 Y0.374
Z-0.8
G1 Z-1.1 F200
X12.621 Y0.367 Z-1.167
X12.609 Y0.348 Z-1.23
X12.591 Y0.318 Z-1.287
X12.567 Y0.277 Z-1.335
X12.538 Y0.228 Z-1.37
X12.505 Y0.173 Z-1.392
X12.471 Y0.116 Z-1.4
G3 X12.25 Y-0.637 I1.36 J-0.809
G1 Y-1.629
X12.257 Y-1.779
X12.284 Y-1.927
X12.328 Y-2.07
X12.384 Y-2.209
X12.458 Y-2.352
X12.552 Y-2.505
X12.668 Y-2.664
X12.818 Y-2.836
X12.992 Y-3.008
X13.218 Y-3.197
X13.475 Y-3.379
X13.809 Y-3.577
X14.369 Y-3.851
X14.621 Y-4.036
X14.821 Y-4.275
X15.125 Y-4.82
X15.252 Y-5.431
X15.262 Y-6.054
X15.202 Y-6.675
X15.101 Y-7.291
X14.979 Y-7.903
X14.85 Y-8.513
X14.721 Y-9.124
X14.6 Y-9.736
X14.488 Y-10.35
X14.388 Y-10.966
X14.301 Y-11.584
X14.227 Y-12.203
X14.169 Y-12.824
X14.124 Y-13.447
X14.095 Y-14.07
X14.08 Y-14.694
Y-15.318
X14.096 Y-15.941
X14.126 Y-16.565
X14.172 Y-17.187
X14.233 Y-17.808
X14.309 Y-18.427
X14.399 Y-19.045
X14.506 Y-19.659
X14.627 Y-20.271
X14.763 Y-20.88
X14.913 Y-21.486
X15.079 Y-22.088
X15.259 Y-22.685
X15.454 Y-23.277
X15.664 Y-23.865
X15.888 Y-24.447
X16.126 Y-25.024
X16.378 Y-25.595
X16.645 Y-26.159
X16.925 Y-26.717
X17.218 Y-27.268
X17.524 Y-27.811
X17.844 Y-28.347
X18.176 Y-28.875
X18.521 Y-29.395
X18.879 Y-29.906
X19.249 Y-30.408
X19.631 Y-30.902
X20.025 Y-31.385
X20.431 Y-31.859
X20.849 Y-32.323
X21.277 Y-32.776
X21.716 Y-33.22
X22.166 Y-33.652
X22.627 Y-34.073
X23.098 Y-34.482
X23.579 Y-34.879
X24.07 Y-35.264
X24.571 Y-35.637
X25.081 Y-35.995
X25.601 Y-36.34
X26.131 Y-36.67
X26.669 Y-36.985
X27.215 Y-37.287
X27.768 Y-37.576
X28.328 Y-37.852
X28.894 Y-38.114
X29.466 Y-38.363
X30.044 Y-38.6
X30.626 Y-38.823
X31.214 Y-39.033
X31.806 Y-39.23
X32.403 Y-39.412
X33.004 Y-39.58
X33.608 Y-39.734
X34.217 Y-39.873
X34.828 Y-39.998
X35.442 Y-40.107
X35.513 Y-40.116
X35.548 Y-40.119
X35.583 Y-40.12
X42.454
X43.077 Y-40.089
X43.7 Y-40.049
X44.319 Y-39.971
X44.934 Y-39.865
X45.544 Y-39.737
X46.15 Y-39.589
X46.752 Y-39.425
X47.35 Y-39.245
X47.942 Y-39.049
X48.529 Y-38.838
X49.111 Y-38.613
X49.687 Y-38.373
X50.257 Y-38.119
X50.821 Y-37.852
X51.378 Y-37.571
X51.928 Y-37.276
X52.47 Y-36.968
X53.005 Y-36.646
X53.531 Y-36.311
X54.05 Y-35.963
X54.559 Y-35.603
X55.059 Y-35.23
X55.551 Y-34.846
X56.032 Y-34.449
X56.504 Y-34.041
X56.966 Y-33.622
X57.418 Y-33.191
X57.858 Y-32.749
X58.288 Y-32.297
X58.706 Y-31.834
X59.114 Y-31.361
X59.509 Y-30.878
X59.892 Y-30.386
X60.263 Y-29.884
X60.622 Y-29.374
X60.968 Y-28.855
X61.302 Y-28.328
X61.622 Y-27.792
X61.929 Y-27.249
X62.222 Y-26.698
X62.502 Y-26.14
X62.768 Y-25.576
X63.02 Y-25.005
X63.258 Y-24.428
X63.482 Y-23.846
X63.691 Y-23.258
X63.887 Y-22.666
X64.068 Y-22.069
X64.234 Y-21.467
X64.385 Y-20.862
X64.521 Y-20.253
X64.643 Y-19.641
X64.749 Y-19.026
X64.84 Y-18.409
X64.916 Y-17.79
X64.977 Y-17.169
X65.022 Y-16.546
X65.053 Y-15.923
X65.068 Y-15.299
Y-14.675
X65.052 Y-14.052
X65.021 Y-13.428
X64.975 Y-12.806
X64.913 Y-12.185
X64.836 Y-11.566
X64.744 Y-10.949
X64.637 Y-10.334
X64.516 Y-9.722
X64.381 Y-9.113
X64.232 Y-8.507
X64.07 Y-7.905
X63.896 Y-7.306
X63.708 Y-6.711
X63.695 Y-6.555
X63.735 Y-6.246
X63.869 Y-5.964
X64.253 Y-5.472
X64.766 Y-5.117
X65.329 Y-4.848
X65.908 Y-4.615
X66.354 Y-4.426
X66.612 Y-4.291
X66.663 Y-4.258
X66.799 Y-4.147
X66.903 Y-4.004
X66.968 Y-3.841
X66.99 Y-3.666
Y-2.406
G0 Z5
X41.442 Y-39.745
Z-0.8
G1 Z-1.1 F200
X41.449 Y-39.749 Z-1.167
X41.468 Y-39.761 Z-1.23
X41.499 Y-39.779 Z-1.287
X41.539 Y-39.803 Z-1.335
X41.588 Y-39.832 Z-1.37
X41.643 Y-39.865 Z-1.392
X41.7 Y-39.899 Z-1.4
G3 X42.454 Y-40.12 I0.809 J1.36
G1 X47.13
X47.672 Y-40.093
X48.136 Y-40.032
X48.746 Y-39.901
X49.344 Y-39.723
X49.931 Y-39.511
X50.509 Y-39.276
X51.079 Y-39.022
X51.641 Y-38.751
X52.195 Y-38.465
X52.743 Y-38.165
X53.073 Y-37.973
X53.125 Y-37.939
X53.175 Y-37.901
X53.22 Y-37.859
G3 X52.895 Y-37.375 I-0.221 J0.203
G1 X47.036 Y-39.539
G3 X47.13 Y-40.12 I0.104 J-0.281
G1 X50.247
X50.388
X50.431
X50.581 Y-40.112
X50.832 Y-40.077
X50.979 Y-40.04
X51.115 Y-39.972
X51.233 Y-39.875
G3 X50.937 Y-39.382 I-0.221 J0.203
G1 X50.922 Y-39.386
X50.367 Y-39.53
G3 X50.431 Y-40.12 I0.075 J-0.29
G1 X50.813
X50.955 Y-40.119
X50.97 Y-40.116
X50.986 Y-40.112
X51.001 Y-40.105
X51.016 Y-40.095
X51.575 Y-39.528
X61.865 Y-29.086
X62.281 Y-28.62
X62.66 Y-28.131
X63.002 Y-27.609
X63.314 Y-27.068
X63.604 Y-26.516
X63.875 Y-25.954
X64.129 Y-25.384
X64.368 Y-24.808
X64.592 Y-24.225
X64.803 Y-23.638
X64.999 Y-23.046
X65.181 Y-22.449
X65.349 Y-21.848
X65.503 Y-21.243
X65.642 Y-20.635
X65.768 Y-20.024
X65.878 Y-19.41
X65.974 Y-18.793
X66.056 Y-18.175
X66.123 Y-17.554
X66.175 Y-16.933
X66.213 Y-16.31
X66.237 Y-15.686
X66.245 Y-15.062
X66.239 Y-14.439
X66.219 Y-13.815
X66.183 Y-13.192
X66.133 Y-12.57
X66.069 Y-11.949
X65.99 Y-11.331
X65.897 Y-10.714
X65.789 Y-10.099
X65.668 Y-9.487
X65.534 Y-8.877
X65.387 Y-8.271
X65.307 Y-7.97
X65.272 Y-7.66
X65.329 Y-7.353
X65.575 Y-6.78
X65.988 Y-6.312
X66.472 Y-5.918
X66.72 Y-5.724
X66.865 Y-5.57
X66.958 Y-5.38
X66.99 Y-5.172
Y-3.666
G0 Z5
X60.889 Y-29.543
Z-0.8
G1 Z-1.1 F200
X60.896 Y-29.541 Z-1.167
X60.917 Y-29.536 Z-1.23
X60.952 Y-29.527 Z-1.287
X60.998 Y-29.514 Z-1.335
X61.053 Y-29.5 Z-1.37
X61.114 Y-29.484 Z-1.392
X61.179 Y-29.467 Z-1.4
G3 X61.865 Y-29.086 I-0.401 J1.531
G1 X64.416 Y-26.497
X64.705 Y-26.172
X64.944 Y-25.858
X65.216 Y-25.43
X65.508 Y-24.878
X65.761 Y-24.308
X65.984 Y-23.725
X66.186 Y-23.135
X66.369 Y-22.538
X66.536 Y-21.937
X66.688 Y-21.332
X66.824 Y-20.723
X66.947 Y-20.111
X66.979 Y-19.928
X66.985 Y-19.888
X66.989 Y-19.847
X66.99 Y-19.807
G3 X66.41 Y-19.71 I-0.3 J-0.01
G1 X63.929 Y-26.172
G3 X64.416 Y-26.497 I0.28 J-0.108
G1 X66.377 Y-24.508
X66.583 Y-24.276
X66.768 Y-24.031
X66.88 Y-23.855
X66.94 Y-23.738
X66.977 Y-23.611
X66.99 Y-23.479
G3 X66.439 Y-23.326 I-0.3 J-0.01
G1 X66.424 Y-23.348
X65.919 Y-24.126
G3 X66.377 Y-24.508 I0.252 J-0.163
G1 X66.935 Y-23.941
X66.966 Y-23.907
X66.974 Y-23.894
X66.98 Y-23.88
X66.988 Y-23.853
X66.99 Y-23.84
Y-11.329
X66.959 Y-10.706
X66.91 Y-10.084
X66.825 Y-9.466
X66.713 Y-8.852
X66.719 Y-8.54
X66.848 Y-7.93
X66.91 Y-7.813
X66.954 Y-7.709
X66.981 Y-7.6
X66.99 Y-7.487
G3 X66.39 Y-7.498 I-0.3 J-0.01
G1 Y-11.319
G3 X66.99 Y-11.329 I0.3 J0
G1 Y-5.172
G0 Z5
X12.625 Y-0.618
Z-0.8
G1 Z-1.1 F200
X12.621 Y-0.624 Z-1.167
X12.609 Y-0.644 Z-1.23
X12.591 Y-0.674 Z-1.287
X12.567 Y-0.715 Z-1.335
X12.538 Y-0.764 Z-1.37
X12.505 Y-0.818 Z-1.392
X12.471 Y-0.876 Z-1.4
G3 X12.25 Y-1.629 I1.36 J-0.809
G1 Y-2.685
X12.257 Y-2.835
X12.286 Y-2.982
X12.33 Y-3.126
X12.386 Y-3.265
X12.462 Y-3.414
X12.56 Y-3.575
X12.681 Y-3.742
X13.087 Y-4.215
X13.468 Y-4.709
X13.703 Y-5.287
X13.811 Y-5.902
X13.829 Y-6.526
X13.787 Y-7.148
X13.709 Y-7.767
X13.611 Y-8.383
X13.4 Y-9.613
X13.299 Y-10.229
X13.206 Y-10.846
X13.124 Y-11.464
X13.054 Y-12.084
X12.996 Y-12.706
X12.952 Y-13.328
X12.921 Y-13.951
X12.905 Y-14.575
X12.902 Y-15.199
X12.914 Y-15.823
X12.941 Y-16.446
X12.982 Y-17.069
X13.037 Y-17.69
X13.107 Y-18.31
X13.192 Y-18.928
X13.291 Y-19.544
X13.404 Y-20.158
X13.531 Y-20.769
X13.673 Y-21.376
X13.829 Y-21.981
X13.999 Y-22.581
X14.183 Y-23.177
X14.381 Y-23.769
X14.593 Y-24.356
X14.818 Y-24.937
X15.057 Y-25.514
X15.31 Y-26.084
X15.576 Y-26.649
X15.854 Y-27.207
X16.146 Y-27.759
X16.203 Y-27.861
X16.236 Y-27.915
X16.274 Y-27.965
X16.316 Y-28.011
X25.43 Y-37.261
X25.822 Y-37.62
X26.288 Y-37.984
X26.809 Y-38.327
X27.35 Y-38.639
X27.903 Y-38.927
X28.465 Y-39.197
X29.035 Y-39.451
X29.611 Y-39.69
X30.193 Y-39.916
X30.644 Y-40.078
X30.722 Y-40.101
X30.801 Y-40.115
X30.882 Y-40.12
G3 X31.012 Y-39.555 I-0.01 J0.3
G1 X25.792 Y-36.793
G3 X25.43 Y-37.261 I-0.14 J-0.265
G1 X27.804 Y-39.67
X27.86 Y-39.726
X27.944 Y-39.812
X28.091 Y-39.947
X28.123 Y-39.972
X28.255 Y-40.053
X28.4 Y-40.103
X28.554 Y-40.12
G3 X28.69 Y-39.558 I-0.01 J0.3
G1 X28.684 Y-39.555
X28.311 Y-39.347
G3 X27.944 Y-39.812 I-0.146 J-0.262
G1 X28.224 Y-40.095
X28.239 Y-40.105
X28.254 Y-40.112
X28.269 Y-40.116
X28.285 Y-40.119
X28.568 Y-40.12
X35.583
G0 Z5
X12.625 Y-1.674
Z-0.8
G1 Z-1.1 F200
X12.621 Y-1.68 Z-1.167
X12.609 Y-1.699 Z-1.23
X12.591 Y-1.73 Z-1.287
X12.567 Y-1.771 Z-1.335
X12.538 Y-1.82 Z-1.37
X12.505 Y-1.874 Z-1.392
X12.471 Y-1.932 Z-1.4
G3 X12.25 Y-2.685 I1.36 J-0.809
G1 Y-3.819
X12.257 Y-3.969
X12.341 Y-4.587
X12.455 Y-5.2
X12.522 Y-5.821
X12.537 Y-6.444
X12.508 Y-7.068
X12.448 Y-7.689
X12.369 Y-8.308
X12.28 Y-8.925
X12.258 Y-9.077
X12.253 Y-9.112
X12.251 Y-9.146
X12.25 Y-9.181
G3 X12.85 Y-9.17 I0.3 J0.01
G1 Y-3.829
G3 X12.25 Y-3.819 I-0.3 J0
G1 Y-19.123
X12.281 Y-19.746
X12.331 Y-20.368
X12.423 Y-20.985
X12.543 Y-21.597
X12.686 Y-22.205
X12.848 Y-22.807
X13.025 Y-23.405
X13.218 Y-23.999
X13.425 Y-24.588
X13.645 Y-25.171
X13.682 Y-25.262
X13.722 Y-25.345
X13.772 Y-25.422
X13.832 Y-25.491
G3 X14.33 Y-25.202 I0.206 J0.218
G1 X14.326 Y-25.187
X12.841 Y-19.063
G3 X12.25 Y-19.123 I-0.292 J-0.071
G1 Y-23.516
Y-23.84
X12.252 Y-23.853
X12.26 Y-23.88
X12.265 Y-23.894
X12.274 Y-23.907
X12.305 Y-23.941
X16.316 Y-28.011
G3 X16.749 Y-27.989 I0.206 J0.218
G1 X16.773 Y-27.942 Z-1.395
X16.795 Y-27.896 Z-1.381
X16.816 Y-27.853 Z-1.358
X16.819 Y-27.821 Z-1.336
X16.822 Y-27.793 Z-1.311
X16.817 Y-27.757 Z-1.266
X16.813 Y-27.73 Z-1.214
X16.81 Y-27.713 Z-1.158
Y-27.708 Z-1.1
G0 Z5
X12.868 Y3.364
Z-1.5
G1 Z-1.8 F200
X12.864 Y3.358 Z-1.867
X12.853 Y3.339 Z-1.93
X12.835 Y3.308 Z-1.987
X12.81 Y3.267 Z-2.035
X12.781 Y3.218 Z-2.07
X12.749 Y3.164 Z-2.092
X12.715 Y3.106 Z-2.1
G3 X12.25 Y1.523 I2.858 J-1.699
G1 Y1.352
X12.252 Y1.314
X12.34 Y1.193
X12.446 Y1.086
X12.562 Y0.992
X12.687 Y0.908
X12.817 Y0.833
X12.951 Y0.766
X13.089 Y0.707
X13.229 Y0.654
X13.371 Y0.606
X13.515 Y0.564
X13.66 Y0.526
X13.806 Y0.491
X13.953 Y0.461
X14.1 Y0.433
X14.248 Y0.409
X14.397 Y0.387
X14.546 Y0.367
X14.694 Y0.349
X14.844 Y0.333
X14.993 Y0.319
X15.142 Y0.306
X15.292 Y0.294
X15.448 Y0.284
X15.622 Y0.273
X15.821 Y0.262
X16.05 Y0.251
X16.322 Y0.24
X16.656 Y0.229
X17.088 Y0.219
X17.697 Y0.208
X18.321 Y0.201
X18.945 Y0.197
X20.193 Y0.194
X22.923 Y0.192
X23.391
X23.543 Y0.158
X23.684 Y0.09
X23.806 Y-0.007
X23.904 Y-0.128
X23.972 Y-0.268
X24.008 Y-0.42
X24.009 Y-0.576
X23.976 Y-0.729
X23.71 Y-1.293
X23.481 Y-1.618
X23.172 Y-2.063
X22.819 Y-2.578
X22.47 Y-3.095
X22.212 Y-3.478
X22.13 Y-3.604
X22.049 Y-3.73
X21.97 Y-3.858
X21.893 Y-3.986
X21.816 Y-4.115
X21.741 Y-4.245
X21.66 Y-4.387
X21.57 Y-4.547
X21.468 Y-4.731
X21.351 Y-4.947
X21.213 Y-5.207
X21.042 Y-5.533
X20.882 Y-5.846
X20.814 Y-5.98
X20.749 Y-6.114
X20.685 Y-6.25
X20.623 Y-6.387
X20.562 Y-6.524
X20.503 Y-6.662
X20.446 Y-6.8
X20.387 Y-6.943
X20.323 Y-7.103
X20.252 Y-7.284
X20.172 Y-7.494
X20.079 Y-7.743
X19.967 Y-8.048
X19.83 Y-8.431
X19.78 Y-8.572
X19.733 Y-8.715
X19.688 Y-8.858
X19.644 Y-9.001
X19.603 Y-9.145
X19.562 Y-9.29
X19.523 Y-9.434
X19.486 Y-9.58
X19.445 Y-9.742
X19.4 Y-9.925
X19.35 Y-10.136
X19.293 Y-10.384
X19.226 Y-10.685
X19.145 Y-11.065
X19.114 Y-11.212
X19.085 Y-11.359
X19.058 Y-11.506
X19.034 Y-11.654
X19.01 Y-11.803
X18.989 Y-11.951
X18.969 Y-12.1
X18.95 Y-12.249
X18.932 Y-12.404
X18.913 Y-12.578
X18.893 Y-12.775
X18.871 Y-13.004
X18.847 Y-13.275
X18.82 Y-13.608
X18.795 Y-13.956
X18.785 Y-14.106
X18.777 Y-14.256
X18.772 Y-14.406
X18.768 Y-14.556
X18.767 Y-14.706
X18.766 Y-14.856
X18.767 Y-15.006
X18.77 Y-15.157
X18.774 Y-15.325
X18.779 Y-15.515
X18.788 Y-15.734
X18.799 Y-15.991
X18.815 Y-16.302
X18.839 Y-16.696
X18.849 Y-16.846
X18.86 Y-16.995
X18.874 Y-17.145
X18.89 Y-17.294
X18.908 Y-17.443
X18.927 Y-17.592
X18.948 Y-17.74
X18.969 Y-17.889
X18.994 Y-18.047
X19.023 Y-18.224
X19.057 Y-18.425
X19.099 Y-18.66
X19.151 Y-18.939
X19.217 Y-19.284
X19.273 Y-19.56
X19.304 Y-19.706
X19.336 Y-19.853
X19.371 Y-19.999
X19.408 Y-20.144
X19.447 Y-20.289
X19.486 Y-20.434
X19.528 Y-20.578
X19.571 Y-20.724
X19.62 Y-20.887
X19.677 Y-21.072
X19.744 Y-21.283
X19.825 Y-21.532
X19.926 Y-21.834
X20.058 Y-22.218
X20.107 Y-22.359
X20.159 Y-22.5
X20.213 Y-22.64
X20.269 Y-22.779
X20.326 Y-22.918
X20.384 Y-23.056
X20.444 Y-23.194
X20.505 Y-23.331
X20.574 Y-23.481
X20.652 Y-23.651
X20.744 Y-23.845
X20.852 Y-24.07
X20.985 Y-24.342
X21.155 Y-24.682
X21.234 Y-24.837
X21.303 Y-24.97
X21.374 Y-25.102
X21.447 Y-25.233
X21.521 Y-25.363
X21.597 Y-25.493
X21.674 Y-25.621
X21.752 Y-25.749
X21.834 Y-25.881
X21.927 Y-26.027
X22.033 Y-26.193
X22.157 Y-26.383
X22.306 Y-26.606
X22.489 Y-26.879
X22.699 Y-27.185
X22.785 Y-27.308
X22.873 Y-27.43
X22.962 Y-27.55
X23.053 Y-27.67
X23.145 Y-27.788
X23.239 Y-27.905
X23.333 Y-28.022
X23.429 Y-28.138
X23.536 Y-28.266
X23.659 Y-28.411
X23.801 Y-28.576
X23.97 Y-28.768
X24.175 Y-28.999
X24.437 Y-29.29
X24.538 Y-29.401
X24.641 Y-29.51
X24.744 Y-29.618
X24.85 Y-29.725
X24.956 Y-29.831
X25.064 Y-29.935
X25.173 Y-30.038
X25.283 Y-30.141
X25.399 Y-30.247
X25.53 Y-30.366
X25.681 Y-30.5
X25.856 Y-30.654
X26.066 Y-30.836
X26.326 Y-31.058
X26.569 Y-31.262
X26.685 Y-31.358
X26.802 Y-31.452
X26.92 Y-31.544
X27.04 Y-31.635
X27.16 Y-31.724
X27.281 Y-31.812
X27.404 Y-31.899
X27.528 Y-31.986
X27.667 Y-32.082
X27.826 Y-32.19
X28.009 Y-32.312
X28.226 Y-32.455
X28.49 Y-32.625
X28.827 Y-32.84
X28.954 Y-32.92
X29.082 Y-32.998
X29.212 Y-33.074
X29.342 Y-33.148
X29.908 Y-33.411
X30.477 Y-33.666
X31.049 Y-33.917
X31.621 Y-34.166
X32.199 Y-34.4
X32.788 Y-34.606
X33.383 Y-34.794
X33.981 Y-34.973
X34.58 Y-35.147
X35.188 Y-35.286
X35.801 Y-35.401
X36.417 Y-35.503
X37.034 Y-35.597
X37.653 Y-35.672
X38.276 Y-35.715
X38.899 Y-35.739
X39.523 Y-35.753
X40.147 Y-35.761
X40.77 Y-35.732
X41.392 Y-35.679
X42.012 Y-35.613
X42.632 Y-35.54
X43.249 Y-35.446
X43.86 Y-35.321
X44.467 Y-35.178
X45.072 Y-35.025
X45.676 Y-34.866
X46.268 Y-34.671
X46.853 Y-34.454
X47.434 Y-34.225
X48.011 Y-33.988
X48.58 Y-33.733
X49.136 Y-33.448
X49.683 Y-33.148
X50.225 Y-32.84
X50.764 Y-32.526
X51.283 Y-32.179
X51.789 Y-31.814
X52.287 Y-31.438
X52.78 Y-31.056
X53.26 Y-30.657
X53.719 Y-30.235
X54.166 Y-29.8
X54.606 Y-29.357
X55.042 Y-28.911
X55.449 Y-28.438
X55.839 Y-27.951
X56.218 Y-27.455
X56.592 Y-26.956
X56.948 Y-26.443
X57.277 Y-25.913
X57.592 Y-25.374
X57.898 Y-24.831
X58.199 Y-24.284
X58.464 Y-23.719
X58.71 Y-23.146
X58.943 Y-22.567
X59.17 Y-21.986
X59.375 Y-21.397
X59.551 Y-20.798
X59.71 Y-20.195
X59.861 Y-19.589
X60.004 Y-18.982
X60.109 Y-18.367
X60.192 Y-17.748
X60.263 Y-17.128
X60.326 Y-16.508
X60.366 Y-15.885
X60.375 Y-15.261
X60.368 Y-14.637
X60.351 Y-14.014
X60.326 Y-13.39
X60.263 Y-12.769
X60.178 Y-12.151
X60.081 Y-11.535
X59.977 Y-10.92
X59.848 Y-10.309
X59.69 Y-9.706
X59.517 Y-9.106
X59.334 Y-8.51
X59.143 Y-7.916
X59.074 Y-7.698
X59.027 Y-7.556
X58.977 Y-7.414
X58.926 Y-7.273
X58.874 Y-7.133
X58.82 Y-6.993
X58.764 Y-6.853
X58.705 Y-6.706
X58.636 Y-6.541
X58.557 Y-6.353
X58.464 Y-6.136
X58.372 Y-5.928
X58.311 Y-5.791
X58.247 Y-5.656
X58.182 Y-5.521
X58.114 Y-5.387
X58.045 Y-5.254
X57.974 Y-5.122
X57.902 Y-4.99
X57.829 Y-4.859
X57.752 Y-4.724
X57.665 Y-4.575
X57.565 Y-4.405
X57.449 Y-4.21
X57.309 Y-3.981
X57.136 Y-3.702
X56.991 Y-3.471
X56.91 Y-3.345
X56.827 Y-3.219
X56.743 Y-3.096
X56.657 Y-2.973
X56.569 Y-2.851
X56.48 Y-2.73
X56.39 Y-2.61
X56.299 Y-2.49
X56.197 Y-2.358
X56.08 Y-2.209
X55.944 Y-2.038
X55.784 Y-1.84
X55.588 Y-1.601
X55.274 Y-1.227
X55.203 Y-1.089
X55.163 Y-0.938
X55.159 Y-0.782
X55.189 Y-0.629
X55.252 Y-0.486
X55.345 Y-0.361
X55.463 Y-0.259
X55.739 Y-0.114
X56.35 Y0.013
X56.97 Y0.087
X57.592 Y0.131
X58.216 Y0.157
X58.839 Y0.171
X59.463 Y0.18
X60.087 Y0.185
X60.711 Y0.188
X61.959 Y0.191
X65.703 Y0.192
X66.29
X66.506 Y0.226
X66.701 Y0.326
X66.856 Y0.481
X66.956 Y0.676
X66.99 Y0.892
G0 Z5
X12.625 Y2.363
Z-1.5
G1 Z-1.8 F200
X12.621 Y2.357 Z-1.867
X12.609 Y2.337 Z-1.93
X12.591 Y2.307 Z-1.987
X12.567 Y2.266 Z-2.035
X12.538 Y2.217 Z-2.07
X12.505 Y2.162 Z-2.092
X12.471 Y2.105 Z-2.1
G3 X12.25 Y1.352 I1.36 J-0.809
G1 Y0.921
X12.257 Y0.771
X12.317 Y0.634
X12.393 Y0.504
X12.482 Y0.384
X12.583 Y0.27
X12.708 Y0.15
X12.861 Y0.026
X13.049 Y-0.103
X13.28 Y-0.236
X13.568 Y-0.373
X13.934 Y-0.511
X14.421 Y-0.652
X15.032 Y-0.776
X15.651 Y-0.857
X16.273 Y-0.911
X16.896 Y-0.946
X17.519 Y-0.968
X18.143 Y-0.983
X18.767 Y-0.992
X19.391 Y-0.998
X20.249 Y-1.003
X20.405
X20.557 Y-1.038
X20.697 Y-1.106
X20.819 Y-1.203
X20.916 Y-1.325
X20.984 Y-1.466
X21.055 Y-1.77
X20.994 Y-2.391
X20.827 Y-2.992
X20.603 Y-3.574
X20.351 Y-4.145
X20.085 Y-4.709
X19.821 Y-5.275
X19.568 Y-5.845
X19.327 Y-6.42
X19.097 Y-7.001
X18.878 Y-7.585
X18.677 Y-8.175
X18.495 Y-8.772
X18.33 Y-9.374
X18.179 Y-9.979
X18.042 Y-10.588
X17.926 Y-11.201
X17.829 Y-11.817
X17.75 Y-12.436
X17.684 Y-13.057
X17.635 Y-13.679
X17.607 Y-14.302
X17.599 Y-14.926
X17.607 Y-15.55
X17.629 Y-16.174
X17.669 Y-16.796
X17.73 Y-17.417
X17.81 Y-18.036
X17.905 Y-18.653
X18.014 Y-19.267
X18.142 Y-19.878
X18.291 Y-20.484
X18.457 Y-21.085
X18.638 Y-21.682
X18.832 Y-22.275
X19.046 Y-22.861
X19.279 Y-23.44
X19.529 Y-24.012
X19.791 Y-24.578
X20.067 Y-25.137
X20.363 Y-25.687
X20.676 Y-26.227
X21.003 Y-26.758
X21.341 Y-27.282
X21.694 Y-27.797
X22.065 Y-28.299
X22.451 Y-28.789
X22.849 Y-29.269
X23.258 Y-29.741
X23.681 Y-30.199
X24.119 Y-30.644
X24.57 Y-31.074
X25.032 Y-31.494
X25.503 Y-31.904
X25.987 Y-32.298
X26.483 Y-32.675
X26.991 Y-33.038
X27.506 Y-33.39
X28.03 Y-33.728
X28.572 Y-34.037
X29.127 Y-34.324
X29.688 Y-34.596
X30.254 Y-34.858
X30.825 Y-35.11
X31.403 Y-35.347
X31.987 Y-35.565
X32.577 Y-35.769
X33.17 Y-35.961
X33.769 Y-36.138
X34.372 Y-36.295
X34.981 Y-36.433
X35.593 Y-36.554
X36.208 Y-36.661
X36.825 Y-36.753
X37.445 Y-36.823
X38.067 Y-36.873
X38.69 Y-36.907
X39.313 Y-36.93
X39.937 Y-36.931
X40.561 Y-36.911
X41.184 Y-36.872
X41.805 Y-36.818
X42.426 Y-36.75
X43.043 Y-36.662
X43.658 Y-36.553
X44.269 Y-36.427
X44.877 Y-36.288
X45.481 Y-36.134
X46.08 Y-35.958
X46.673 Y-35.763
X47.26 Y-35.552
X47.843 Y-35.329
X48.419 Y-35.089
X48.986 Y-34.83
X49.545 Y-34.553
X50.097 Y-34.262
X50.644 Y-33.961
X51.179 Y-33.641
X51.703 Y-33.302
X52.217 Y-32.948
X52.723 Y-32.583
X53.219 Y-32.205
X53.703 Y-31.811
X54.174 Y-31.401
X54.633 Y-30.979
X55.084 Y-30.547
X55.523 Y-30.103
X55.946 Y-29.645
X56.353 Y-29.172
X56.748 Y-28.689
X57.133 Y-28.198
X57.503 Y-27.696
X57.856 Y-27.181
X58.193 Y-26.656
X58.516 Y-26.123
X58.83 Y-25.583
X59.125 Y-25.033
X59.4 Y-24.473
X59.658 Y-23.905
X59.904 Y-23.332
X60.135 Y-22.752
X60.347 Y-22.165
X60.54 Y-21.572
X60.716 Y-20.973
X60.88 Y-20.371
X61.028 Y-19.765
X61.154 Y-19.154
X61.261 Y-18.539
X61.351 Y-17.922
X61.428 Y-17.303
X61.487 Y-16.682
X61.525 Y-16.059
X61.543 Y-15.435
X61.546 Y-14.811
X61.537 Y-14.187
X61.506 Y-13.564
X61.454 Y-12.943
X61.383 Y-12.323
X61.299 Y-11.704
X61.199 Y-11.089
X61.079 Y-10.476
X60.938 Y-9.868
X60.782 Y-9.264
X60.612 Y-8.664
X60.434 Y-8.066
X60.242 Y-7.472
X60.032 Y-6.885
X59.807 Y-6.303
X59.565 Y-5.728
X59.302 Y-5.162
X59.018 Y-4.606
X58.718 Y-4.059
X58.404 Y-3.52
X58.076 Y-2.989
X57.989 Y-2.86
X57.901 Y-2.731
X57.844 Y-2.586
X57.821 Y-2.431
X57.832 Y-2.276
X57.878 Y-2.127
X57.955 Y-1.991
X58.166 Y-1.761
X58.714 Y-1.462
X59.31 Y-1.278
X59.924 Y-1.167
X60.544 Y-1.101
X61.167 Y-1.062
X61.79 Y-1.04
X62.414 Y-1.026
X63.038 Y-1.019
X63.662 Y-1.014
X64.286 Y-1.012
X65.527 Y-1.008
X65.828 Y-0.983
X66.105 Y-0.937
X66.306 Y-0.887
X66.509 Y-0.819
X66.566 Y-0.794
X66.739 Y-0.688
X66.874 Y-0.536
X66.96 Y-0.352
X66.99 Y-0.151
Y-0.057
G0 Z5
X12.625 Y1.933
Z-1.5
G1 Z-1.8 F200
X12.621 Y1.926 Z-1.867
X12.609 Y1.907 Z-1.93
X12.591 Y1.876 Z-1.987
X12.567 Y1.836 Z-2.035
X12.538 Y1.787 Z-2.07
X12.505 Y1.732 Z-2.092
X12.471 Y1.675 Z-2.1
G3 X12.25 Y0.921 I1.36 J-0.809
G1 Y0.248
X12.257 Y0.098
X12.291 Y-0.048
X12.343 Y-0.189
X12.411 Y-0.323
X12.49 Y-0.45
X12.589 Y-0.584
X12.712 Y-0.724
X12.858 Y-0.866
X13.05 Y-1.025
X13.26 Y-1.171
X13.543 Y-1.338
X13.86 Y-1.49
X14.277 Y-1.652
X14.809 Y-1.81
X15.419 Y-1.939
X16.037 Y-2.028
X16.658 Y-2.088
X17.281 Y-2.128
X17.904 Y-2.155
X18.06 Y-2.16
X18.211 Y-2.199
X18.35 Y-2.27
X18.469 Y-2.371
X18.563 Y-2.495
X18.692 Y-2.779
X18.792 Y-3.395
X18.742 Y-4.017
X18.608 Y-4.627
X18.43 Y-5.224
X18.23 Y-5.816
X18.022 Y-6.404
X17.817 Y-6.993
X17.622 Y-7.586
X17.439 Y-8.182
X17.268 Y-8.783
X17.111 Y-9.386
X16.969 Y-9.994
X16.844 Y-10.605
X16.736 Y-11.22
X16.643 Y-11.837
X16.566 Y-12.456
X16.505 Y-13.077
X16.462 Y-13.699
X16.436 Y-14.323
X16.427 Y-14.947
X16.433 Y-15.57
X16.456 Y-16.194
X16.496 Y-16.817
X16.554 Y-17.438
X16.628 Y-18.057
X16.718 Y-18.675
X16.824 Y-19.29
X16.948 Y-19.901
X17.089 Y-20.509
X17.246 Y-21.113
X17.418 Y-21.713
X17.606 Y-22.308
X17.811 Y-22.897
X18.032 Y-23.48
X18.269 Y-24.058
X18.52 Y-24.629
X18.786 Y-25.193
X19.067 Y-25.75
X19.365 Y-26.299
X19.676 Y-26.839
X20.001 Y-27.372
X20.34 Y-27.896
X20.694 Y-28.41
X21.062 Y-28.914
X21.443 Y-29.407
X21.837 Y-29.892
X22.243 Y-30.365
X22.662 Y-30.827
X23.095 Y-31.277
X23.54 Y-31.714
X23.995 Y-32.141
X24.461 Y-32.556
X24.939 Y-32.957
X25.428 Y-33.345
X25.927 Y-33.719
X26.435 Y-34.081
X26.954 Y-34.428
X27.485 Y-34.755
X28.028 Y-35.064
X28.579 Y-35.356
X29.137 Y-35.634
X29.702 Y-35.9
X30.272 Y-36.153
X30.849 Y-36.39
X31.432 Y-36.614
X32.019 Y-36.823
X32.612 Y-37.019
X33.209 Y-37.199
X33.811 Y-37.362
X34.418 Y-37.509
X35.028 Y-37.64
X35.641 Y-37.756
X36.257 Y-37.856
X36.876 Y-37.938
X37.496 Y-38.002
X38.118 Y-38.051
X38.741 Y-38.085
X39.365 Y-38.102
X39.989 Y-38.099
X40.612 Y-38.08
X41.235 Y-38.044
X41.857 Y-37.993
X42.477 Y-37.925
X43.095 Y-37.839
X43.711 Y-37.735
X44.323 Y-37.617
X44.933 Y-37.483
X45.538 Y-37.332
X46.139 Y-37.163
X46.735 Y-36.978
X47.325 Y-36.777
X47.911 Y-36.562
X48.491 Y-36.331
X49.063 Y-36.083
X49.629 Y-35.819
X50.187 Y-35.541
X50.739 Y-35.25
X51.282 Y-34.943
X51.817 Y-34.621
X52.341 Y-34.283
X52.857 Y-33.932
X53.364 Y-33.568
X53.861 Y-33.191
X54.347 Y-32.799
X54.821 Y-32.394
X55.286 Y-31.977
X55.739 Y-31.549
X56.181 Y-31.108
X56.609 Y-30.655
X57.025 Y-30.189
X57.428 Y-29.714
X57.82 Y-29.228
X58.198 Y-28.731
X58.561 Y-28.224
X58.911 Y-27.707
X59.247 Y-27.182
X59.571 Y-26.648
X59.879 Y-26.106
X60.171 Y-25.554
X60.447 Y-24.995
X60.709 Y-24.429
X60.957 Y-23.856
X61.189 Y-23.277
X61.404 Y-22.691
X61.602 Y-22.099
X61.786 Y-21.503
X61.955 Y-20.903
X62.107 Y-20.297
X62.241 Y-19.688
X62.358 Y-19.075
X62.46 Y-18.46
X62.546 Y-17.842
X62.615 Y-17.221
X62.665 Y-16.6
X62.699 Y-15.976
X62.717 Y-15.353
X62.72 Y-14.729
X62.706 Y-14.105
X62.672 Y-13.482
X62.622 Y-12.86
X62.555 Y-12.24
X62.473 Y-11.621
X62.374 Y-11.005
X62.257 Y-10.392
X62.124 Y-9.783
X61.974 Y-9.177
X61.813 Y-8.574
X61.639 Y-7.975
X61.451 Y-7.38
X61.248 Y-6.79
X61.03 Y-6.206
X60.796 Y-5.627
X60.543 Y-5.057
X60.273 Y-4.494
X60.13 Y-4.217
X60.057 Y-4.079
X60.017 Y-3.928
X60.01 Y-3.773
X60.039 Y-3.619
X60.1 Y-3.476
X60.284 Y-3.224
X60.773 Y-2.836
X61.346 Y-2.59
X61.951 Y-2.437
X62.568 Y-2.345
X63.19 Y-2.289
X63.813 Y-2.256
X64.437 Y-2.236
X65.06 Y-2.213
X65.593 Y-2.162
X65.941 Y-2.1
X66.235 Y-2.023
X66.443 Y-1.95
X66.573 Y-1.893
X66.744 Y-1.786
X66.877 Y-1.635
X66.961 Y-1.452
X66.99 Y-1.253
Y-0.151
G0 Z5
X12.625 Y1.259
Z-1.5
G1 Z-1.8 F200
X12.621 Y1.253 Z-1.867
X12.609 Y1.234 Z-1.93
X12.591 Y1.203 Z-1.987
X12.567 Y1.162 Z-2.035
X12.538 Y1.113 Z-2.07
X12.505 Y1.059 Z-2.092
X12.471 Y1.001 Z-2.1
G3 X12.25 Y0.248 I1.36 J-0.809
G1 Y-0.637
X12.257 Y-0.787
X12.285 Y-0.935
X12.33 Y-1.078
X12.39 Y-1.215
X12.461 Y-1.348
X12.556 Y-1.495
X12.669 Y-1.642
X12.814 Y-1.802
X12.988 Y-1.966
X13.201 Y-2.137
X13.462 Y-2.313
X13.773 Y-2.489
X14.152 Y-2.665
X14.631 Y-2.842
X15.232 Y-3.01
X15.844 Y-3.131
X15.999 Y-3.152
X16.145 Y-3.207
X16.275 Y-3.293
X16.491 Y-3.518
X16.792 Y-4.064
X16.891 Y-4.68
X16.864 Y-5.304
X16.764 Y-5.92
X16.625 Y-6.528
X16.469 Y-7.132
X16.307 Y-7.735
X16.148 Y-8.338
X15.997 Y-8.943
X15.856 Y-9.551
X15.729 Y-10.162
X15.617 Y-10.776
X15.518 Y-11.392
X15.435 Y-12.01
X15.367 Y-12.631
X15.315 Y-13.252
X15.279 Y-13.875
X15.258 Y-14.499
X15.253 Y-15.123
X15.264 Y-15.747
X15.291 Y-16.37
X15.334 Y-16.992
X15.393 Y-17.614
X15.467 Y-18.233
X15.557 Y-18.851
X15.664 Y-19.465
X15.786 Y-20.077
X15.924 Y-20.686
X16.077 Y-21.291
X16.246 Y-21.891
X16.43 Y-22.488
X16.629 Y-23.079
X16.844 Y-23.664
X17.074 Y-24.244
X17.318 Y-24.819
X17.577 Y-25.386
X17.85 Y-25.947
X18.138 Y-26.501
X18.44 Y-27.047
X18.755 Y-27.586
X19.084 Y-28.116
X19.426 Y-28.638
X19.782 Y-29.15
X20.151 Y-29.653
X20.532 Y-30.147
X20.925 Y-30.632
X21.332 Y-31.105
X21.75 Y-31.568
X22.18 Y-32.02
X22.622 Y-32.461
X23.074 Y-32.891
X23.537 Y-33.309
X24.012 Y-33.714
X24.496 Y-34.107
X24.991 Y-34.487
X25.495 Y-34.855
X26.01 Y-35.208
X26.535 Y-35.544
X27.07 Y-35.865
X27.615 Y-36.17
X28.166 Y-36.461
X28.725 Y-36.739
X29.29 Y-37.003
X29.862 Y-37.254
X30.439 Y-37.491
X31.021 Y-37.715
X31.608 Y-37.926
X32.201 Y-38.122
X32.798 Y-38.303
X33.399 Y-38.468
X34.005 Y-38.619
X34.614 Y-38.755
X35.226 Y-38.876
X35.841 Y-38.98
X36.459 Y-39.068
X37.079 Y-39.141
X37.7 Y-39.199
X38.322 Y-39.24
X38.946 Y-39.266
X39.57 Y-39.275
X40.194 Y-39.267
X40.817 Y-39.245
X41.44 Y-39.206
X42.061 Y-39.151
X42.681 Y-39.08
X43.299 Y-38.993
X43.915 Y-38.891
X44.527 Y-38.773
X45.137 Y-38.64
X45.743 Y-38.491
X46.344 Y-38.325
X46.942 Y-38.145
X47.534 Y-37.949
X48.121 Y-37.738
X48.703 Y-37.512
X49.278 Y-37.27
X49.847 Y-37.014
X50.41 Y-36.745
X50.965 Y-36.461
X51.513 Y-36.162
X52.053 Y-35.849
X52.584 Y-35.522
X53.108 Y-35.182
X53.622 Y-34.829
X54.127 Y-34.463
X54.622 Y-34.083
X55.108 Y-33.691
X55.583 Y-33.287
X56.048 Y-32.871
X56.503 Y-32.444
X56.946 Y-32.004
X57.377 Y-31.553
X57.796 Y-31.091
X58.204 Y-30.619
X58.599 Y-30.136
X58.982 Y-29.643
X59.351 Y-29.14
X59.707 Y-28.628
X60.051 Y-28.108
X60.382 Y-27.578
X60.699 Y-27.041
X61.001 Y-26.495
X61.289 Y-25.941
X61.563 Y-25.381
X61.822 Y-24.813
X62.068 Y-24.24
X62.297 Y-23.66
X62.512 Y-23.074
X62.712 Y-22.483
X62.897 Y-21.887
X63.067 Y-21.287
X63.221 Y-20.682
X63.359 Y-20.073
X63.482 Y-19.462
X63.589 Y-18.847
X63.68 Y-18.23
X63.754 Y-17.61
X63.813 Y-16.989
X63.855 Y-16.367
X63.883 Y-15.743
X63.894 Y-15.119
X63.89 Y-14.495
X63.868 Y-13.872
X63.831 Y-13.249
X63.778 Y-12.627
X63.709 Y-12.007
X63.625 Y-11.389
X63.524 Y-10.773
X63.407 Y-10.16
X63.275 Y-9.551
X63.129 Y-8.944
X62.97 Y-8.34
X62.798 Y-7.741
X62.612 Y-7.145
X62.412 Y-6.554
X62.198 Y-5.968
X62.082 Y-5.678
X61.962 Y-5.39
X61.935 Y-5.237
X61.943 Y-5.081
X61.985 Y-4.931
X62.133 Y-4.656
X62.557 Y-4.199
X63.104 Y-3.897
X63.697 Y-3.705
X64.309 Y-3.581
X64.925 Y-3.483
X65.54 Y-3.375
X65.976 Y-3.271
X66.298 Y-3.167
X66.519 Y-3.075
X66.61 Y-3.028
X66.766 Y-2.919
X66.887 Y-2.77
X66.964 Y-2.595
X66.99 Y-2.406
Y-1.253
G0 Z5
X12.625 Y0.374
Z-1.5
G1 Z-1.8 F200
X12.621 Y0.367 Z-1.867
X12.609 Y0.348 Z-1.93
X12.591 Y0.318 Z-1.987
X12.567 Y0.277 Z-2.035
X12.538 Y0.228 Z-2.07
X12.505 Y0.173 Z-2.092
X12.471 Y0.116 Z-2.1
G3 X12.25 Y-0.637 I1.36 J-0.809
G1 Y-1.629
X12.257 Y-1.779
X12.284 Y-1.927
X12.328 Y-2.07
X12.384 Y-2.209
X12.458 Y-2.352
X12.552 Y-2.505
X12.668 Y-2.664
X12.818 Y-2.836
X12.992 Y-3.008
X13.218 Y-3.197
X13.475 Y-3.379
X13.809 Y-3.577
X14.369 Y-3.851
X14.621 Y-4.036
X14.821 Y-4.275
X15.125 Y-4.82
X15.252 Y-5.431
X15.262 Y-6.054
X15.202 Y-6.675
X15.101 Y-7.291
X14.979 Y-7.903
X14.85 Y-8.513
X14.721 Y-9.124
X14.6 Y-9.736
X14.488 Y-10.35
X14.388 Y-10.966
X14.301 Y-11.584
X14.227 Y-12.203
X14.169 Y-12.824
X14.124 Y-13.447
X14.095 Y-14.07
X14.08 Y-14.694
Y-15.318
X14.096 Y-15.941
X14.126 Y-16.565
X14.172 Y-17.187
X14.233 Y-17.808
X14.309 Y-18.427
X14.399 Y-19.045
X14.506 Y-19.659
X14.627 Y-20.271
X14.763 Y-20.88
X14.913 Y-21.486
X15.079 Y-22.088
X15.259 Y-22.685
X15.454 Y-23.277
X15.664 Y-23.865
X15.888 Y-24.447
X16.126 Y-25.024
X16.378 Y-25.595
X16.645 Y-26.159
X16.925 Y-26.717
X17.218 Y-27.268
X17.524 Y-27.811
X17.844 Y-28.347
X18.176 Y-28.875
X18.521 Y-29.395
X18.879 Y-29.906
X19.249 Y-30.408
X19.631 Y-30.902
X20.025 Y-31.385
X20.431 Y-31.859
X20.849 Y-32.323
X21.277 Y-32.776
X21.716 Y-33.22
X22.166 Y-33.652
X22.627 Y-34.073
X23.098 Y-34.482
X23.579 Y-34.879
X24.07 Y-35.264
X24.571 Y-35.637
X25.081 Y-35.995
X25.601 Y-36.34
X26.131 Y-36.67
X26.669 Y-36.985
X27.215 Y-37.287
X27.768 Y-37.576
X28.328 Y-37.852
X28.894 Y-38.114
X29.466 Y-38.363
X30.044 Y-38.6
X30.626 Y-38.823
X31.214 Y-39.033
X31.806 Y-39.23
X32.403 Y-39.412
X33.004 Y-39.58
X33.608 Y-39.734
X34.217 Y-39.873
X34.828 Y-39.998
X35.442 Y-40.107
X35.513 Y-40.116
X35.548 Y-40.119
X35.583 Y-40.12
X42.454
X43.077 Y-40.089
X43.7 Y-40.049
X44.319 Y-39.971
X44.934 Y-39.865
X45.544 Y-39.737
X46.15 Y-39.589
X46.752 Y-39.425
X47.35 Y-39.245
X47.942 Y-39.049
X48.529 Y-38.838
X49.111 Y-38.613
X49.687 Y-38.373
X50.257 Y-38.119
X50.821 Y-37.852
X51.378 Y-37.571
X51.928 Y-37.276
X52.47 Y-36.968
X53.005 Y-36.646
X53.531 Y-36.311
X54.05 Y-35.963
X54.559 Y-35.603
X55.059 Y-35.23
X55.551 Y-34.846
X56.032 Y-34.449
X56.504 Y-34.041
X56.966 Y-33.622
X57.418 Y-33.191
X57.858 Y-32.749
X58.288 Y-32.297
X58.706 Y-31.834
X59.114 Y-31.361
X59.509 Y-30.878
X59.892 Y-30.386
X60.263 Y-29.884
X60.622 Y-29.374
X60.968 Y-28.855
X61.302 Y-28.328
X61.622 Y-27.792
X61.929 Y-27.249
X62.222 Y-26.698
X62.502 Y-26.14
X62.768 Y-25.576
X63.02 Y-25.005
X63.258 Y-24.428
X63.482 Y-23.846
X63.691 Y-23.258
X63.887 Y-22.666
X64.068 Y-22.069
X64.234 Y-21.467
X64.385 Y-20.862
X64.521 Y-20.253
X64.643 Y-19.641
X64.749 Y-19.026
X64.84 Y-18.409
X64.916 Y-17.79
X64.977 Y-17.169
X65.022 Y-16.546
X65.053 Y-15.923
X65.068 Y-15.299
Y-14.675
X65.052 Y-14.052
X65.021 Y-13.428
X64.975 Y-12.806
X64.913 Y-12.185
X64.836 Y-11.566
X64.744 Y-10.949
X64.637 Y-10.334
X64.516 Y-9.722
X64.381 Y-9.113
X64.232 Y-8.507
X64.07 Y-7.905
X63.896 Y-7.306
X63.708 Y-6.711
X63.695 Y-6.555
X63.735 Y-6.246
X63.869 Y-5.964
X64.253 Y-5.472
X64.766 Y-5.117
X65.329 Y-4.848
X65.908 Y-4.615
X66.354 Y-4.426
X66.612 Y-4.291
X66.663 Y-4.258
X66.799 Y-4.147
X66.903 Y-4.004
X66.968 Y-3.841
X66.99 Y-3.666
Y-2.406
G0 Z5
X41.442 Y-39.745
Z-1.5
G1 Z-1.8 F200
X41.449 Y-39.749 Z-1.867
X41.468 Y-39.761 Z-1.93
X41.499 Y-39.779 Z-1.987
X41.539 Y-39.803 Z-2.035
X41.588 Y-39.832 Z-2.07
X41.643 Y-39.865 Z-2.092
X41.7 Y-39.899 Z-2.1
G3 X42.454 Y-40.12 I0.809 J1.36
G1 X47.13
X47.672 Y-40.093
X48.136 Y-40.032
X48.746 Y-39.901
X49.344 Y-39.723
X49.931 Y-39.511
X50.509 Y-39.276
X51.079 Y-39.022
X51.641 Y-38.751
X52.195 Y-38.465
X52.743 Y-38.165
X53.073 Y-37.973
X53.125 Y-37.939
X53.175 Y-37.901
X53.22 Y-37.859
G3 X52.895 Y-37.375 I-0.221 J0.203
G1 X47.036 Y-39.539
G3 X47.13 Y-40.12 I0.104 J-0.281
G1 X50.247
X50.388
X50.431
X50.581 Y-40.112
X50.832 Y-40.077
X50.979 Y-40.04
X51.115 Y-39.972
X51.233 Y-39.875
G3 X50.937 Y-39.382 I-0.221 J0.203
G1 X50.922 Y-39.386
X50.367 Y-39.53
G3 X50.431 Y-40.12 I0.075 J-0.29
G1 X50.813
X50.955 Y-40.119
X50.97 Y-40.116
X50.986 Y-40.112
X51.001 Y-40.105
X51.016 Y-40.095
X51.575 Y-39.528
X61.865 Y-29.086
X62.281 Y-28.62
X62.66 Y-28.131
X63.002 Y-27.609
X63.314 Y-27.068
X63.604 Y-26.516
X63.875 Y-25.954
X64.129 Y-25.384
X64.368 Y-24.808
X64.592 Y-24.225
X64.803 Y-23.638
X64.999 Y-23.046
X65.181 Y-22.449
X65.349 Y-21.848
X65.503 Y-21.243
X65.642 Y-20.635
X65.768 Y-20.024
X65.878 Y-19.41
X65.974 Y-18.793
X66.056 Y-18.175
X66.123 Y-17.554
X66.175 Y-16.933
X66.213 Y-16.31
X66.237 Y-15.686
X66.245 Y-15.062
X66.239 Y-14.439
X66.219 Y-13.815
X66.183 Y-13.192
X66.133 Y-12.57
X66.069 Y-11.949
X65.99 Y-11.331
X65.897 Y-10.714
X65.789 Y-10.099
X65.668 Y-9.487
X65.534 Y-8.877
X65.387 Y-8.271
X65.307 Y-7.97
X65.272 Y-7.66
X65.329 Y-7.353
X65.575 Y-6.78
X65.988 Y-6.312
X66.472 Y-5.918
X66.72 Y-5.724
X66.865 Y-5.57
X66.958 Y-5.38
X66.99 Y-5.172
Y-3.666
G0 Z5
X60.889 Y-29.543
Z-1.5
G1 Z-1.8 F200
X60.896 Y-29.541 Z-1.867
X60.917 Y-29.536 Z-1.93
X60.952 Y-29.527 Z-1.987
X60.998 Y-29.514 Z-2.035
X61.053 Y-29.5 Z-2.07
X61.114 Y-29.484 Z-2.092
X61.179 Y-29.467 Z-2.1
G3 X61.865 Y-29.086 I-0.401 J1.531
G1 X64.416 Y-26.497
X64.705 Y-26.172
X64.944 Y-25.858
X65.216 Y-25.43
X65.508 Y-24.878
X65.761 Y-24.308
X65.984 Y-23.725
X66.186 Y-23.135
X66.369 Y-22.538
X66.536 Y-21.937
X66.688 Y-21.332
X66.824 Y-20.723
X66.947 Y-20.111
X66.979 Y-19.928
X66.985 Y-19.888
X66.989 Y-19.847
X66.99 Y-19.807
G3 X66.41 Y-19.71 I-0.3 J-0.01
G1 X63.929 Y-26.172
G3 X64.416 Y-26.497 I0.28 J-0.108
G1 X66.377 Y-24.508
X66.583 Y-24.276
X66.768 Y-24.031
X66.88 Y-23.855
X66.94 Y-23.738
X66.977 Y-23.611
X66.99 Y-23.479
G3 X66.439 Y-23.326 I-0.3 J-0.01
G1 X66.424 Y-23.348
X65.919 Y-24.126
G3 X66.377 Y-24.508 I0.252 J-0.163
G1 X66.935 Y-23.941
X66.966 Y-23.907
X66.974 Y-23.894
X66.98 Y-23.88
X66.988 Y-23.853
X66.99 Y-23.84
Y-11.329
X66.959 Y-10.706
X66.91 Y-10.084
X66.825 Y-9.466
X66.713 Y-8.852
X66.719 Y-8.54
X66.848 Y-7.93
X66.91 Y-7.813
X66.954 Y-7.709
X66.981 Y-7.6
X66.99 Y-7.487
G3 X66.39 Y-7.498 I-0.3 J-0.01
G1 Y-11.319
G3 X66.99 Y-11.329 I0.3 J0
G1 Y-5.172
G0 Z5
X12.625 Y-0.618
Z-1.5
G1 Z-1.8 F200
X12.621 Y-0.624 Z-1.867
X12.609 Y-0.644 Z-1.93
X12.591 Y-0.674 Z-1.987
X12.567 Y-0.715 Z-2.035
X12.538 Y-0.764 Z-2.07
X12.505 Y-0.818 Z-2.092
X12.471 Y-0.876 Z-2.1
G3 X12.25 Y-1.629 I1.36 J-0.809
G1 Y-2.685
X12.257 Y-2.835
X12.286 Y-2.982
X12.33 Y-3.126
X12.386 Y-3.265
X12.462 Y-3.414
X12.56 Y-3.575
X12.681 Y-3.742
X13.087 Y-4.215
X13.468 Y-4.709
X13.703 Y-5.287
X13.811 Y-5.902
X13.829 Y-6.526
X13.787 Y-7.148
X13.709 Y-7.767
X13.611 Y-8.383
X13.4 Y-9.613
X13.299 Y-10.229
X13.206 Y-10.846
X13.124 Y-11.464
X13.054 Y-12.084
X12.996 Y-12.706
X12.952 Y-13.328
X12.921 Y-13.951
X12.905 Y-14.575
X12.902 Y-15.199
X12.914 Y-15.823
X12.941 Y-16.446
X12.982 Y-17.069
X13.037 Y-17.69
X13.107 Y-18.31
X13.192 Y-18.928
X13.291 Y-19.544
X13.404 Y-20.158
X13.531 Y-20.769
X13.673 Y-21.376
X13.829 Y-21.981
X13.999 Y-22.581
X14.183 Y-23.177
X14.381 Y-23.769
X14.593 Y-24.356
X14.818 Y-24.937
X15.057 Y-25.514
X15.31 Y-26.084
X15.576 Y-26.649
X15.854 Y-27.207
X16.146 Y-27.759
X16.203 Y-27.861
X16.236 Y-27.915
X16.274 Y-27.965
X16.316 Y-28.011
X25.43 Y-37.261
X25.822 Y-37.62
X26.288 Y-37.984
X26.809 Y-38.327
X27.35 Y-38.639
X27.903 Y-38.927
X28.465 Y-39.197
X29.035 Y-39.451
X29.611 Y-39.69
X30.193 Y-39.916
X30.644 Y-40.078
X30.722 Y-40.101
X30.801 Y-40.115
X30.882 Y-40.12
G3 X31.012 Y-39.555 I-0.01 J0.3
G1 X25.792 Y-36.793
G3 X25.43 Y-37.261 I-0.14 J-0.265
G1 X27.804 Y-39.67
X27.86 Y-39.726
X27.944 Y-39.812
X28.091 Y-39.947
X28.123 Y-39.972
X28.255 Y-40.053
X28.4 Y-40.103
X28.554 Y-40.12
G3 X28.69 Y-39.558 I-0.01 J0.3
G1 X28.684 Y-39.555
X28.311 Y-39.347
G3 X27.944 Y-39.812 I-0.146 J-0.262
G1 X28.224 Y-40.095
X28.239 Y-40.105
X28.254 Y-40.112
X28.269 Y-40.116
X28.285 Y-40.119
X28.568 Y-40.12
X35.583
G0 Z5
X12.625 Y-1.674
Z-1.5
G1 Z-1.8 F200
X12.621 Y-1.68 Z-1.867
X12.609 Y-1.699 Z-1.93
X12.591 Y-1.73 Z-1.987
X12.567 Y-1.771 Z-2.035
X12.538 Y-1.82 Z-2.07
X12.505 Y-1.874 Z-2.092
X12.471 Y-1.932 Z-2.1
G3 X12.25 Y-2.685 I1.36 J-0.809
G1 Y-3.819
X12.257 Y-3.969
X12.341 Y-4.587
X12.455 Y-5.2
X12.522 Y-5.821
X12.537 Y-6.444
X12.508 Y-7.068
X12.448 Y-7.689
X12.369 Y-8.308
X12.28 Y-8.925
X12.258 Y-9.077
X12.253 Y-9.112
X12.251 Y-9.146
X12.25 Y-9.181
G3 X12.85 Y-9.17 I0.3 J0.01
G1 Y-3.829
G3 X12.25 Y-3.819 I-0.3 J0
G1 Y-19.123
X12.281 Y-19.746
X12.331 Y-20.368
X12.423 Y-20.985
X12.543 Y-21.597
X12.686 Y-22.205
X12.848 Y-22.807
X13.025 Y-23.405
X13.218 Y-23.999
X13.425 Y-24.588
X13.645 Y-25.171
X13.682 Y-25.262
X13.722 Y-25.345
X13.772 Y-25.422
X13.832 Y-25.491
G3 X14.33 Y-25.202 I0.206 J0.218
G1 X14.326 Y-25.187
X12.841 Y-19.063
G3 X12.25 Y-19.123 I-0.292 J-0.071
G1 Y-23.516
Y-23.84
X12.252 Y-23.853
X12.26 Y-23.88
X12.265 Y-23.894
X12.274 Y-23.907
X12.305 Y-23.941
X16.316 Y-28.011
G3 X16.749 Y-27.989 I0.206 J0.218
G1 X16.773 Y-27.942 Z-2.095
X16.795 Y-27.896 Z-2.081
X16.816 Y-27.853 Z-2.058
X16.819 Y-27.821 Z-2.036
X16.822 Y-27.793 Z-2.011
X16.817 Y-27.757 Z-1.966
X16.813 Y-27.73 Z-1.914
X16.81 Y-27.713 Z-1.858
Y-27.708 Z-1.8
G0 Z5
X12.868 Y3.364
Z-1.905
G1 Z-2.205 F200
X12.864 Y3.358 Z-2.272
X12.853 Y3.339 Z-2.335
X12.835 Y3.308 Z-2.392
X12.81 Y3.267 Z-2.44
X12.781 Y3.218 Z-2.475
X12.749 Y3.164 Z-2.497
X12.715 Y3.106 Z-2.505
G3 X12.25 Y1.523 I2.858 J-1.699
G1 Y1.352
X12.252 Y1.314
X12.34 Y1.193
X12.446 Y1.086
X12.562 Y0.992
X12.687 Y0.908
X12.817 Y0.833
X12.951 Y0.766
X13.089 Y0.707
X13.229 Y0.654
X13.371 Y0.606
X13.515 Y0.564
X13.66 Y0.526
X13.806 Y0.491
X13.953 Y0.461
X14.1 Y0.433
X14.248 Y0.409
X14.397 Y0.387
X14.546 Y0.367
X14.694 Y0.349
X14.844 Y0.333
X14.993 Y0.319
X15.142 Y0.306
X15.292 Y0.294
X15.448 Y0.284
X15.622 Y0.273
X15.821 Y0.262
X16.05 Y0.251
X16.322 Y0.24
X16.656 Y0.229
X17.088 Y0.219
X17.697 Y0.208
X18.321 Y0.201
X18.945 Y0.197
X20.193 Y0.194
X22.923 Y0.192
X23.391
X23.543 Y0.158
X23.684 Y0.09
X23.806 Y-0.007
X23.904 Y-0.128
X23.972 Y-0.268
X24.008 Y-0.42
X24.009 Y-0.576
X23.976 Y-0.729
X23.71 Y-1.293
X23.481 Y-1.618
X23.172 Y-2.063
X22.819 Y-2.578
X22.47 Y-3.095
X22.212 Y-3.478
X22.13 Y-3.604
X22.049 Y-3.73
X21.97 Y-3.858
X21.893 Y-3.986
X21.816 Y-4.115
X21.741 Y-4.245
X21.66 Y-4.387
X21.57 Y-4.547
X21.468 Y-4.731
X21.351 Y-4.947
X21.213 Y-5.207
X21.042 Y-5.533
X20.882 Y-5.846
X20.814 Y-5.98
X20.749 Y-6.114
X20.685 Y-6.25
X20.623 Y-6.387
X20.562 Y-6.524
X20.503 Y-6.662
X20.446 Y-6.8
X20.387 Y-6.943
X20.323 Y-7.103
X20.252 Y-7.284
X20.172 Y-7.494
X20.079 Y-7.743
X19.967 Y-8.048
X19.83 Y-8.431
X19.78 Y-8.572
X19.733 Y-8.715
X19.688 Y-8.858
X19.644 Y-9.001
X19.603 Y-9.145
X19.562 Y-9.29
X19.523 Y-9.434
X19.486 Y-9.58
X19.445 Y-9.742
X19.4 Y-9.925
X19.35 Y-10.136
X19.293 Y-10.384
X19.226 Y-10.685
X19.145 Y-11.065
X19.114 Y-11.212
X19.085 Y-11.359
X19.058 Y-11.506
X19.034 Y-11.654
X19.01 Y-11.803
X18.989 Y-11.951
X18.969 Y-12.1
X18.95 Y-12.249
X18.932 Y-12.404
X18.913 Y-12.578
X18.893 Y-12.775
X18.871 Y-13.004
X18.847 Y-13.275
X18.82 Y-13.608
X18.795 Y-13.956
X18.785 Y-14.106
X18.777 Y-14.256
X18.772 Y-14.406
X18.768 Y-14.556
X18.767 Y-14.706
X18.766 Y-14.856
X18.767 Y-15.006
X18.77 Y-15.157
X18.774 Y-15.325
X18.779 Y-15.515
X18.788 Y-15.734
X18.799 Y-15.991
X18.815 Y-16.302
X18.839 Y-16.696
X18.849 Y-16.846
X18.86 Y-16.995
X18.874 Y-17.145
X18.89 Y-17.294
X18.908 Y-17.443
X18.927 Y-17.592
X18.948 Y-17.74
X18.969 Y-17.889
X18.994 Y-18.047
X19.023 Y-18.224
X19.057 Y-18.425
X19.099 Y-18.66
X19.151 Y-18.939
X19.217 Y-19.284
X19.273 Y-19.56
X19.304 Y-19.706
X19.336 Y-19.853
X19.371 Y-19.999
X19.408 Y-20.144
X19.447 Y-20.289
X19.486 Y-20.434
X19.528 Y-20.578
X19.571 Y-20.724
X19.62 Y-20.887
X19.677 Y-21.072
X19.744 Y-21.283
X19.825 Y-21.532
X19.926 Y-21.834
X20.058 Y-22.218
X20.107 Y-22.359
X20.159 Y-22.5
X20.213 Y-22.64
X20.269 Y-22.779
X20.326 Y-22.918
X20.384 Y-23.056
X20.444 Y-23.194
X20.505 Y-23.331
X20.574 Y-23.481
X20.652 Y-23.651
X20.744 Y-23.845
X20.852 Y-24.07
X20.985 Y-24.342
X21.155 Y-24.682
X21.234 Y-24.837
X21.303 Y-24.97
X21.374 Y-25.102
X21.447 Y-25.233
X21.521 Y-25.363
X21.597 Y-25.493
X21.674 Y-25.621
X21.752 Y-25.749
X21.834 Y-25.881
X21.927 Y-26.027
X22.033 Y-26.193
X22.157 Y-26.383
X22.306 Y-26.606
X22.489 Y-26.879
X22.699 Y-27.185
X22.785 Y-27.308
X22.873 Y-27.43
X22.962 Y-27.55
X23.053 Y-27.67
X23.145 Y-27.788
X23.239 Y-27.905
X23.333 Y-28.022
X23.429 Y-28.138
X23.536 Y-28.266
X23.659 Y-28.411
X23.801 Y-28.576
X23.97 Y-28.768
X24.175 Y-28.999
X24.437 Y-29.29
X24.538 Y-29.401
X24.641 Y-29.51
X24.744 Y-29.618
X24.85 Y-29.725
X24.956 Y-29.831
X25.064 Y-29.935
X25.173 Y-30.038
X25.283 Y-30.141
X25.399 Y-30.247
X25.53 Y-30.366
X25.681 Y-30.5
X25.856 Y-30.654
X26.066 Y-30.836
X26.326 Y-31.058
X26.569 Y-31.262
X26.685 Y-31.358
X26.802 Y-31.452
X26.92 Y-31.544
X27.04 Y-31.635
X27.16 Y-31.724
X27.281 Y-31.812
X27.404 Y-31.899
X27.528 Y-31.986
X27.667 Y-32.082
X27.826 Y-32.19
X28.009 Y-32.312
X28.226 Y-32.455
X28.49 Y-32.625
X28.827 Y-32.84
X28.954 Y-32.92
X29.082 Y-32.998
X29.212 Y-33.074
X29.342 Y-33.148
X29.908 Y-33.411
X30.477 Y-33.666
X31.049 Y-33.917
X31.621 Y-34.166
X32.199 Y-34.4
X32.788 Y-34.606
X33.383 Y-34.794
X33.981 Y-34.973
X34.58 Y-35.147
X35.188 Y-35.286
X35.801 Y-35.401
X36.417 Y-35.503
X37.034 Y-35.597
X37.653 Y-35.672
X38.276 Y-35.715
X38.899 Y-35.739
X39.523 Y-35.753
X40.147 Y-35.761
X40.77 Y-35.732
X41.392 Y-35.679
X42.012 Y-35.613
X42.632 Y-35.54
X43.249 Y-35.446
X43.86 Y-35.321
X44.467 Y-35.178
X45.072 Y-35.025
X45.676 Y-34.866
X46.268 Y-34.671
X46.853 Y-34.454
X47.434 Y-34.225
X48.011 Y-33.988
X48.58 Y-33.733
X49.136 Y-33.448
X49.683 Y-33.148
X50.225 Y-32.84
X50.764 Y-32.526
X51.283 Y-32.179
X51.789 Y-31.814
X52.287 Y-31.438
X52.78 Y-31.056
X53.26 Y-30.657
X53.719 Y-30.235
X54.166 Y-29.8
X54.606 Y-29.357
X55.042 Y-28.911
X55.449 Y-28.438
X55.839 Y-27.951
X56.218 Y-27.455
X56.592 Y-26.956
X56.948 Y-26.443
X57.277 Y-25.913
X57.592 Y-25.374
X57.898 Y-24.831
X58.199 Y-24.284
X58.464 Y-23.719
X58.71 Y-23.146
X58.943 Y-22.567
X59.17 Y-21.986
X59.375 Y-21.397
X59.551 Y-20.798
X59.71 Y-20.195
X59.861 Y-19.589
X60.004 Y-18.982
X60.109 Y-18.367
X60.192 Y-17.748
X60.263 Y-17.128
X60.326 Y-16.508
X60.366 Y-15.885
X60.375 Y-15.261
X60.368 Y-14.637
X60.351 Y-14.014
X60.326 Y-13.39
X60.263 Y-12.769
X60.178 Y-12.151
X60.081 Y-11.535
X59.977 Y-10.92
X59.848 Y-10.309
X59.69 Y-9.706
X59.517 Y-9.106
X59.334 Y-8.51
X59.143 Y-7.916
X59.074 Y-7.698
X59.027 Y-7.556
X58.977 Y-7.414
X58.926 Y-7.273
X58.874 Y-7.133
X58.82 Y-6.993
X58.764 Y-6.853
X58.705 Y-6.706
X58.636 Y-6.541
X58.557 Y-6.353
X58.464 Y-6.136
X58.372 Y-5.928
X58.311 Y-5.791
X58.247 Y-5.656
X58.182 Y-5.521
X58.114 Y-5.387
X58.045 Y-5.254
X57.974 Y-5.122
X57.902 Y-4.99
X57.829 Y-4.859
X57.752 Y-4.724
X57.665 Y-4.575
X57.565 Y-4.405
X57.449 Y-4.21
X57.309 Y-3.981
X57.136 Y-3.702
X56.991 Y-3.471
X56.91 Y-3.345
X56.827 Y-3.219
X56.743 Y-3.096
X56.657 Y-2.973
X56.569 Y-2.851
X56.48 Y-2.73
X56.39 Y-2.61
X56.299 Y-2.49
X56.197 Y-2.358
X56.08 Y-2.209
X55.944 Y-2.038
X55.784 Y-1.84
X55.588 Y-1.601
X55.274 Y-1.227
X55.203 Y-1.089
X55.163 Y-0.938
X55.159 Y-0.782
X55.189 Y-0.629
X55.252 Y-0.486
X55.345 Y-0.361
X55.463 Y-0.259
X55.739 Y-0.114
X56.35 Y0.013
X56.97 Y0.087
X57.592 Y0.131
X58.216 Y0.157
X58.839 Y0.171
X59.463 Y0.18
X60.087 Y0.185
X60.711 Y0.188
X61.959 Y0.191
X65.703 Y0.192
X66.29
X66.506 Y0.226
X66.701 Y0.326
X66.856 Y0.481
X66.956 Y0.676
X66.99 Y0.892
G0 Z5
X12.625 Y2.363
Z-1.905
G1 Z-2.205 F200
X12.621 Y2.357 Z-2.272
X12.609 Y2.337 Z-2.335
X12.591 Y2.307 Z-2.392
X12.567 Y2.266 Z-2.44
X12.538 Y2.217 Z-2.475
X12.505 Y2.162 Z-2.497
X12.471 Y2.105 Z-2.505
G3 X12.25 Y1.352 I1.36 J-0.809
G1 Y0.921
X12.257 Y0.771
X12.317 Y0.634
X12.393 Y0.504
X12.482 Y0.384
X12.583 Y0.27
X12.708 Y0.15
X12.861 Y0.026
X13.049 Y-0.103
X13.28 Y-0.236
X13.568 Y-0.373
X13.934 Y-0.511
X14.421 Y-0.652
X15.032 Y-0.776
X15.651 Y-0.857
X16.273 Y-0.911
X16.896 Y-0.946
X17.519 Y-0.968
X18.143 Y-0.983
X18.767 Y-0.992
X19.391 Y-0.998
X20.249 Y-1.003
X20.405
X20.557 Y-1.038
X20.697 Y-1.106
X20.819 Y-1.203
X20.916 Y-1.325
X20.984 Y-1.466
X21.055 Y-1.77
X20.994 Y-2.391
X20.827 Y-2.992
X20.603 Y-3.574
X20.351 Y-4.145
X20.085 Y-4.709
X19.821 Y-5.275
X19.568 Y-5.845
X19.327 Y-6.42
X19.097 Y-7.001
X18.878 Y-7.585
X18.677 Y-8.175
X18.495 Y-8.772
X18.33 Y-9.374
X18.179 Y-9.979
X18.042 Y-10.588
X17.926 Y-11.201
X17.829 Y-11.817
X17.75 Y-12.436
X17.684 Y-13.057
X17.635 Y-13.679
X17.607 Y-14.302
X17.599 Y-14.926
X17.607 Y-15.55
X17.629 Y-16.174
X17.669 Y-16.796
X17.73 Y-17.417
X17.81 Y-18.036
X17.905 Y-18.653
X18.014 Y-19.267
X18.142 Y-19.878
X18.291 Y-20.484
X18.457 Y-21.085
X18.638 Y-21.682
X18.832 Y-22.275
X19.046 Y-22.861
X19.279 Y-23.44
X19.529 Y-24.012
X19.791 Y-24.578
X20.067 Y-25.137
X20.363 Y-25.687
X20.676 Y-26.227
X21.003 Y-26.758
X21.341 Y-27.282
X21.694 Y-27.797
X22.065 Y-28.299
X22.451 Y-28.789
X22.849 Y-29.269
X23.258 Y-29.741
X23.681 Y-30.199
X24.119 Y-30.644
X24.57 Y-31.074
X25.032 Y-31.494
X25.503 Y-31.904
X25.987 Y-32.298
X26.483 Y-32.675
X26.991 Y-33.038
X27.506 Y-33.39
X28.03 Y-33.728
X28.572 Y-34.037
X29.127 Y-34.324
X29.688 Y-34.596
X30.254 Y-34.858
X30.825 Y-35.11
X31.403 Y-35.347
X31.987 Y-35.565
X32.577 Y-35.769
X33.17 Y-35.961
X33.769 Y-36.138
X34.372 Y-36.295
X34.981 Y-36.433
X35.593 Y-36.554
X36.208 Y-36.661
X36.825 Y-36.753
X37.445 Y-36.823
X38.067 Y-36.873
X38.69 Y-36.907
X39.313 Y-36.93
X39.937 Y-36.931
X40.561 Y-36.911
X41.184 Y-36.872
X41.805 Y-36.818
X42.426 Y-36.75
X43.043 Y-36.662
X43.658 Y-36.553
X44.269 Y-36.427
X44.877 Y-36.288
X45.481 Y-36.134
X46.08 Y-35.958
X46.673 Y-35.763
X47.26 Y-35.552
X47.843 Y-35.329
X48.419 Y-35.089
X48.986 Y-34.83
X49.545 Y-34.553
X50.097 Y-34.262
X50.644 Y-33.961
X51.179 Y-33.641
X51.703 Y-33.302
X52.217 Y-32.948
X52.723 Y-32.583
X53.219 Y-32.205
X53.703 Y-31.811
X54.174 Y-31.401
X54.633 Y-30.979
X55.084 Y-30.547
X55.523 Y-30.103
X55.946 Y-29.645
X56.353 Y-29.172
X56.748 Y-28.689
X57.133 Y-28.198
X57.503 Y-27.696
X57.856 Y-27.181
X58.193 Y-26.656
X58.516 Y-26.123
X58.83 Y-25.583
X59.125 Y-25.033
X59.4 Y-24.473
X59.658 Y-23.905
X59.904 Y-23.332
X60.135 Y-22.752
X60.347 Y-22.165
X60.54 Y-21.572
X60.716 Y-20.973
X60.88 Y-20.371
X61.028 Y-19.765
X61.154 Y-19.154
X61.261 Y-18.539
X61.351 Y-17.922
X61.428 Y-17.303
X61.487 Y-16.682
X61.525 Y-16.059
X61.543 Y-15.435
X61.546 Y-14.811
X61.537 Y-14.187
X61.506 Y-13.564
X61.454 Y-12.943
X61.383 Y-12.323
X61.299 Y-11.704
X61.199 Y-11.089
X61.079 Y-10.476
X60.938 Y-9.868
X60.782 Y-9.264
X60.612 Y-8.664
X60.434 Y-8.066
X60.242 Y-7.472
X60.032 Y-6.885
X59.807 Y-6.303
X59.565 Y-5.728
X59.302 Y-5.162
X59.018 Y-4.606
X58.718 Y-4.059
X58.404 Y-3.52
X58.076 Y-2.989
X57.989 Y-2.86
X57.901 Y-2.731
X57.844 Y-2.586
X57.821 Y-2.431
X57.832 Y-2.276
X57.878 Y-2.127
X57.955 Y-1.991
X58.166 Y-1.761
X58.714 Y-1.462
X59.31 Y-1.278
X59.924 Y-1.167
X60.544 Y-1.101
X61.167 Y-1.062
X61.79 Y-1.04
X62.414 Y-1.026
X63.038 Y-1.019
X63.662 Y-1.014
X64.286 Y-1.012
X65.527 Y-1.008
X65.828 Y-0.983
X66.105 Y-0.937
X66.306 Y-0.887
X66.509 Y-0.819
X66.566 Y-0.794
X66.739 Y-0.688
X66.874 Y-0.536
X66.96 Y-0.352
X66.99 Y-0.151
Y-0.057
G0 Z5
X12.625 Y1.933
Z-1.905
G1 Z-2.205 F200
X12.621 Y1.926 Z-2.272
X12.609 Y1.907 Z-2.335
X12.591 Y1.876 Z-2.392
X12.567 Y1.836 Z-2.44
X12.538 Y1.787 Z-2.475
X12.505 Y1.732 Z-2.497
X12.471 Y1.675 Z-2.505
G3 X12.25 Y0.921 I1.36 J-0.809
G1 Y0.248
X12.257 Y0.098
X12.291 Y-0.048
X12.343 Y-0.189
X12.411 Y-0.323
X12.49 Y-0.45
X12.589 Y-0.584
X12.712 Y-0.724
X12.858 Y-0.866
X13.05 Y-1.025
X13.26 Y-1.171
X13.543 Y-1.338
X13.86 Y-1.49
X14.277 Y-1.652
X14.809 Y-1.81
X15.419 Y-1.939
X16.037 Y-2.028
X16.658 Y-2.088
X17.281 Y-2.128
X17.904 Y-2.155
X18.06 Y-2.16
X18.211 Y-2.199
X18.35 Y-2.27
X18.469 Y-2.371
X18.563 Y-2.495
X18.692 Y-2.779
X18.792 Y-3.395
X18.742 Y-4.017
X18.608 Y-4.627
X18.43 Y-5.224
X18.23 Y-5.816
X18.022 Y-6.404
X17.817 Y-6.993
X17.622 Y-7.586
X17.439 Y-8.182
X17.268 Y-8.783
X17.111 Y-9.386
X16.969 Y-9.994
X16.844 Y-10.605
X16.736 Y-11.22
X16.643 Y-11.837
X16.566 Y-12.456
X16.505 Y-13.077
X16.462 Y-13.699
X16.436 Y-14.323
X16.427 Y-14.947
X16.433 Y-15.57
X16.456 Y-16.194
X16.496 Y-16.817
X16.554 Y-17.438
X16.628 Y-18.057
X16.718 Y-18.675
X16.824 Y-19.29
X16.948 Y-19.901
X17.089 Y-20.509
X17.246 Y-21.113
X17.418 Y-21.713
X17.606 Y-22.308
X17.811 Y-22.897
X18.032 Y-23.48
X18.269 Y-24.058
X18.52 Y-24.629
X18.786 Y-25.193
X19.067 Y-25.75
X19.365 Y-26.299
X19.676 Y-26.839
X20.001 Y-27.372
X20.34 Y-27.896
X20.694 Y-28.41
X21.062 Y-28.914
X21.443 Y-29.407
X21.837 Y-29.892
X22.243 Y-30.365
X22.662 Y-30.827
X23.095 Y-31.277
X23.54 Y-31.714
X23.995 Y-32.141
X24.461 Y-32.556
X24.939 Y-32.957
X25.428 Y-33.345
X25.927 Y-33.719
X26.435 Y-34.081
X26.954 Y-34.428
X27.485 Y-34.755
X28.028 Y-35.064
X28.579 Y-35.356
X29.137 Y-35.634
X29.702 Y-35.9
X30.272 Y-36.153
X30.849 Y-36.39
X31.432 Y-36.614
X32.019 Y-36.823
X32.612 Y-37.019
X33.209 Y-37.199
X33.811 Y-37.362
X34.418 Y-37.509
X35.028 Y-37.64
X35.641 Y-37.756
X36.257 Y-37.856
X36.876 Y-37.938
X37.496 Y-38.002
X38.118 Y-38.051
X38.741 Y-38.085
X39.365 Y-38.102
X39.989 Y-38.099
X40.612 Y-38.08
X41.235 Y-38.044
X41.857 Y-37.993
X42.477 Y-37.925
X43.095 Y-37.839
X43.711 Y-37.735
X44.323 Y-37.617
X44.933 Y-37.483
X45.538 Y-37.332
X46.139 Y-37.163
X46.735 Y-36.978
X47.325 Y-36.777
X47.911 Y-36.562
X48.491 Y-36.331
X49.063 Y-36.083
X49.629 Y-35.819
X50.187 Y-35.541
X50.739 Y-35.25
X51.282 Y-34.943
X51.817 Y-34.621
X52.341 Y-34.283
X52.857 Y-33.932
X53.364 Y-33.568
X53.861 Y-33.191
X54.347 Y-32.799
X54.821 Y-32.394
X55.286 Y-31.977
X55.739 Y-31.549
X56.181 Y-31.108
X56.609 Y-30.655
X57.025 Y-30.189
X57.428 Y-29.714
X57.82 Y-29.228
X58.198 Y-28.731
X58.561 Y-28.224
X58.911 Y-27.707
X59.247 Y-27.182
X59.571 Y-26.648
X59.879 Y-26.106
X60.171 Y-25.554
X60.447 Y-24.995
X60.709 Y-24.429
X60.957 Y-23.856
X61.189 Y-23.277
X61.404 Y-22.691
X61.602 Y-22.099
X61.786 Y-21.503
X61.955 Y-20.903
X62.107 Y-20.297
X62.241 Y-19.688
X62.358 Y-19.075
X62.46 Y-18.46
X62.546 Y-17.842
X62.615 Y-17.221
X62.665 Y-16.6
X62.699 Y-15.976
X62.717 Y-15.353
X62.72 Y-14.729
X62.706 Y-14.105
X62.672 Y-13.482
X62.622 Y-12.86
X62.555 Y-12.24
X62.473 Y-11.621
X62.374 Y-11.005
X62.257 Y-10.392
X62.124 Y-9.783
X61.974 Y-9.177
X61.813 Y-8.574
X61.639 Y-7.975
X61.451 Y-7.38
X61.248 Y-6.79
X61.03 Y-6.206
X60.796 Y-5.627
X60.543 Y-5.057
X60.273 Y-4.494
X60.13 Y-4.217
X60.057 Y-4.079
X60.017 Y-3.928
X60.01 Y-3.773
X60.039 Y-3.619
X60.1 Y-3.476
X60.284 Y-3.224
X60.773 Y-2.836
X61.346 Y-2.59
X61.951 Y-2.437
X62.568 Y-2.345
X63.19 Y-2.289
X63.813 Y-2.256
X64.437 Y-2.236
X65.06 Y-2.213
X65.593 Y-2.162
X65.941 Y-2.1
X66.235 Y-2.023
X66.443 Y-1.95
X66.573 Y-1.893
X66.744 Y-1.786
X66.877 Y-1.635
X66.961 Y-1.452
X66.99 Y-1.253
Y-0.151
G0 Z5
X12.625 Y1.259
Z-1.905
G1 Z-2.205 F200
X12.621 Y1.253 Z-2.272
X12.609 Y1.234 Z-2.335
X12.591 Y1.203 Z-2.392
X12.567 Y1.162 Z-2.44
X12.538 Y1.113 Z-2.475
X12.505 Y1.059 Z-2.497
X12.471 Y1.001 Z-2.505
G3 X12.25 Y0.248 I1.36 J-0.809
G1 Y-0.637
X12.257 Y-0.787
X12.285 Y-0.935
X12.33 Y-1.078
X12.39 Y-1.215
X12.461 Y-1.348
X12.556 Y-1.495
X12.669 Y-1.642
X12.814 Y-1.802
X12.988 Y-1.966
X13.201 Y-2.137
X13.462 Y-2.313
X13.773 Y-2.489
X14.152 Y-2.665
X14.631 Y-2.842
X15.232 Y-3.01
X15.844 Y-3.131
X15.999 Y-3.152
X16.145 Y-3.207
X16.275 Y-3.293
X16.491 Y-3.518
X16.792 Y-4.064
X16.891 Y-4.68
X16.864 Y-5.304
X16.764 Y-5.92
X16.625 Y-6.528
X16.469 Y-7.132
X16.307 Y-7.735
X16.148 Y-8.338
X15.997 Y-8.943
X15.856 Y-9.551
X15.729 Y-10.162
X15.617 Y-10.776
X15.518 Y-11.392
X15.435 Y-12.01
X15.367 Y-12.631
X15.315 Y-13.252
X15.279 Y-13.875
X15.258 Y-14.499
X15.253 Y-15.123
X15.264 Y-15.747
X15.291 Y-16.37
X15.334 Y-16.992
X15.393 Y-17.614
X15.467 Y-18.233
X15.557 Y-18.851
X15.664 Y-19.465
X15.786 Y-20.077
X15.924 Y-20.686
X16.077 Y-21.291
X16.246 Y-21.891
X16.43 Y-22.488
X16.629 Y-23.079
X16.844 Y-23.664
X17.074 Y-24.244
X17.318 Y-24.819
X17.577 Y-25.386
X17.85 Y-25.947
X18.138 Y-26.501
X18.44 Y-27.047
X18.755 Y-27.586
X19.084 Y-28.116
X19.426 Y-28.638
X19.782 Y-29.15
X20.151 Y-29.653
X20.532 Y-30.147
X20.925 Y-30.632
X21.332 Y-31.105
X21.75 Y-31.568
X22.18 Y-32.02
X22.622 Y-32.461
X23.074 Y-32.891
X23.537 Y-33.309
X24.012 Y-33.714
X24.496 Y-34.107
X24.991 Y-34.487
X25.495 Y-34.855
X26.01 Y-35.208
X26.535 Y-35.544
X27.07 Y-35.865
X27.615 Y-36.17
X28.166 Y-36.461
X28.725 Y-36.739
X29.29 Y-37.003
X29.862 Y-37.254
X30.439 Y-37.491
X31.021 Y-37.715
X31.608 Y-37.926
X32.201 Y-38.122
X32.798 Y-38.303
X33.399 Y-38.468
X34.005 Y-38.619
X34.614 Y-38.755
X35.226 Y-38.876
X35.841 Y-38.98
X36.459 Y-39.068
X37.079 Y-39.141
X37.7 Y-39.199
X38.322 Y-39.24
X38.946 Y-39.266
X39.57 Y-39.275
X40.194 Y-39.267
X40.817 Y-39.245
X41.44 Y-39.206
X42.061 Y-39.151
X42.681 Y-39.08
X43.299 Y-38.993
X43.915 Y-38.891
X44.527 Y-38.773
X45.137 Y-38.64
X45.743 Y-38.491
X46.344 Y-38.325
X46.942 Y-38.145
X47.534 Y-37.949
X48.121 Y-37.738
X48.703 Y-37.512
X49.278 Y-37.27
X49.847 Y-37.014
X50.41 Y-36.745
X50.965 Y-36.461
X51.513 Y-36.162
X52.053 Y-35.849
X52.584 Y-35.522
X53.108 Y-35.182
X53.622 Y-34.829
X54.127 Y-34.463
X54.622 Y-34.083
X55.108 Y-33.691
X55.583 Y-33.287
X56.048 Y-32.871
X56.503 Y-32.444
X56.946 Y-32.004
X57.377 Y-31.553
X57.796 Y-31.091
X58.204 Y-30.619
X58.599 Y-30.136
X58.982 Y-29.643
X59.351 Y-29.14
X59.707 Y-28.628
X60.051 Y-28.108
X60.382 Y-27.578
X60.699 Y-27.041
X61.001 Y-26.495
X61.289 Y-25.941
X61.563 Y-25.381
X61.822 Y-24.813
X62.068 Y-24.24
X62.297 Y-23.66
X62.512 Y-23.074
X62.712 Y-22.483
X62.897 Y-21.887
X63.067 Y-21.287
X63.221 Y-20.682
X63.359 Y-20.073
X63.482 Y-19.462
X63.589 Y-18.847
X63.68 Y-18.23
X63.754 Y-17.61
X63.813 Y-16.989
X63.855 Y-16.367
X63.883 Y-15.743
X63.894 Y-15.119
X63.89 Y-14.495
X63.868 Y-13.872
X63.831 Y-13.249
X63.778 Y-12.627
X63.709 Y-12.007
X63.625 Y-11.389
X63.524 Y-10.773
X63.407 Y-10.16
X63.275 Y-9.551
X63.129 Y-8.944
X62.97 Y-8.34
X62.798 Y-7.741
X62.612 Y-7.145
X62.412 Y-6.554
X62.198 Y-5.968
X62.082 Y-5.678
X61.962 Y-5.39
X61.935 Y-5.237
X61.943 Y-5.081
X61.985 Y-4.931
X62.133 Y-4.656
X62.557 Y-4.199
X63.104 Y-3.897
X63.697 Y-3.705
X64.309 Y-3.581
X64.925 Y-3.483
X65.54 Y-3.375
X65.976 Y-3.271
X66.298 Y-3.167
X66.519 Y-3.075
X66.61 Y-3.028
X66.766 Y-2.919
X66.887 Y-2.77
X66.964 Y-2.595
X66.99 Y-2.406
Y-1.253
G0 Z5
X12.625 Y0.374
Z-1.905
G1 Z-2.205 F200
X12.621 Y0.367 Z-2.272
X12.609 Y0.348 Z-2.335
X12.591 Y0.318 Z-2.392
X12.567 Y0.277 Z-2.44
X12.538 Y0.228 Z-2.475
X12.505 Y0.173 Z-2.497
X12.471 Y0.116 Z-2.505
G3 X12.25 Y-0.637 I1.36 J-0.809
G1 Y-1.629
X12.257 Y-1.779
X12.284 Y-1.927
X12.328 Y-2.07
X12.384 Y-2.209
X12.458 Y-2.352
X12.552 Y-2.505
X12.668 Y-2.664
X12.818 Y-2.836
X12.992 Y-3.008
X13.218 Y-3.197
X13.475 Y-3.379
X13.809 Y-3.577
X14.369 Y-3.851
X14.621 Y-4.036
X14.821 Y-4.275
X15.125 Y-4.82
X15.252 Y-5.431
X15.262 Y-6.054
X15.202 Y-6.675
X15.101 Y-7.291
X14.979 Y-7.903
X14.85 Y-8.513
X14.721 Y-9.124
X14.6 Y-9.736
X14.488 Y-10.35
X14.388 Y-10.966
X14.301 Y-11.584
X14.227 Y-12.203
X14.169 Y-12.824
X14.124 Y-13.447
X14.095 Y-14.07
X14.08 Y-14.694
Y-15.318
X14.096 Y-15.941
X14.126 Y-16.565
X14.172 Y-17.187
X14.233 Y-17.808
X14.309 Y-18.427
X14.399 Y-19.045
X14.506 Y-19.659
X14.627 Y-20.271
X14.763 Y-20.88
X14.913 Y-21.486
X15.079 Y-22.088
X15.259 Y-22.685
X15.454 Y-23.277
X15.664 Y-23.865
X15.888 Y-24.447
X16.126 Y-25.024
X16.378 Y-25.595
X16.645 Y-26.159
X16.925 Y-26.717
X17.218 Y-27.268
X17.524 Y-27.811
X17.844 Y-28.347
X18.176 Y-28.875
X18.521 Y-29.395
X18.879 Y-29.906
X19.249 Y-30.408
X19.631 Y-30.902
X20.025 Y-31.385
X20.431 Y-31.859
X20.849 Y-32.323
X21.277 Y-32.776
X21.716 Y-33.22
X22.166 Y-33.652
X22.627 Y-34.073
X23.098 Y-34.482
X23.579 Y-34.879
X24.07 Y-35.264
X24.571 Y-35.637
X25.081 Y-35.995
X25.601 Y-36.34
X26.131 Y-36.67
X26.669 Y-36.985
X27.215 Y-37.287
X27.768 Y-37.576
X28.328 Y-37.852
X28.894 Y-38.114
X29.466 Y-38.363
X30.044 Y-38.6
X30.626 Y-38.823
X31.214 Y-39.033
X31.806 Y-39.23
X32.403 Y-39.412
X33.004 Y-39.58
X33.608 Y-39.734
X34.217 Y-39.873
X34.828 Y-39.998
X35.442 Y-40.107
X35.513 Y-40.116
X35.548 Y-40.119
X35.583 Y-40.12
X42.454
X43.077 Y-40.089
X43.7 Y-40.049
X44.319 Y-39.971
X44.934 Y-39.865
X45.544 Y-39.737
X46.15 Y-39.589
X46.752 Y-39.425
X47.35 Y-39.245
X47.942 Y-39.049
X48.529 Y-38.838
X49.111 Y-38.613
X49.687 Y-38.373
X50.257 Y-38.119
X50.821 Y-37.852
X51.378 Y-37.571
X51.928 Y-37.276
X52.47 Y-36.968
X53.005 Y-36.646
X53.531 Y-36.311
X54.05 Y-35.963
X54.559 Y-35.603
X55.059 Y-35.23
X55.551 Y-34.846
X56.032 Y-34.449
X56.504 Y-34.041
X56.966 Y-33.622
X57.418 Y-33.191
X57.858 Y-32.749
X58.288 Y-32.297
X58.706 Y-31.834
X59.114 Y-31.361
X59.509 Y-30.878
X59.892 Y-30.386
X60.263 Y-29.884
X60.622 Y-29.374
X60.968 Y-28.855
X61.302 Y-28.328
X61.622 Y-27.792
X61.929 Y-27.249
X62.222 Y-26.698
X62.502 Y-26.14
X62.768 Y-25.576
X63.02 Y-25.005
X63.258 Y-24.428
X63.482 Y-23.846
X63.691 Y-23.258
X63.887 Y-22.666
X64.068 Y-22.069
X64.234 Y-21.467
X64.385 Y-20.862
X64.521 Y-20.253
X64.643 Y-19.641
X64.749 Y-19.026
X64.84 Y-18.409
X64.916 Y-17.79
X64.977 Y-17.169
X65.022 Y-16.546
X65.053 Y-15.923
X65.068 Y-15.299
Y-14.675
X65.052 Y-14.052
X65.021 Y-13.428
X64.975 Y-12.806
X64.913 Y-12.185
X64.836 Y-11.566
X64.744 Y-10.949
X64.637 Y-10.334
X64.516 Y-9.722
X64.381 Y-9.113
X64.232 Y-8.507
X64.07 Y-7.905
X63.896 Y-7.306
X63.708 Y-6.711
X63.695 Y-6.555
X63.735 Y-6.246
X63.869 Y-5.964
X64.253 Y-5.472
X64.766 Y-5.117
X65.329 Y-4.848
X65.908 Y-4.615
X66.354 Y-4.426
X66.612 Y-4.291
X66.663 Y-4.258
X66.799 Y-4.147
X66.903 Y-4.004
X66.968 Y-3.841
X66.99 Y-3.666
Y-2.406
G0 Z5
X41.442 Y-39.745
Z-1.905
G1 Z-2.205 F200
X41.449 Y-39.749 Z-2.272
X41.468 Y-39.761 Z-2.335
X41.499 Y-39.779 Z-2.392
X41.539 Y-39.803 Z-2.44
X41.588 Y-39.832 Z-2.475
X41.643 Y-39.865 Z-2.497
X41.7 Y-39.899 Z-2.505
G3 X42.454 Y-40.12 I0.809 J1.36
G1 X47.13
X47.672 Y-40.093
X48.136 Y-40.032
X48.746 Y-39.901
X49.344 Y-39.723
X49.931 Y-39.511
X50.509 Y-39.276
X51.079 Y-39.022
X51.641 Y-38.751
X52.195 Y-38.465
X52.743 Y-38.165
X53.073 Y-37.973
X53.125 Y-37.939
X53.175 Y-37.901
X53.22 Y-37.859
G3 X52.895 Y-37.375 I-0.221 J0.203
G1 X47.036 Y-39.539
G3 X47.13 Y-40.12 I0.104 J-0.281
G1 X50.247
X50.388
X50.431
X50.581 Y-40.112
X50.832 Y-40.077
X50.979 Y-40.04
X51.115 Y-39.972
X51.233 Y-39.875
G3 X50.937 Y-39.382 I-0.221 J0.203
G1 X50.922 Y-39.386
X50.367 Y-39.53
G3 X50.431 Y-40.12 I0.075 J-0.29
G1 X50.813
X50.955 Y-40.119
X50.97 Y-40.116
X50.986 Y-40.112
X51.001 Y-40.105
X51.016 Y-40.095
X51.575 Y-39.528
X61.865 Y-29.086
X62.281 Y-28.62
X62.66 Y-28.131
X63.002 Y-27.609
X63.314 Y-27.068
X63.604 Y-26.516
X63.875 Y-25.954
X64.129 Y-25.384
X64.368 Y-24.808
X64.592 Y-24.225
X64.803 Y-23.638
X64.999 Y-23.046
X65.181 Y-22.449
X65.349 Y-21.848
X65.503 Y-21.243
X65.642 Y-20.635
X65.768 Y-20.024
X65.878 Y-19.41
X65.974 Y-18.793
X66.056 Y-18.175
X66.123 Y-17.554
X66.175 Y-16.933
X66.213 Y-16.31
X66.237 Y-15.686
X66.245 Y-15.062
