;FLAVOR:Marlin
;TIME:692
;Filament used: 0.352466m
;Layer height: 0.28
;MINX:107.612
;MINY:109.973
;MINZ:0.28
;MAXX:121.39
;MAXY:127.052
;MAXZ:19.32
;Generated with Cura_SteamEngine 5.2.1
M140 S50
M105
M190 S50
M104 S200
M105
M109 S200
M82 ;absolute extrusion mode
; Ender 3 Custom Start G-code
G92 E0 ; Reset Extruder
G28 ; Home all axes
G1 Z2.0 F3000 ; Move Z Axis up little to prevent scratching of Heat Bed
G1 X0.1 Y20 Z0.3 F5000.0 ; Move to start position
G1 X0.1 Y200.0 Z0.3 F1500.0 E15 ; Draw the first line
G1 X0.4 Y200.0 Z0.3 F5000.0 ; Move to side a little
G1 X0.4 Y20 Z0.3 F1500.0 E30 ; Draw the second line
G92 E0 ; Reset Extruder
G1 Z2.0 F3000 ; Move Z Axis up little to prevent scratching of Heat Bed
G1 X5 Y20 Z0.3 F5000.0 ; Move over to prevent blob squish
G92 E0
G92 E0
G1 F2700 E-5
;LAYER_COUNT:70
;LAYER:0
M107
;MESH:Dickbutt_with_cavity.stl
G0 F6000 X109.569 Y112.226 Z0.28
;TYPE:WALL-OUTER
G1 F2700 E0
G1 F1097.7 X109.571 Y111.996 E0.01071
G1 X109.415 Y111.398 E0.03949
G1 X109.137 Y110.684 E0.07517
G1 X108.985 Y110.368 E0.09149
G1 X108.853 Y110.24 E0.10006
G1 X108.759 Y110.242 E0.10443
G1 X108.167 Y110.518 E0.13485
G1 X108.229 Y110.757 E0.14635
G1 X108.421 Y111.057 E0.16293
G1 X108.721 Y111.458 E0.18625
G1 X109.229 Y111.986 E0.22037
G1 X109.569 Y112.226 E0.23975
G0 F6000 X109.258 Y111.696
G0 X108.773 Y110.857
;TYPE:WALL-INNER
G1 F1050.4 X108.698 Y110.726 E0.24709
G1 F2700 E-4.75291
G0 F6000 X109.206 Y111.463
G0 X110.258 Y111.204
G0 X118.623 Y111.604
G0 X119.406 Y112.281
;TYPE:WALL-OUTER
G1 F2700 E0.24709
G1 F1097.7 X119.728 Y112.058 E0.26533
G1 X120.147 Y111.638 E0.29295
G1 X120.408 Y111.323 E0.312
G1 X120.675 Y110.973 E0.3325
G1 X120.837 Y110.64 E0.34974
G1 X120.837 Y110.586 E0.35226
G1 X120.809 Y110.53 E0.35517
G1 X120.197 Y110.246 E0.38659
G1 X120.066 Y110.315 E0.39348
G1 X119.894 Y110.619 E0.40975
G1 X119.697 Y111.068 E0.43258
G1 X119.499 Y111.654 E0.46138
G1 X119.439 Y111.937 E0.47485
G1 X119.388 Y112.13 E0.48415
G1 X119.406 Y112.281 E0.49123
G0 F6000 X119.708 Y111.756
G0 X120.238 Y110.864
;TYPE:WALL-INNER
G1 F1007 X120.299 Y110.759 E0.49739
G1 F2700 E-4.50261
G0 F6000 X119.67 Y111.827
G0 X120.287 Y112.723
G0 X118.207 Y116.692
G0 X116.813 Y124.473
G1 F2700 E0.49739
G1 F1097.7 X117.317 Y124.371 E0.52134
G1 X117.855 Y124.155 E0.54833
G1 X118.304 Y123.812 E0.57464
G1 X118.627 Y123.416 E0.59844
G1 X118.783 Y122.983 E0.61987
G1 X118.849 Y122.601 E0.63792
G1 X118.875 Y122.319 E0.65111
G1 X118.888 Y121.652 E0.68217
G1 X118.856 Y120.749 E0.72424
G1 X118.819 Y120.434 E0.73901
G1 X118.737 Y120.066 E0.75657
G1 X118.645 Y119.746 E0.77207
G1 F986.7 X118.518 Y119.466 E0.788
G1 F846 X118.371 Y119.136 E0.80983
G1 F801.2 X118.255 Y118.866 E0.82857
G1 F825.3 X118.268 Y118.854 E0.82967
G1 F850.9 X118.097 Y118.57 E0.84958
G1 X117.685 Y118.047 E0.88957
G1 F746.7 X117.33 Y117.784 E0.91981
G1 X117.483 Y118.199 E0.95009
G1 F850.9 X117.626 Y118.516 E0.97098
G1 X117.781 Y119.015 E1.00237
G1 F825.3 X117.799 Y119.015 E1.00348
G1 F792.5 X117.886 Y119.45 E1.03209
G1 F836.3 X117.859 Y119.592 E1.04092
G1 F986.7 X117.827 Y119.879 E1.05588
G1 F1097.7 X117.804 Y120.378 E1.07914
G1 X117.712 Y120.775 E1.09812
G1 X117.549 Y121.264 E1.12212
G1 X117.305 Y121.696 E1.14522
G1 X117.004 Y122.11 E1.16906
G1 X116.679 Y122.426 E1.19017
G1 X116.234 Y122.771 E1.21638
G1 X115.727 Y123.012 E1.24252
G1 X115.198 Y123.176 E1.26831
G1 X114.879 Y123.232 E1.28339
G1 F892.4 X114.484 Y123.363 E1.30723
G1 F871.2 X114.776 Y123.495 E1.32603
G1 F1065.7 X114.829 Y123.533 E1.32916
G1 F1097.7 X115.218 Y123.708 E1.34902
G1 X115.51 Y124.087 E1.3713
G1 X115.662 Y124.217 E1.38061
G1 X116.029 Y124.374 E1.3992
G1 X116.418 Y124.452 E1.41767
G1 X116.813 Y124.473 E1.43609
G0 F6000 X116.612 Y124.362
G0 X115.4 Y124.198
G0 X115.109 Y123.837
G0 X114.536 Y123.581
G0 X113.905 Y123.827
G0 X113.501 Y123.725
G0 X112.288 Y124.351
G0 X112.286 Y124.469
G1 F1097.7 X112.852 Y124.381 E1.46276
G1 X113.149 Y124.292 E1.4772
G1 X113.358 Y124.158 E1.48876
G1 X113.732 Y123.772 E1.51379
G1 X114.023 Y123.606 E1.52939
G1 F881.7 X114.376 Y123.371 E1.55397
G1 X113.966 Y123.25 E1.57875
G1 F1097.7 X113.537 Y123.176 E1.59902
G1 X113.076 Y123.026 E1.6216
G1 X112.543 Y122.771 E1.64911
G1 X112.104 Y122.438 E1.67477
G1 X111.715 Y122.051 E1.70032
G1 X111.45 Y121.685 E1.72136
G1 X111.195 Y121.244 E1.74508
G1 X110.984 Y120.645 E1.77465
G1 X110.911 Y120.192 E1.79602
G1 X110.886 Y119.764 E1.81598
G1 F1065.7 X110.898 Y119.341 E1.83628
G1 F1073.5 X110.965 Y119.022 E1.8518
G1 F1125.8 X111.079 Y118.624 E1.87059
G1 F1137.5 X111.116 Y118.528 E1.87522
G1 F956.6 X111.237 Y118.107 E1.89862
G1 X110.835 Y118.469 E1.92753
G1 F1137.5 X110.627 Y118.816 E1.94571
G1 F1117.2 X110.362 Y119.604 E1.98374
G1 F1097.7 X110.201 Y120.151 E2.01029
G1 X110.111 Y120.808 E2.04117
G1 X110.089 Y121.081 E2.05392
G1 X110.093 Y121.365 E2.06715
G1 X110.082 Y121.887 E2.09146
G1 X110.101 Y122.469 E2.11857
G1 X110.133 Y122.743 E2.13142
G1 X110.24 Y123.17 E2.15192
G1 X110.43 Y123.533 E2.171
G1 X110.8 Y123.93 E2.19627
G1 X111.312 Y124.228 E2.22385
G1 X111.744 Y124.387 E2.24529
G1 X112.286 Y124.469 E2.27081
G0 F6000 X112.148 Y124.851
;TYPE:WALL-OUTER
G1 F1097.7 X112.413 Y124.852 E2.28315
G1 X112.683 Y124.824 E2.29579
G1 X112.95 Y124.769 E2.30848
G1 X113.318 Y124.659 E2.32637
G1 X113.612 Y124.47 E2.34264
G1 X114.041 Y124.029 E2.37129
G1 X114.529 Y123.837 E2.39571
G1 X114.962 Y124.031 E2.4178
G1 X115.218 Y124.363 E2.43733
G1 X115.435 Y124.55 E2.45066
G1 X115.677 Y124.677 E2.46339
G1 X115.925 Y124.761 E2.47558
G1 X116.189 Y124.815 E2.48813
G1 X116.451 Y124.855 E2.50047
G1 X116.947 Y124.853 E2.52357
G1 X117.332 Y124.79 E2.54173
G1 X117.686 Y124.663 E2.55924
G1 X117.925 Y124.557 E2.57142
G1 X118.157 Y124.426 E2.58383
G1 X118.377 Y124.273 E2.5963
G1 X118.581 Y124.102 E2.6087
G1 X118.761 Y123.906 E2.62109
G1 X118.917 Y123.69 E2.6335
G1 X119.038 Y123.455 E2.6458
G1 X119.172 Y123.087 E2.66404
G1 X119.246 Y122.653 E2.68454
G1 X119.275 Y122.341 E2.69913
G1 X119.288 Y121.66 E2.73085
G1 X119.255 Y120.72 E2.77464
G1 X119.221 Y120.403 E2.78949
G1 X119.129 Y119.982 E2.80956
G1 X118.945 Y119.34 E2.84065
G1 X118.817 Y118.973 E2.85875
G1 X118.668 Y118.626 E2.87634
G1 X118.475 Y118.309 E2.89362
G1 X118.06 Y117.775 E2.92511
G1 X117.57 Y117.273 E2.95777
G1 X117.15 Y116.963 E2.98208
G1 X116.875 Y116.785 E2.99734
G1 X116.264 Y116.49 E3.02893
G1 F905.3 X115.862 Y116.424 E3.05193
G1 F773 X115.773 Y116.388 E3.05828
G1 F785.5 X115.404 Y116.278 E3.08333
G1 F804.2 X115.085 Y116.217 E3.10398
G1 F825.3 X114.76 Y116.192 E3.12416
G1 F841.1 X114.443 Y116.178 E3.14344
G1 F842.7 X114.136 Y116.184 E3.16207
G1 F850.9 X113.786 Y116.224 E3.18323
G1 F859.2 X113.422 Y116.298 E3.20532
G1 F857.6 X112.941 Y116.453 E3.23544
G1 F844.4 X112.359 Y116.719 E3.27418
G1 F805.6 X111.865 Y117.034 E3.31135
G1 F836.3 X111.473 Y117.208 E3.33756
G1 F995.6 X111.075 Y117.592 E3.36595
G1 F1100.4 X110.864 Y117.822 E3.38045
G1 X110.441 Y118.361 E3.41228
G1 F1097.7 X110.273 Y118.641 E3.42748
G1 X110.147 Y118.959 E3.44341
G1 F1100.4 X110.04 Y119.275 E3.4589
G1 X109.809 Y120.067 E3.49722
G1 F1097.7 X109.716 Y120.739 E3.52881
G1 X109.689 Y121.069 E3.54423
G1 X109.693 Y121.357 E3.55764
G1 X109.682 Y121.899 E3.58289
G1 X109.701 Y122.499 E3.61084
G1 X109.753 Y122.928 E3.63096
G1 X109.864 Y123.31 E3.64948
G1 X109.972 Y123.544 E3.66148
G1 X110.102 Y123.765 E3.67342
G1 X110.269 Y123.965 E3.68556
G1 X110.462 Y124.151 E3.69804
G1 X110.677 Y124.319 E3.71074
G1 X110.902 Y124.464 E3.72321
G1 X111.141 Y124.59 E3.73579
G1 X111.386 Y124.694 E3.74818
G1 X111.75 Y124.808 E3.76594
G1 X112.148 Y124.851 E3.78458
G1 F2700 E-1.21542
G0 F6000 X112.281 Y124.351
G0 X113.887 Y123.86
G0 X114.412 Y123.635
G0 X115.083 Y123.537
G1 F2700 E3.78458
G0 F6000 X114.839 Y122.834
G1 F1097.7 X114.436 Y122.874 E3.80344
G1 X113.964 Y122.847 E3.82545
G1 X113.617 Y122.784 E3.84188
G1 X113.202 Y122.646 E3.86224
G1 X112.749 Y122.428 E3.88565
G1 X112.359 Y122.13 E3.9085
G1 X112.042 Y121.818 E3.92921
G1 X111.796 Y121.485 E3.94849
G1 X111.569 Y121.093 E3.96959
G1 X111.378 Y120.559 E3.99599
G1 X111.306 Y120.124 E4.01652
G1 X111.286 Y119.743 E4.03429
G1 X111.306 Y119.404 E4.0501
G1 X111.354 Y119.101 E4.06439
G1 X111.47 Y118.698 E4.08391
G1 X111.657 Y118.308 E4.10405
G1 X111.852 Y118.001 E4.12099
G1 X112.03 Y117.791 E4.13381
G1 F909.1 X112.212 Y117.48 E4.15407
G1 F801.2 X112.537 Y117.222 E4.18054
G1 F844.4 X113.002 Y116.986 E4.21211
G1 F864.3 X113.455 Y116.813 E4.24078
G1 F862.6 X113.885 Y116.727 E4.26676
G1 F852.6 X114.271 Y116.695 E4.28999
G1 F842.7 X114.767 Y116.718 E4.3201
G1 F820.7 X115.21 Y116.792 E4.34807
G1 F789.7 X115.649 Y116.95 E4.37827
G1 F876.4 X115.891 Y117.147 E4.39647
G1 F1052.9 X115.904 Y117.174 E4.39792
G1 F1097.7 X116.328 Y117.462 E4.42179
G1 X116.635 Y117.769 E4.44201
G1 X116.891 Y118.083 E4.46087
G1 X117.088 Y118.431 E4.47949
G1 X117.214 Y118.722 E4.49426
G1 X117.336 Y119.124 E4.51382
G1 X117.411 Y119.528 E4.53295
G1 X117.428 Y119.918 E4.55113
G1 X117.407 Y120.303 E4.56909
G1 X117.317 Y120.704 E4.58822
G1 X117.169 Y121.123 E4.60891
G1 X116.944 Y121.518 E4.63008
G1 X116.701 Y121.848 E4.64916
G1 X116.408 Y122.132 E4.66816
G1 X116.011 Y122.433 E4.69136
G1 X115.542 Y122.655 E4.71552
G1 X115.126 Y122.782 E4.73578
G1 X114.839 Y122.834 E4.74936
G0 F6000 X115.083 Y123.537
G0 X116.56 Y122.318
G0 X116.884 Y122.006
G0 X117.399 Y121.202
G0 X117.618 Y120.436
G0 X117.702 Y118.309
G0 X117.33 Y117.784
;TYPE:WALL-INNER
G1 F691.5 X117.048 Y117.49 E4.77947
G1 F769 X116.625 Y117.141 E4.81593
G1 F967.1 X116.126 Y116.853 E4.84637
G0 F6000 X114.773 Y116.54
G0 X113.873 Y116.544
G0 X113.41 Y116.632
G0 X112.642 Y116.976
G0 X111.724 Y117.533
G1 F1038 X111.511 Y117.752 E4.86142
G1 F909.1 X111.281 Y118.04 E4.88214
G1 F834.7 X111.237 Y118.107 E4.88705
G0 F6000 X111.045 Y119.729
G0 X111.142 Y120.603
G0 X111.952 Y122.516
G0 X113.934 Y123.438
G0 X113.081 Y124.144
G0 X112.49 Y124.261
G0 X111.638 Y124.249
G0 X111.833 Y124.036
;TYPE:SKIN
G1 F1097.7 X112.189 Y124.089 E4.90381
G1 X112.571 Y124.07 E4.92162
G1 X113 Y123.959 E4.94225
G1 X113.125 Y123.878 E4.94919
G1 X113.464 Y123.53 E4.97181
G1 X112.918 Y123.354 E4.99852
G1 X112.331 Y123.069 E5.02891
G1 X111.869 Y122.713 E5.05607
G1 X111.424 Y122.266 E5.08544
G1 X111.186 Y121.939 E5.10427
G1 X110.878 Y121.421 E5.13233
G1 X110.636 Y120.742 E5.16589
G1 X110.554 Y120.227 E5.19018
G1 X110.473 Y120.814 E5.21777
G1 X110.449 Y121.101 E5.23118
G1 X110.453 Y121.326 E5.24166
G1 X110.443 Y121.875 E5.26723
G1 X110.464 Y122.566 E5.29942
G1 X110.579 Y123.041 E5.32217
G1 X110.724 Y123.32 E5.33682
G1 X111.041 Y123.657 E5.35836
G1 X111.436 Y123.886 E5.37962
G1 X111.833 Y124.036 E5.39938
G0 F6000 X111.638 Y124.249
G0 X110.8 Y123.697
G0 X110.518 Y123.331
G0 X110.218 Y122.603
G0 X110.665 Y122.545
G1 F1097.7 X111.973 Y123.853 E5.48552
G0 F6000 X112.553 Y123.867
G1 F1097.7 X110.645 Y121.959 E5.61116
G0 F6000 X110.191 Y122.167
G0 X110.451 Y123.244
G0 X110.865 Y123.754
G0 X111.615 Y124.178
G0 X112.384 Y124.291
G0 X113.142 Y124.105
G0 X113.934 Y123.438
G0 X112.802 Y123.01
G0 X112.743 Y123.491
G1 F1097.7 X112.975 Y123.723 E5.62644
G0 F6000 X113.242 Y124.113
G0 X114.536 Y123.581
G0 X114.86 Y123.725
G0 X116.523 Y124.357
G0 X116.527 Y124.097
G1 F1097.7 X116.862 Y124.096 E5.64204
G1 X117.198 Y124.028 E5.658
G1 X117.672 Y123.842 E5.68171
G1 X118.053 Y123.551 E5.70403
G1 X118.306 Y123.239 E5.72274
G1 X118.432 Y122.897 E5.73971
G1 X118.491 Y122.554 E5.75591
G1 X118.515 Y122.297 E5.76793
G1 X118.527 Y121.63 E5.799
G1 X118.49 Y120.619 E5.84611
G1 X118.388 Y120.159 E5.86804
G1 X118.303 Y119.866 E5.88225
G1 X118.228 Y119.75 E5.88868
G1 X118.186 Y119.907 E5.89625
G1 X118.164 Y120.404 E5.91942
G1 X118.059 Y120.875 E5.94189
G1 X117.883 Y121.399 E5.96762
G1 X117.559 Y121.967 E5.99807
G1 X117.286 Y122.341 E6.01963
G1 X116.854 Y122.751 E6.04737
G1 X116.411 Y123.086 E6.07323
G1 X115.879 Y123.34 E6.10068
G1 X115.48 Y123.47 E6.12022
G1 X115.819 Y123.893 E6.14546
G1 X116.126 Y124.024 E6.161
G1 X116.527 Y124.097 E6.17998
G0 F6000 X116.101 Y123.455
G1 F1097.7 X116.541 Y123.895 E6.20896
G0 F6000 X117.061 Y123.849
G1 F1097.7 X116.483 Y123.271 E6.24702
G0 F6000 X116.812 Y123.035
G1 F1097.7 X117.478 Y123.701 E6.29088
G0 F6000 X117.819 Y123.476
G1 F1097.7 X117.118 Y122.775 E6.33704
G0 F6000 X117.41 Y122.502
G1 F1097.7 X118.093 Y123.184 E6.38198
G0 F6000 X118.25 Y122.775
G1 F1097.7 X117.651 Y122.176 E6.42143
G0 F6000 X117.87 Y121.83
G1 F1097.7 X118.315 Y122.275 E6.45073
G0 F6000 X118.326 Y121.72
G1 F1097.7 X118.071 Y121.465 E6.46753
G0 F6000 X118.308 Y121.136
G1 F1097.7 X118.213 Y121.041 E6.47378
G1 F2700 E1.47378
;MESH:NONMESH
G0 F300 X118.213 Y121.041 Z0.56
G0 F6000 X117.781 Y120.893
G0 X117.567 Y119.069
G0 X117.302 Y118.328
G0 X116.817 Y117.614
G0 X116.493 Y117.287
G0 X115.717 Y116.809
G0 X115.235 Y116.625
G0 X114.286 Y116.512
G0 X112.762 Y116.718
G0 X112.317 Y115.729
G0 X110.437 Y111.856
G0 X109.392 Y111.926
;TIME_ELAPSED:18.122595
;LAYER:1
M106 S85
;TYPE:WALL-INNER
;MESH:Dickbutt_with_cavity.stl
G1 F2700 E6.47378
G1 F1027.7 X109.353 Y111.506 E6.49882
G1 F1401.4 X109.185 Y111.178 E6.51487
G1 F1326.8 X108.834 Y110.574 E6.54699
G1 F1337 X108.464 Y110.747 E6.56563
G1 F1412.7 X109.039 Y111.681 E6.613
G1 F1027.7 X109.392 Y111.926 E6.63851
G1 F2700 E1.63851
G0 F7500 X110.327 Y113.515
G1 F2700 E6.63851
G0 F7500 X110.588 Y113.987
;TYPE:WALL-OUTER
G1 F1310.3 X110.632 Y113.929 E6.6419
G1 X110.618 Y113.859 E6.64522
G1 X110.565 Y113.467 E6.66364
G1 X110.435 Y113.101 E6.68173
G1 X110.322 Y112.733 E6.69965
G1 X110.044 Y112.088 E6.73236
G1 X109.97 Y111.896 E6.74194
G1 X109.763 Y111.488 E6.76324
G1 X109.532 Y110.991 E6.78876
G1 X109.344 Y110.645 E6.8071
G1 X109.117 Y110.267 E6.82763
G1 X108.912 Y110.095 E6.84009
G1 X107.969 Y110.534 E6.88852
G1 X108.013 Y110.714 E6.89715
G1 X108.238 Y111.144 E6.91975
G1 X108.391 Y111.396 E6.93348
G1 F1313.5 X108.898 Y112.152 E6.97576
G1 X109.249 Y112.61 E7.00256
G1 F1310.3 X109.495 Y112.948 E7.02203
G1 X110.202 Y113.727 E7.07101
G1 X110.588 Y113.987 E7.09268
G0 F7500 X110.327 Y113.515
G0 X109.633 Y112.332
;TYPE:WALL-INNER
G1 F895.9 X109.504 Y112.104 E7.11052
G1 F818.9 X109.392 Y111.926 E7.12619
G1 F2700 E2.12619
G0 F7500 X109.843 Y112.172
G0 X110.842 Y111.75
G0 X117.714 Y112.837
G0 X119.573 Y111.995
G1 F2700 E7.12619
G1 F1027.7 X119.92 Y111.754 E7.15127
G1 F1408.9 X120.085 Y111.505 E7.16421
G1 F1337 X120.418 Y110.944 E7.19398
G1 F1307 X120.52 Y110.758 E7.20388
G1 F1310.3 X120.161 Y110.59 E7.22234
G1 X119.934 Y110.976 E7.24319
G1 F1379.2 X119.613 Y111.566 E7.2729
G1 F1027.7 X119.573 Y111.995 E7.29848
G1 F2700 E2.29848
G0 F7500 X118.634 Y113.589
G1 F2700 E7.29848
G0 F7500 X118.343 Y114.051
;TYPE:WALL-OUTER
G1 F1310.3 X118.725 Y113.814 E7.31941
G1 X119.392 Y113.103 E7.36481
G1 X119.669 Y112.738 E7.38614
G1 X119.952 Y112.382 E7.40732
G1 F1313.5 X120.184 Y112.038 E7.42659
G1 X120.408 Y111.73 E7.44428
G1 F1310.3 X120.747 Y111.179 E7.47441
G1 X120.979 Y110.75 E7.49712
G1 X121.031 Y110.564 E7.50611
G1 X121.015 Y110.547 E7.5072
G1 X120.101 Y110.121 E7.55415
G1 X119.965 Y110.186 E7.56117
G1 X119.767 Y110.471 E7.57733
G1 X119.585 Y110.777 E7.59391
G1 F1313.5 X119.182 Y111.573 E7.63535
G1 X118.855 Y112.285 E7.67174
G1 F1310.3 X118.557 Y113.035 E7.70932
G1 X118.518 Y113.186 E7.71658
G1 X118.37 Y113.673 E7.74028
G1 X118.343 Y114.051 E7.75793
G0 F7500 X118.634 Y113.589
G0 X119.291 Y112.459
;TYPE:WALL-INNER
G1 F873.5 X119.573 Y111.995 E7.79585
G1 F2700 E2.79585
G0 F7500 X118.618 Y113.606
G0 X117.506 Y113.684
G0 X116.633 Y115.007
G0 X114.052 Y123.477
G1 F2700 E7.79585
G1 F1354.3 X113.602 Y123.371 E7.81668
G1 F1310.3 X113.139 Y123.2 E7.83966
G1 X112.678 Y122.952 E7.86404
G1 X112.211 Y122.608 E7.89105
G1 X111.742 Y122.098 E7.92331
G1 X111.441 Y121.598 E7.95049
G1 X111.26 Y121.204 E7.97067
G1 X111.139 Y120.759 E7.99215
G1 X111.069 Y120.34 E8.01193
G1 X111.066 Y119.885 E8.03312
G1 X111.115 Y119.424 E8.0547
G1 X111.181 Y119.131 E8.06869
G1 X111.369 Y118.594 E8.09518
G1 X111.525 Y118.272 E8.11184
G1 X111.69 Y118.005 E8.12646
G1 F1281.4 X111.695 Y117.982 E8.12758
G1 F1015.7 X111.869 Y117.59 E8.15334
G1 F835.9 X112.517 Y117.005 E8.21706
G1 F870.6 X112.894 Y116.833 E8.2461
G1 F944.3 X113.251 Y116.684 E8.27109
G1 F959.9 X113.644 Y116.56 E8.29729
G1 F963.4 X114.153 Y116.478 E8.32993
G1 F968.8 X114.501 Y116.466 E8.35186
G1 X114.993 Y116.495 E8.3829
G1 F963.4 X115.424 Y116.594 E8.41091
G1 F958.1 X115.758 Y116.71 E8.43342
G1 F917.9 X116.158 Y116.871 E8.46208
G1 F853.6 X116.431 Y117 E8.48366
G1 F856.4 X116.684 Y117.2 E8.50664
G1 F908.3 X117.12 Y117.599 E8.54634
G1 F916.3 X117.338 Y117.866 E8.56929
G1 F899 X117.587 Y118.198 E8.59746
G1 F1063.1 X117.678 Y118.616 E8.62201
G1 F1310.3 X117.754 Y118.783 E8.63055
G1 X117.879 Y119.184 E8.65011
G1 X117.955 Y119.603 E8.66994
G1 X117.978 Y120.091 E8.69269
G1 X117.943 Y120.534 E8.71338
G1 X117.858 Y120.947 E8.73301
G1 X117.771 Y121.223 E8.74649
G1 X117.638 Y121.546 E8.76275
G1 X117.467 Y121.864 E8.77957
G1 X117.167 Y122.302 E8.80429
G1 X116.737 Y122.738 E8.8328
G1 X116.337 Y123.008 E8.85527
G1 X115.991 Y123.192 E8.87352
G1 X115.727 Y123.3 E8.8868
G1 X115.254 Y123.44 E8.90977
G1 F1354.3 X114.973 Y123.489 E8.92262
G1 F1451.8 X114.435 Y123.475 E8.94524
G1 X114.052 Y123.477 E8.96133
G0 F7500 X114.108 Y123.079
;TYPE:WALL-OUTER
G1 F1310.3 X113.711 Y122.986 E8.98032
G1 X113.265 Y122.818 E9.00251
G1 X112.87 Y122.6 E9.02352
G1 X112.475 Y122.308 E9.04639
G1 X112.073 Y121.871 E9.07404
G1 X111.815 Y121.451 E9.09699
G1 X111.644 Y121.08 E9.11602
G1 X111.528 Y120.663 E9.13617
G1 X111.47 Y120.304 E9.1531
G1 X111.464 Y119.925 E9.17075
G1 X111.51 Y119.489 E9.19117
G1 X111.576 Y119.206 E9.2047
G1 X111.738 Y118.75 E9.22723
G1 X111.867 Y118.48 E9.24117
G1 X112.02 Y118.23 E9.25481
G1 X112.292 Y117.873 E9.27571
G1 X112.765 Y117.466 E9.30477
G1 X113.146 Y117.245 E9.32528
G1 X113.411 Y117.13 E9.33873
G1 X113.748 Y117.022 E9.35521
G1 X114.16 Y116.951 E9.37468
G1 X114.525 Y116.936 E9.39169
G1 X114.92 Y116.962 E9.41012
G1 X115.303 Y117.053 E9.42845
G1 X115.585 Y117.153 E9.44238
G1 X115.915 Y117.304 E9.45928
G1 X116.174 Y117.45 E9.47312
G1 X116.402 Y117.608 E9.48604
G1 X116.768 Y117.93 E9.50874
G1 X117.064 Y118.312 E9.53124
G1 X117.25 Y118.638 E9.54872
G1 X117.378 Y118.925 E9.56335
G1 X117.491 Y119.284 E9.58088
G1 X117.559 Y119.661 E9.59872
G1 X117.578 Y120.108 E9.61955
G1 X117.545 Y120.498 E9.63777
G1 X117.476 Y120.827 E9.65343
G1 X117.383 Y121.12 E9.66774
G1 X117.26 Y121.409 E9.68237
G1 X117.1 Y121.696 E9.69767
G1 X116.866 Y122.035 E9.71685
G1 X116.475 Y122.436 E9.74293
G1 X116.123 Y122.67 E9.76261
G1 X115.838 Y122.822 E9.77765
G1 X115.58 Y122.927 E9.79062
G1 X115.184 Y123.046 E9.80987
G1 X114.933 Y123.09 E9.82174
G1 X114.553 Y123.109 E9.83945
G1 X114.108 Y123.079 E9.86022
G0 F7500 X113.983 Y123.565
G0 X113.217 Y124.475
G0 X112.201 Y124.747
G0 X112.201 Y124.864
;TYPE:WALL-INNER
G1 F1310.3 X112.792 Y124.788 E9.88797
G1 X113.125 Y124.702 E9.90398
G1 X113.438 Y124.545 E9.92029
G1 X113.842 Y124.043 E9.95029
G1 X114.054 Y123.888 E9.96252
G1 F1382.9 X114.379 Y123.825 E9.97713
G1 F1424.2 X114.764 Y123.859 E9.99369
G1 F1347.3 X114.977 Y123.95 E10.00417
G1 F1310.3 X115.181 Y124.104 E10.01608
G1 X115.37 Y124.404 E10.03259
G1 X115.66 Y124.651 E10.05032
G1 X116.14 Y124.803 E10.07377
G1 X116.529 Y124.851 E10.09202
G1 X117.005 Y124.837 E10.11419
G1 X117.483 Y124.724 E10.13706
G1 X117.718 Y124.634 E10.14878
G1 X117.956 Y124.519 E10.16109
G1 X118.19 Y124.385 E10.17365
G1 X118.418 Y124.231 E10.18646
G1 X118.626 Y124.062 E10.19894
G1 X118.805 Y123.881 E10.21079
G1 X118.957 Y123.681 E10.22249
G1 X119.149 Y123.366 E10.23967
G1 X119.257 Y122.98 E10.25833
G1 X119.336 Y122.59 E10.27686
G1 X119.38 Y122.05 E10.30209
G1 X119.393 Y121.725 E10.31723
G1 X119.389 Y121.306 E10.33674
G1 X119.353 Y120.707 E10.36469
G1 X119.309 Y120.387 E10.37973
G1 X119.216 Y120.068 E10.3952
G1 X118.965 Y119.337 E10.43119
G1 X118.83 Y118.991 E10.44848
G1 X118.69 Y118.682 E10.46428
G1 X118.425 Y118.238 E10.48836
G1 F1056.7 X118.107 Y117.942 E10.51344
G1 F889.8 X118.008 Y117.787 E10.52605
G1 F899 X117.789 Y117.5 E10.55055
G1 F914.7 X117.497 Y117.178 E10.57955
G1 F919.5 X117.199 Y116.897 E10.60672
G1 F903.6 X117.136 Y116.822 E10.61334
G1 F860.6 X116.86 Y116.555 E10.64056
G1 F826.7 X116.778 Y116.403 E10.65331
G1 F829.3 X116.552 Y116.4 E10.66994
G1 F880.8 X116.162 Y116.279 E10.69822
G1 F944.3 X115.656 Y116.084 E10.73325
G1 F956.4 X115.197 Y115.98 E10.76328
G1 F958.1 X114.945 Y115.94 E10.77953
G1 F963.4 X114.57 Y115.926 E10.80329
G1 F967 X114.201 Y115.933 E10.82658
G1 F961.7 X113.942 Y115.952 E10.84305
G1 F956.4 X113.679 Y115.996 E10.86006
G1 X113.41 Y116.056 E10.87764
G1 F958.1 X113.072 Y116.17 E10.90036
G1 F942.6 X112.622 Y116.339 E10.93147
G1 F869.2 X112.363 Y116.413 E10.95038
G1 F818.9 X112.205 Y116.386 E10.96232
G1 F838.6 X112.058 Y116.602 E10.98133
G1 F879.4 X111.546 Y117.101 E11.03093
G1 F894.4 X111.402 Y117.253 E11.04522
G1 F1009.8 X111.025 Y117.514 E11.07292
G1 F1239 X110.594 Y118.134 E11.1101
G1 F1310.3 X110.399 Y118.435 E11.1268
G1 X110.25 Y118.703 E11.14108
G1 X110.119 Y119.001 E11.15624
G1 X109.701 Y120.183 E11.21462
G1 X109.632 Y120.539 E11.2315
G1 X109.571 Y121.145 E11.25986
G1 X109.577 Y121.972 E11.29837
G1 X109.603 Y122.481 E11.3221
G1 X109.673 Y122.902 E11.34198
G1 X109.82 Y123.369 E11.36477
G1 X110.121 Y123.856 E11.39143
G1 X110.433 Y124.133 E11.41086
G1 X110.654 Y124.298 E11.4237
G1 X110.884 Y124.442 E11.43634
G1 X111.121 Y124.571 E11.4489
G1 X111.355 Y124.674 E11.46081
G1 X111.72 Y124.795 E11.47871
G1 X112.201 Y124.864 E11.50134
G1 F2700 E6.50134
G0 F7500 X112.201 Y124.747
G0 X113.583 Y124.625
G0 X114.046 Y124.048
G0 X114.511 Y123.944
G0 X116.037 Y124.666
G1 F2700 E11.50134
G0 F7500 X115.937 Y125.159
;TYPE:WALL-OUTER
G1 F1310.3 X116.212 Y125.216 E11.51442
G1 X116.501 Y125.251 E11.52797
G1 X116.783 Y125.257 E11.54111
G1 X117.06 Y125.234 E11.55405
G1 X117.336 Y125.181 E11.56714
G1 X117.609 Y125.104 E11.58034
G1 X117.877 Y125.002 E11.5937
G1 X118.143 Y124.873 E11.60746
G1 X118.402 Y124.725 E11.62135
G1 X118.656 Y124.553 E11.63564
G1 X118.895 Y124.359 E11.64997
G1 X119.108 Y124.144 E11.66406
G1 X119.288 Y123.907 E11.67792
G1 X119.446 Y123.649 E11.69201
G1 X119.562 Y123.374 E11.70591
G1 X119.647 Y123.074 E11.72042
G1 X119.733 Y122.638 E11.74112
G1 X119.779 Y122.093 E11.76659
G1 X119.793 Y121.752 E11.78248
G1 X119.789 Y121.302 E11.80343
G1 X119.751 Y120.668 E11.83301
G1 X119.701 Y120.303 E11.85016
G1 X119.604 Y119.968 E11.8664
G1 X119.345 Y119.21 E11.9037
G1 X119.195 Y118.827 E11.92285
G1 X119.046 Y118.498 E11.93967
G1 X118.853 Y118.172 E11.95731
G1 X118.409 Y117.499 E11.99485
G1 X118.184 Y117.209 E12.01195
G1 X117.821 Y116.82 E12.03672
G1 X117.582 Y116.594 E12.05204
G1 X117.507 Y116.498 E12.05771
G1 X117.299 Y116.281 E12.07171
G1 X117.147 Y115.977 E12.08753
G1 X117.014 Y115.782 E12.09852
G1 X116.723 Y115.91 E12.11333
G1 X116.282 Y115.814 E12.13434
G1 X115.863 Y115.653 E12.15524
G1 X115.568 Y115.575 E12.16945
G1 X115.276 Y115.513 E12.18335
G1 X114.993 Y115.469 E12.19669
G1 X114.706 Y115.456 E12.21007
G1 X114.173 Y115.463 E12.23489
G1 X113.904 Y115.48 E12.24744
G1 X113.599 Y115.527 E12.26181
G1 X113.28 Y115.599 E12.27703
G1 X112.402 Y115.904 E12.32031
G1 X112.113 Y115.808 E12.33449
G1 X111.818 Y115.967 E12.3501
G1 X111.767 Y116.109 E12.35712
G1 X111.601 Y116.344 E12.37052
G1 X110.982 Y116.974 E12.41165
G1 X110.804 Y117.172 E12.42405
G1 X110.608 Y117.412 E12.43847
G1 X110.236 Y117.952 E12.46901
G1 X110.057 Y118.228 E12.48433
G1 X109.891 Y118.525 E12.50017
G1 X109.748 Y118.851 E12.51675
G1 X109.313 Y120.082 E12.57754
G1 X109.236 Y120.478 E12.59632
G1 X109.171 Y121.13 E12.62683
G1 X109.177 Y121.992 E12.66697
G1 X109.198 Y122.395 E12.68576
G1 X109.227 Y122.662 E12.69827
G1 X109.281 Y122.986 E12.71357
G1 X109.351 Y123.255 E12.72651
G1 X109.455 Y123.534 E12.74037
G1 X109.589 Y123.784 E12.75358
G1 X109.756 Y124.022 E12.76712
G1 X109.953 Y124.241 E12.78084
G1 X110.18 Y124.443 E12.79498
G1 X110.427 Y124.628 E12.80935
G1 X110.682 Y124.788 E12.82337
G1 X110.945 Y124.931 E12.83731
G1 X111.212 Y125.048 E12.85089
G1 X111.484 Y125.138 E12.86423
G1 X111.759 Y125.204 E12.87739
G1 X112.038 Y125.244 E12.89052
G1 X112.318 Y125.25 E12.90356
G1 X112.596 Y125.229 E12.91654
G1 X112.877 Y125.18 E12.92982
G1 X113.266 Y125.078 E12.94855
G1 X113.694 Y124.865 E12.97081
G1 X114.176 Y124.265 E13.00665
G1 X114.534 Y124.18 E13.02378
G1 X114.861 Y124.344 E13.04082
G1 X115.107 Y124.74 E13.06252
G1 X115.402 Y124.951 E13.07941
G1 X115.64 Y125.064 E13.09168
G1 X115.937 Y125.159 E13.1062
G0 F7500 X115.79 Y124.29
;TYPE:SKIN
G1 F1310.3 X116.129 Y124.421 E13.12312
G1 X116.554 Y124.49 E13.14317
G1 X116.955 Y124.479 E13.16185
G1 X117.359 Y124.384 E13.18118
G1 X117.788 Y124.201 E13.20289
G1 X118.202 Y123.941 E13.22566
G1 X118.488 Y123.708 E13.24283
G1 X118.814 Y123.231 E13.26974
G1 X118.912 Y122.863 E13.28747
G1 X118.977 Y122.537 E13.30295
G1 X119.02 Y122.046 E13.3259
G1 X119.033 Y121.728 E13.34072
G1 X119.03 Y121.326 E13.35944
G1 X118.996 Y120.757 E13.38598
G1 X118.957 Y120.476 E13.39919
G1 X118.873 Y120.179 E13.41356
G1 F1368.4 X118.642 Y119.45 E13.44766
G1 F1146.8 X118.432 Y119.161 E13.46666
G1 F1004 X118.332 Y119.053 E13.47561
G1 F1213.2 X118.293 Y119.546 E13.50048
G1 F1368.4 X118.341 Y120.154 E13.52767
G1 F1310.3 X118.282 Y120.7 E13.55324
G1 X118.207 Y121.038 E13.56936
G1 X118.111 Y121.345 E13.58434
G1 X117.973 Y121.683 E13.60134
G1 X117.784 Y122.036 E13.61999
G1 X117.439 Y122.54 E13.64843
G1 X116.958 Y123.028 E13.68033
G1 X116.47 Y123.347 E13.70748
G1 X116.201 Y123.492 E13.72171
G1 X115.835 Y123.645 E13.74018
G1 X115.362 Y123.784 E13.76314
G1 X115.645 Y124.167 E13.78531
G1 X115.79 Y124.29 E13.79416
G0 F7500 X115.678 Y124.528
G0 X114.563 Y123.647
G0 X116.448 Y123.172
G0 X116.625 Y122.622
G0 X117.044 Y122.195
G0 X117.479 Y121.504
G0 X117.78 Y120.545
G0 X118.163 Y120.325
G0 X117.773 Y118.331
G0 X118.342 Y119.063
G1 F845.3 X118.278 Y118.899 E13.80687
G1 F917.9 X118.157 Y118.628 E13.8266
G1 F1000.2 X118.083 Y118.495 E13.83588
G0 F7500 X117.77 Y118.424
G0 X117.654 Y117.763
G0 X118.267 Y118.303
G0 X118.506 Y118.738
G0 X119.067 Y119.94
G0 X118.629 Y120.089
G1 F1310.3 X118.54 Y120.179 E13.84178
G0 F7500 X118.762 Y120.522
G1 F1310.3 X118.458 Y120.826 E13.86179
G0 F7500 X118.812 Y121.038
G1 F1310.3 X118.204 Y121.645 E13.9018
G0 F7500 X118.831 Y121.584
G1 F1310.3 X116.188 Y124.227 E14.07585
G0 F7500 X115.818 Y124.032
G1 F1310.3 X116.101 Y123.748 E14.09451
G0 F7500 X116.696 Y124.285
G1 F1310.3 X118.806 Y122.175 E14.23346
G0 F7500 X118.712 Y122.835
G1 F1310.3 X117.373 Y124.174 E14.32164
G0 F7500 X117.536 Y124.597
G0 X116.504 Y124.686
G0 X115.243 Y124.505
G0 X115.02 Y124.153
G0 X114.563 Y123.932
G0 X114.046 Y124.048
G0 X113.617 Y124.57
G0 X111.984 Y124.731
G0 X112.02 Y124.484
G1 F1310.3 X112.422 Y124.487 E14.34036
G1 X112.714 Y124.436 E14.35416
G1 X112.995 Y124.363 E14.36768
G1 X113.224 Y124.233 E14.37994
G1 X113.611 Y123.753 E14.40865
G1 X112.945 Y123.511 E14.44165
G1 X112.477 Y123.25 E14.4666
G1 X111.953 Y122.867 E14.49682
G1 X111.466 Y122.335 E14.5304
G1 X111.154 Y121.83 E14.55805
G1 X110.914 Y121.311 E14.58467
G1 X110.798 Y120.885 E14.60523
G1 X110.715 Y120.398 E14.62823
G1 X110.707 Y119.846 E14.65394
G1 F1323.5 X110.764 Y119.371 E14.67599
G1 F1397.6 X110.848 Y119.065 E14.68985
G1 F1337 X110.93 Y118.715 E14.70625
G1 F1027.7 X110.942 Y118.434 E14.72295
G1 X110.726 Y118.622 E14.73995
G1 F1347.3 X110.565 Y118.822 E14.75157
G1 F1416.5 X110.395 Y119.267 E14.77209
G1 F1326.8 X110.057 Y120.253 E14.82002
G1 F1310.3 X109.988 Y120.596 E14.83631
G1 X109.931 Y121.162 E14.8628
G1 X109.936 Y121.933 E14.8987
G1 X109.955 Y122.309 E14.91623
G1 X110.002 Y122.746 E14.9367
G1 X110.151 Y123.219 E14.95979
G1 X110.356 Y123.551 E14.97796
G1 X110.554 Y123.773 E14.99181
G1 X110.859 Y124.001 E15.00954
G1 X111.197 Y124.211 E15.02807
G1 X111.6 Y124.384 E15.04849
G1 X112.02 Y124.484 E15.0686
G0 F7500 X111.984 Y124.731
G0 X113.068 Y124.551
G0 X113.417 Y124.314
G0 X114.145 Y123.669
G0 X111.401 Y121.901
G0 X111.125 Y118.796
G0 X111.58 Y117.8
G0 X111.875 Y117.16
G0 X111.175 Y117.644
G0 X110.648 Y118.237
G0 X110.942 Y118.434
G1 F930.9 X111.119 Y118.124 E15.09199
G1 F1006 X111.312 Y117.827 E15.11348
G0 F7500 X111.661 Y117.704
G0 X110.977 Y119.759
G0 X110.52 Y119.713
G1 F1310.3 X110.422 Y119.811 E15.11993
G0 F7500 X110.515 Y120.284
G1 F1310.3 X110.189 Y120.61 E15.1414
G0 F7500 X110.578 Y120.786
G1 F1310.3 X110.131 Y121.233 E15.17083
G0 F7500 X110.687 Y121.243
G1 F1310.3 X110.135 Y121.795 E15.20718
G0 F7500 X110.156 Y122.34
G1 F1310.3 X110.85 Y121.646 E15.25288
G0 F7500 X111.038 Y122.024
G1 F1310.3 X110.237 Y122.825 E15.30563
G0 F7500 X110.395 Y123.232
G1 F1310.3 X111.251 Y122.376 E15.362
G0 F7500 X111.512 Y122.68
G1 F1310.3 X110.633 Y123.56 E15.41992
G0 F7500 X110.944 Y123.815
G1 F1310.3 X111.784 Y122.975 E15.47523
G0 F7500 X112.101 Y123.223
G1 F1310.3 X111.298 Y124.026 E15.52811
G0 F7500 X111.691 Y124.199
G1 F1310.3 X112.437 Y123.453 E15.57724
G0 F7500 X112.801 Y123.654
G1 F1310.3 X112.171 Y124.284 E15.61872
G0 F7500 X112.821 Y124.2
G1 F1310.3 X113.203 Y123.818 E15.64388
G1 F2700 E10.64388
;MESH:NONMESH
G0 F300 X113.203 Y123.818 Z0.84
G0 F7500 X113.364 Y123.392
G0 X112.314 Y122.487
G0 X111.867 Y121.998
G0 X111.412 Y121.147
G0 X111.23 Y120.323
G0 X111.263 Y119.629
G0 X111.996 Y116.116
G0 X110.996 Y114.634
;TIME_ELAPSED:35.401706
;LAYER:2
M106 S170
;TYPE:WALL-INNER
;MESH:Dickbutt_with_cavity.stl
G1 F2700 E15.64388
G1 F1477.8 X110.973 Y114.557 E15.64768
G1 X110.847 Y114.258 E15.66301
G1 X110.757 Y114.012 E15.67539
G1 X110.484 Y113.425 E15.70599
G1 X110.413 Y113.255 E15.7147
G1 F1428.6 X110.19 Y112.859 E15.73692
G1 F1330.4 X109.891 Y112.3 E15.7702
G1 F1250 X109.347 Y111.352 E15.83127
G1 F1232 X108.842 Y110.532 E15.88587
G1 F1257.9 X108.43 Y110.725 E15.91113
G1 F1250 X108.775 Y111.355 E15.95127
G1 F1237.1 X109.287 Y112.222 E16.00811
G1 F1265.8 X109.509 Y112.568 E16.0308
G1 F1339.3 X109.88 Y113.183 E16.06826
G1 F1435.4 X110.062 Y113.452 E16.08406
G1 F1477.8 X110.761 Y114.411 E16.14015
G1 X110.996 Y114.634 E16.15546
G1 F2700 E11.15546
G0 F9000 X111.422 Y115.258
G0 X112.01 Y115.279
G0 X117.967 Y114.712
G1 F2700 E16.15546
G1 F1481.5 X118.083 Y114.599 E16.16309
G1 X118.912 Y113.516 E16.22739
G1 F1363.6 X119.534 Y112.529 E16.28715
G1 F1252.6 X119.77 Y112.126 E16.31319
G1 F1234.6 X120.013 Y111.736 E16.33919
G1 F1255.2 X120.572 Y110.741 E16.40269
G1 F1287.6 X120.17 Y110.552 E16.42679
G1 F1279.3 X119.992 Y110.805 E16.44368
G1 F1247.4 X119.776 Y111.157 E16.4668
G1 F1224.5 X119.589 Y111.493 E16.48874
G1 F1234.6 X119.289 Y111.991 E16.52163
G1 F1290.3 X118.832 Y112.801 E16.57197
G1 F1408.5 X118.563 Y113.312 E16.60061
G1 F1481.5 X118.391 Y113.657 E16.61879
G1 X118.208 Y114.096 E16.64121
G1 X118.097 Y114.334 E16.65359
G1 X117.967 Y114.712 E16.67244
G1 F2700 E11.67244
G0 F9000 X117.575 Y115.587
G0 X118.341 Y117.952
G0 X119.009 Y119.232
G0 X119.486 Y120.708
G0 X119.543 Y122.124
G0 X119.407 Y123.089
G0 X119.096 Y123.745
G0 X118.499 Y124.35
G0 X117.597 Y124.841
G0 X116.77 Y125.011
G0 X115.916 Y124.874
G0 X115.586 Y124.721
G0 X114.739 Y123.91
G0 X114.704 Y123.454
G0 X114.744 Y123.258
G1 F2700 E16.67244
G1 F1500 X114.137 Y123.24 E16.70071
G1 X113.654 Y123.157 E16.72353
G1 X113.295 Y123.044 E16.74106
G1 X112.833 Y122.833 E16.76471
G1 X112.359 Y122.529 E16.79093
G1 X111.882 Y122.053 E16.82231
G1 X111.568 Y121.612 E16.84752
G1 X111.289 Y121.115 E16.87406
G1 X111.124 Y120.594 E16.8995
G1 X111.039 Y120.06 E16.92468
G1 X111.026 Y119.713 E16.94085
G1 X111.059 Y119.281 E16.96102
G1 X111.124 Y118.942 E16.9771
G1 X111.268 Y118.489 E16.99923
G1 X111.461 Y118.08 E17.02029
G1 X111.644 Y117.787 E17.03638
G1 X111.847 Y117.519 E17.05203
G1 X112.216 Y117.128 E17.07706
G1 X112.647 Y116.817 E17.10181
G1 X112.962 Y116.635 E17.11875
G1 X113.441 Y116.426 E17.14309
G1 X113.927 Y116.306 E17.1664
G1 X114.357 Y116.269 E17.18649
G1 X114.814 Y116.285 E17.20779
G1 X115.369 Y116.37 E17.23393
G1 X115.819 Y116.527 E17.25612
G1 X116.272 Y116.766 E17.27997
G1 X116.56 Y116.966 E17.2963
G1 X116.824 Y117.194 E17.31254
G1 X117.068 Y117.445 E17.32884
G1 X117.275 Y117.702 E17.34421
G1 X117.535 Y118.095 E17.36615
G1 X117.742 Y118.591 E17.39118
G1 X117.874 Y119.065 E17.41409
G1 X117.933 Y119.496 E17.43435
G1 X117.941 Y119.904 E17.45335
G1 X117.917 Y120.186 E17.46653
G1 X117.862 Y120.515 E17.48206
G1 X117.771 Y120.844 E17.49795
G1 X117.575 Y121.334 E17.52253
G1 X117.288 Y121.786 E17.54746
G1 X117.022 Y122.116 E17.5672
G1 X116.524 Y122.566 E17.59845
G1 X116.094 Y122.838 E17.62214
G1 X115.662 Y123.038 E17.64431
G1 X115.242 Y123.167 E17.66477
G1 X114.744 Y123.258 E17.68834
G0 F9000 X114.731 Y122.853
;TYPE:WALL-OUTER
G1 F1500 X114.219 Y122.846 E17.71218
G1 X113.794 Y122.779 E17.73222
G1 X113.483 Y122.688 E17.74731
G1 X113.031 Y122.485 E17.77038
G1 X112.607 Y122.211 E17.79388
G1 X112.173 Y121.776 E17.8225
G1 X111.899 Y121.387 E17.84465
G1 X111.653 Y120.938 E17.86849
G1 X111.511 Y120.485 E17.8906
G1 X111.441 Y120.071 E17.91015
G1 X111.426 Y119.671 E17.92879
G1 X111.458 Y119.317 E17.94534
G1 X111.522 Y118.997 E17.96053
G1 X111.641 Y118.636 E17.97823
G1 X111.791 Y118.311 E17.9949
G1 X111.964 Y118.027 E18.01039
G1 X112.153 Y117.778 E18.02494
G1 X112.471 Y117.441 E18.04652
G1 X112.851 Y117.161 E18.0685
G1 X113.124 Y117.001 E18.08323
G1 X113.574 Y116.804 E18.10611
G1 X114.004 Y116.701 E18.12669
G1 X114.391 Y116.668 E18.14478
G1 X114.732 Y116.679 E18.16067
G1 X115.261 Y116.757 E18.18557
G1 X115.649 Y116.892 E18.20469
G1 X116.028 Y117.086 E18.22452
G1 X116.302 Y117.272 E18.23994
G1 X116.538 Y117.474 E18.25441
G1 X116.743 Y117.682 E18.268
G1 X116.948 Y117.934 E18.28313
G1 X117.174 Y118.278 E18.3023
G1 X117.368 Y118.735 E18.32541
G1 X117.486 Y119.169 E18.34636
G1 X117.537 Y119.569 E18.36513
G1 X117.542 Y119.871 E18.3792
G1 X117.519 Y120.151 E18.39228
G1 X117.462 Y120.471 E18.40741
G1 X117.387 Y120.733 E18.4201
G1 X117.225 Y121.134 E18.44024
G1 X116.976 Y121.535 E18.46222
G1 X116.72 Y121.854 E18.48127
G1 X116.281 Y122.245 E18.50864
G1 X115.901 Y122.487 E18.52962
G1 X115.523 Y122.662 E18.54902
G1 X115.17 Y122.773 E18.56625
G1 X114.731 Y122.853 E18.58702
G1 F2700 E13.58702
G0 F9000 X114.919 Y123.328
G0 X115.802 Y123.173
G0 X116.77 Y124.972
G0 X117.21 Y125.13
;TYPE:WALL-INNER
G1 F2700 E18.58702
G1 F1500 X117.603 Y125.011 E18.60614
G1 X117.876 Y124.9 E18.61987
G1 X118.127 Y124.777 E18.63288
G1 X118.387 Y124.624 E18.64693
G1 X118.634 Y124.45 E18.661
G1 X118.862 Y124.263 E18.67473
G1 X119.058 Y124.061 E18.68784
G1 X119.228 Y123.838 E18.70089
G1 X119.379 Y123.602 E18.71394
G1 X119.495 Y123.353 E18.72673
G1 X119.578 Y123.081 E18.73997
G1 X119.643 Y122.776 E18.75449
G1 X119.683 Y122.452 E18.76969
G1 X119.706 Y122.109 E18.7857
G1 X119.714 Y121.738 E18.80298
G1 X119.707 Y121.374 E18.81993
G1 X119.689 Y121.031 E18.83593
G1 X119.645 Y120.681 E18.85235
G1 X119.573 Y120.338 E18.86867
G1 X119.456 Y119.979 E18.88625
G1 X119.194 Y119.257 E18.92202
G1 X119.053 Y118.919 E18.93907
G1 X118.9 Y118.594 E18.9558
G1 X118.736 Y118.298 E18.97156
G1 X118.47 Y117.856 E18.99558
G1 X118.192 Y117.424 E19.0195
G1 X117.777 Y116.829 E19.05328
G1 X117.632 Y116.377 E19.07538
G1 X117.631 Y116.002 E19.09284
G1 X117.493 Y115.749 E19.10626
G1 X117.478 Y115.41 E19.12206
G1 X117.035 Y115.486 E19.14299
G1 X116.824 Y115.435 E19.1531
G1 X116.484 Y115.624 E19.17121
G1 X116.092 Y115.678 E19.18964
G1 X115.417 Y115.478 E19.22242
G1 X114.967 Y115.423 E19.24353
G1 X114.382 Y115.409 E19.27078
G1 X113.825 Y115.436 E19.29674
G1 X113.456 Y115.508 E19.31425
G1 X113.176 Y115.588 E19.32781
G1 X112.766 Y115.668 E19.34726
G1 X112.519 Y115.639 E19.35884
G1 X112.187 Y115.426 E19.37721
G1 X112.025 Y115.458 E19.3849
G1 X111.729 Y115.474 E19.3987
G1 X111.549 Y115.444 E19.4072
G1 X111.52 Y115.625 E19.41573
G1 X111.343 Y115.983 E19.43433
G1 X111.355 Y116.108 E19.44018
G1 X111.348 Y116.498 E19.45834
G1 X111.168 Y116.878 E19.47792
G1 X110.876 Y117.269 E19.50064
G1 X110.663 Y117.58 E19.51819
G1 X110.357 Y118.06 E19.5447
G1 X110.194 Y118.337 E19.55967
G1 X110.022 Y118.653 E19.57642
G1 X109.912 Y118.882 E19.58825
G1 X109.76 Y119.249 E19.60675
G1 X109.418 Y120.216 E19.65451
G1 X109.339 Y120.52 E19.66913
G1 X109.291 Y120.832 E19.68383
G1 X109.261 Y121.154 E19.69889
G1 X109.237 Y121.816 E19.72974
G1 X109.246 Y122.11 E19.74343
G1 X109.27 Y122.444 E19.75902
G1 X109.307 Y122.738 E19.77282
G1 X109.364 Y123.023 E19.78636
G1 X109.434 Y123.273 E19.79844
G1 X109.529 Y123.508 E19.81025
G1 X109.662 Y123.728 E19.82222
G1 X109.823 Y123.955 E19.83518
G1 X110.003 Y124.16 E19.84788
G1 X110.218 Y124.354 E19.86136
G1 X110.455 Y124.536 E19.87528
G1 X110.705 Y124.695 E19.88907
G1 X110.966 Y124.84 E19.90298
G1 X111.22 Y124.956 E19.91598
G1 X111.473 Y125.049 E19.92853
G1 X111.727 Y125.117 E19.94078
G1 X112.092 Y125.182 E19.95804
G1 X112.576 Y125.152 E19.98062
G1 X113.12 Y125.02 E20.00668
G1 X113.514 Y124.809 E20.0275
G1 X113.65 Y124.688 E20.03597
G1 X113.95 Y124.232 E20.06139
G1 X114.199 Y124.1 E20.07451
G1 X114.404 Y124.055 E20.08428
G1 X114.661 Y124.058 E20.09625
G1 X114.988 Y124.254 E20.114
G1 X115.203 Y124.557 E20.1313
G1 X115.4 Y124.807 E20.14613
G1 X115.67 Y124.967 E20.16074
G1 X116.07 Y125.088 E20.1802
G1 X116.332 Y125.142 E20.19266
G1 X116.594 Y125.171 E20.20493
G1 X116.845 Y125.173 E20.21662
G1 X117.21 Y125.13 E20.23373
G0 F9000 X117.186 Y125.021
G0 X116.348 Y125.042
G0 X116.27 Y125.538
;TYPE:WALL-OUTER
G1 F1500 X116.571 Y125.571 E20.24783
G1 X116.867 Y125.573 E20.26161
G1 X117.165 Y125.538 E20.27559
G1 X117.442 Y125.478 E20.28878
G1 X117.736 Y125.389 E20.30309
G1 X118.04 Y125.266 E20.31836
G1 X118.317 Y125.129 E20.33275
G1 X118.604 Y124.96 E20.34826
G1 X118.876 Y124.769 E20.36373
G1 X119.134 Y124.557 E20.37928
G1 X119.362 Y124.323 E20.39449
G1 X119.556 Y124.068 E20.40941
G1 X119.731 Y123.795 E20.42451
G1 X119.869 Y123.497 E20.4398
G1 X119.966 Y123.181 E20.4552
G1 X120.038 Y122.843 E20.47129
G1 X120.082 Y122.49 E20.48785
G1 X120.106 Y122.126 E20.50484
G1 X120.114 Y121.732 E20.52319
G1 X120.107 Y121.354 E20.54079
G1 X120.088 Y120.996 E20.55749
G1 X120.04 Y120.615 E20.57537
G1 X119.96 Y120.234 E20.5935
G1 X119.832 Y119.843 E20.61265
G1 X119.564 Y119.104 E20.64926
G1 X119.416 Y118.751 E20.66708
G1 X119.266 Y118.429 E20.68362
G1 X119.079 Y118.092 E20.70157
G1 X118.807 Y117.64 E20.72613
G1 X118.53 Y117.208 E20.75003
G1 X118.145 Y116.667 E20.78095
G1 X118.031 Y116.31 E20.7984
G1 X118.047 Y116.04 E20.81099
G1 X118.01 Y115.854 E20.81982
G1 X117.881 Y115.641 E20.83142
G1 X117.86 Y115.518 E20.83723
G1 X117.949 Y115.286 E20.8488
G1 X118.166 Y115.078 E20.86279
G1 X118.383 Y114.869 E20.87682
G1 X119.235 Y113.756 E20.94209
G1 X119.9 Y112.769 E20.99751
G1 X120.152 Y112.348 E21.02035
G1 X120.402 Y111.953 E21.04212
G1 X120.681 Y111.45 E21.06891
G1 X120.771 Y111.271 E21.07823
G1 X121.103 Y110.677 E21.10992
G1 X121.143 Y110.532 E21.11692
G1 X120.095 Y110.039 E21.17085
G1 X119.869 Y110.228 E21.18457
G1 X119.614 Y110.588 E21.20511
G1 X119.398 Y110.919 E21.22352
G1 X119.206 Y111.266 E21.24198
G1 X118.9 Y111.782 E21.26992
G1 X118.449 Y112.62 E21.31423
G1 X118.278 Y112.983 E21.33292
G1 X118.027 Y113.484 E21.35901
G1 X117.833 Y113.95 E21.38251
G1 X117.721 Y114.185 E21.39464
G1 X117.647 Y114.441 E21.40704
G1 X117.545 Y114.672 E21.4188
G1 X117.442 Y114.967 E21.43335
G1 X117.375 Y115.024 E21.43745
G1 X117.114 Y115.091 E21.44999
G1 X116.842 Y115.025 E21.46303
G1 X116.705 Y115.026 E21.46941
G1 X116.425 Y115.23 E21.48554
G1 X116.103 Y115.268 E21.50064
G1 X115.76 Y115.158 E21.51741
G1 X115.503 Y115.086 E21.52984
G1 X115.249 Y115.046 E21.54181
G1 X114.99 Y115.023 E21.55392
G1 X114.482 Y115.009 E21.57758
G1 X114.214 Y115.012 E21.59006
G1 X113.946 Y115.028 E21.60256
G1 X113.647 Y115.062 E21.61658
G1 X113.362 Y115.119 E21.63011
G1 X113.056 Y115.206 E21.64492
G1 X112.711 Y115.272 E21.66128
G1 X112.596 Y115.236 E21.66689
G1 X112.372 Y115.065 E21.68001
G1 X112.214 Y115.011 E21.68779
G1 X111.977 Y115.061 E21.69907
G1 F1481.5 X111.636 Y115.078 E21.71516
G1 F1428.6 X111.509 Y115.014 E21.72212
G1 F1432 X111.44 Y114.72 E21.73684
G1 F1488.8 X111.353 Y114.422 E21.75141
G1 F1500 X111.226 Y114.117 E21.76679
G1 X111.131 Y113.861 E21.77951
G1 X110.856 Y113.269 E21.8099
G1 X110.774 Y113.074 E21.81975
G1 X110.269 Y112.086 E21.87142
G1 X109.911 Y111.457 E21.90512
G1 X109.727 Y111.118 E21.92308
G1 X109.415 Y110.615 E21.95064
G1 X109.273 Y110.401 E21.9626
G1 X109.015 Y110.075 E21.98196
G1 X108.885 Y110.031 E21.98835
G1 X107.864 Y110.507 E22.04081
G1 X107.905 Y110.665 E22.04841
G1 X108.393 Y111.581 E22.09673
G1 X108.919 Y112.467 E22.14471
G1 X109.15 Y112.812 E22.16405
G1 X109.544 Y113.428 E22.19809
G1 X110.457 Y114.678 E22.27017
G1 F1488.8 X110.892 Y115.085 E22.29812
G1 F1432 X111.154 Y115.27 E22.31376
G1 F1428.6 X111.174 Y115.424 E22.32136
G1 F1481.5 X110.922 Y115.928 E22.34792
G1 F1500 X110.956 Y116.065 E22.3545
G1 X110.946 Y116.415 E22.3708
G1 X110.809 Y116.69 E22.38511
G1 X110.642 Y116.911 E22.398
G1 X110.356 Y117.319 E22.42121
G1 X110.015 Y117.854 E22.45075
G1 X109.851 Y118.128 E22.46562
G1 X109.666 Y118.47 E22.48372
G1 X109.553 Y118.702 E22.49574
G1 X109.386 Y119.105 E22.51605
G1 X109.035 Y120.099 E22.56514
G1 X108.947 Y120.439 E22.58149
G1 X108.894 Y120.783 E22.5977
G1 X108.862 Y121.128 E22.61383
G1 X108.837 Y121.816 E22.64589
G1 X108.846 Y122.124 E22.66024
G1 X108.872 Y122.483 E22.677
G1 X108.912 Y122.803 E22.69201
G1 X108.975 Y123.116 E22.70688
G1 X109.054 Y123.402 E22.7207
G1 X109.17 Y123.688 E22.73507
G1 X109.327 Y123.948 E22.74921
G1 X109.509 Y124.203 E22.7638
G1 X109.718 Y124.441 E22.77855
G1 X109.962 Y124.662 E22.79388
G1 X110.225 Y124.864 E22.80932
G1 X110.501 Y125.039 E22.82453
G1 X110.786 Y125.197 E22.83971
G1 X111.068 Y125.326 E22.85415
G1 X111.352 Y125.431 E22.86825
G1 X111.64 Y125.508 E22.88213
G1 X111.93 Y125.559 E22.89584
G1 X112.218 Y125.575 E22.90927
G1 X112.505 Y125.557 E22.92266
G1 X112.783 Y125.513 E22.93577
G1 X113.076 Y125.441 E22.94982
G1 X113.339 Y125.354 E22.96272
G1 X113.754 Y125.131 E22.98465
G1 X113.956 Y124.952 E22.99722
G1 X114.236 Y124.525 E23.021
G1 X114.532 Y124.451 E23.0352
G1 X114.719 Y124.56 E23.04528
G1 X114.879 Y124.793 E23.05844
G1 X115.132 Y125.113 E23.07744
G1 X115.417 Y125.282 E23.09287
G1 X115.693 Y125.392 E23.1067
G1 X115.972 Y125.476 E23.12027
G1 X116.27 Y125.538 E23.13444
G0 F9000 X116.734 Y124.823
;TYPE:SKIN
G1 F1500 X117.14 Y124.774 E23.15349
G1 X117.483 Y124.672 E23.17015
G1 X117.728 Y124.571 E23.18249
G1 X117.956 Y124.458 E23.19434
G1 X118.193 Y124.319 E23.20713
G1 X118.416 Y124.164 E23.21978
G1 X118.716 Y123.912 E23.23802
G1 X118.933 Y123.63 E23.25459
G1 X119.12 Y123.338 E23.27073
G1 X119.231 Y122.976 E23.28837
G1 X119.287 Y122.715 E23.3008
G1 X119.324 Y122.418 E23.31473
G1 X119.346 Y122.094 E23.32985
G1 X119.354 Y121.729 E23.34685
G1 X119.35 Y121.435 E23.36054
G1 X119.327 Y121.034 E23.37925
G1 X119.282 Y120.718 E23.39411
G1 X119.227 Y120.443 E23.40717
G1 X119.13 Y120.133 E23.42229
G1 X118.867 Y119.411 E23.45807
G1 F1496.3 X118.721 Y119.057 E23.47595
G1 F1554.4 X118.46 Y118.515 E23.50298
G1 F1160.5 X118.128 Y118.241 E23.52889
G1 X118.118 Y118.654 E23.55375
G1 F1542.4 X118.228 Y118.969 E23.56886
G1 F1488.8 X118.295 Y119.506 E23.59425
G1 F1500 X118.3 Y119.914 E23.61325
G1 X118.264 Y120.319 E23.63218
G1 X118.194 Y120.681 E23.64935
G1 X118.109 Y120.967 E23.66324
G1 X117.911 Y121.468 E23.68833
G1 X117.584 Y121.995 E23.71721
G1 X117.241 Y122.409 E23.74224
G1 X116.743 Y122.854 E23.77334
G1 X116.273 Y123.152 E23.79925
G1 X115.763 Y123.385 E23.82536
G1 X115.305 Y123.523 E23.84763
G1 F1488.8 X115.067 Y123.569 E23.85901
G1 F1398.6 X114.736 Y123.674 E23.87635
G1 F1366.7 X114.973 Y123.802 E23.89011
G1 F1452.8 X115.229 Y123.985 E23.90524
G1 F1500 X115.636 Y124.524 E23.93669
G1 X115.96 Y124.677 E23.95338
G1 X116.391 Y124.786 E23.97408
G1 X116.734 Y124.823 E23.99014
G1 F2700 E18.99014
G0 F9000 X116.732 Y125.071
G0 X115.618 Y124.75
G0 X114.893 Y123.999
G0 X114.837 Y123.425
G0 X114.724 Y123.667
G1 F2700 E23.99014
G1 F1222 X114.637 Y123.658 E23.99514
G1 F1227 X114.326 Y123.655 E24.01284
G0 F9000 X114.28 Y123.978
G0 X113.181 Y124.81
G0 X112.734 Y124.917
G0 X111.892 Y125.044
G0 X111.931 Y124.801
G1 F1500 X112.421 Y124.8 E24.03566
G1 X112.984 Y124.689 E24.06238
G1 X113.351 Y124.488 E24.08187
G1 X113.685 Y123.975 E24.11037
G1 F1432 X114.104 Y123.731 E24.13402
G1 F1287.6 X114.326 Y123.655 E24.14675
G1 F1315.8 X114.024 Y123.596 E24.16308
G1 F1467 X113.548 Y123.503 E24.18618
G1 F1500 X113.195 Y123.395 E24.20336
G1 X112.63 Y123.134 E24.23234
G1 X112.147 Y122.82 E24.25917
G1 X111.594 Y122.272 E24.29542
G1 X111.273 Y121.818 E24.32131
G1 X110.97 Y121.286 E24.34982
G1 X110.766 Y120.649 E24.38097
G1 X110.691 Y120.198 E24.40225
G1 X110.666 Y119.707 E24.42515
G1 X110.7 Y119.253 E24.44635
G1 F1428.6 X110.806 Y118.684 E24.47465
G1 F1060.1 X110.791 Y118.321 E24.49858
G1 X110.472 Y118.582 E24.52574
G1 F1428.6 X110.288 Y118.919 E24.54451
G1 F1500 X110.096 Y119.378 E24.56768
G1 X109.757 Y120.335 E24.61496
G1 X109.695 Y120.591 E24.62722
G1 X109.652 Y120.853 E24.63958
G1 X109.621 Y121.179 E24.65483
G1 X109.598 Y121.842 E24.68572
G1 X109.623 Y122.354 E24.70959
G1 X109.663 Y122.676 E24.7247
G1 X109.746 Y123.077 E24.74377
G1 X109.872 Y123.4 E24.75991
G1 X110.177 Y123.83 E24.78446
G1 X110.45 Y124.076 E24.80157
G1 X110.663 Y124.24 E24.81409
G1 X110.891 Y124.384 E24.82665
G1 X111.129 Y124.518 E24.83936
G1 X111.41 Y124.644 E24.8537
G1 X111.931 Y124.801 E24.87904
G0 F9000 X111.892 Y125.044
G0 X110.755 Y124.536
G0 X110.072 Y123.994
G0 X109.636 Y123.345
G0 X109.427 Y122.399
G0 X109.451 Y120.852
G0 X109.705 Y119.887
G0 X110.451 Y118.096
G0 X110.791 Y118.321
G1 F907.7 X110.994 Y117.945 E24.91192
G1 F970.9 X111.262 Y117.524 E24.94782
G1 F978.8 X111.56 Y117.137 E24.98268
G1 F1176.5 X111.977 Y116.857 E25.0125
G1 F1500 X112.4 Y116.548 E25.03689
G1 X112.708 Y116.359 E25.05372
G1 F1488.8 X112.89 Y116.274 E25.06314
G1 F1224.5 X113.203 Y116.042 E25.08537
G1 F1232 X112.752 Y116.028 E25.11095
G1 F1500 X112.399 Y115.985 E25.12751
G1 X112.113 Y115.814 E25.14302
G1 X111.82 Y115.831 E25.15669
G1 X111.712 Y116.052 E25.16814
G1 X111.707 Y116.536 E25.19068
G1 F1176.5 X111.56 Y117.137 E25.22741
G0 F9000 X111.83 Y117.39
G0 X113.346 Y116.357
G0 X113.203 Y116.042
G1 F1056.3 X113.288 Y116.012 E25.23337
G1 F1075.3 X113.76 Y115.887 E25.26509
G1 F1096.9 X114.372 Y115.836 E25.30419
G1 F1100.9 X114.881 Y115.855 E25.33651
G1 F1090.9 X115.413 Y115.926 E25.37087
G1 F1065.7 X115.973 Y116.109 E25.40949
G0 F9000 X115.832 Y116.426
G0 X117.148 Y117.385
G0 X117.37 Y117.076
G1 F977.2 X117.271 Y116.76 E25.43315
G1 F1005 X117.168 Y116.43 E25.45718
G1 F1008.4 X117.186 Y116.137 E25.47751
G1 F1010.1 X117.083 Y115.946 E25.49252
G1 X116.906 Y115.919 E25.5049
G1 X116.606 Y116.07 E25.52812
G1 F1020.4 X116.124 Y116.13 E25.56137
G1 F1036.3 X115.973 Y116.109 E25.57164
G1 F1025.6 X116.419 Y116.323 E25.60533
G1 F1010.1 X116.764 Y116.545 E25.6337
G1 F1003.3 X117.156 Y116.873 E25.66928
G1 F974 X117.37 Y117.076 E25.69043
G1 F983.6 X117.649 Y117.441 E25.72306
G1 F1013.5 X117.928 Y117.858 E25.75763
G1 F953.9 X118.128 Y118.241 E25.78927
G0 F9000 X118.435 Y119.001
G1 F1500 X118.502 Y119.068 E25.79368
G0 F9000 X118.496 Y119.628
G1 F1500 X118.869 Y120 E25.81821
G0 F9000 X118.477 Y120.174
G1 F1500 X119.09 Y120.787 E25.85858
G0 F9000 X119.148 Y121.411
G1 F1500 X118.4 Y120.662 E25.90787
G0 F9000 X118.27 Y121.099
G1 F1500 X119.148 Y121.977 E25.96569
G0 F9000 X119.112 Y122.506
G1 F1500 X118.111 Y121.505 E26.03161
G0 F9000 X117.902 Y121.862
G1 F1500 X119.02 Y122.98 E26.10523
G0 F9000 X118.855 Y123.38
G1 F1500 X117.673 Y122.199 E26.18303
G0 F9000 X117.418 Y122.509
G1 F1500 X118.617 Y123.709 E26.26202
G0 F9000 X118.325 Y123.981
G1 F1500 X117.122 Y122.779 E26.34121
G0 F9000 X116.818 Y123.041
G1 F1500 X117.991 Y124.213 E26.41842
G0 F9000 X117.613 Y124.402
G1 F1500 X116.473 Y123.261 E26.49352
G0 F9000 X116.097 Y123.45
G1 F1500 X117.193 Y124.547 E26.56573
G0 F9000 X116.697 Y124.616
G1 F1500 X115.694 Y123.614 E26.63175
G0 F9000 X115.434 Y123.919
G1 F1500 X115.978 Y124.464 E26.6676
G0 F9000 X115.321 Y123.806
G1 F1500 X115.261 Y123.747 E26.67152
G0 F9000 X115.18 Y123.28
G0 X113.717 Y123.274
G0 X113.608 Y123.79
G1 F1500 X113.515 Y123.697 E26.67764
G0 F9000 X113.359 Y124.107
G1 F1500 X112.582 Y123.33 E26.72881
G0 F9000 X112.87 Y122.961
G0 X113.602 Y123.33
G0 X113.969 Y124.022
G0 X113.088 Y124.402
G1 F1500 X109.825 Y121.139 E26.94368
G0 F9000 X109.888 Y120.636
G1 F1500 X111.011 Y121.759 E27.01764
G0 F9000 X111.542 Y121.749
G0 X111.042 Y120.666
G0 X110.594 Y120.776
G1 F1500 X110.016 Y120.198 E27.0557
G0 F9000 X110.164 Y119.781
G1 F1500 X110.487 Y120.104 E27.07697
G0 F9000 X110.479 Y119.53
G1 F1500 X110.315 Y119.366 E27.08777
G0 F9000 X109.894 Y119.192
G0 X109.534 Y120.554
G0 X109.344 Y121.665
G0 X109.802 Y121.681
G1 F1500 X112.666 Y124.546 E27.2764
G0 F9000 X112.154 Y124.599
G1 F1500 X109.817 Y122.263 E27.43026
G0 F9000 X109.919 Y122.93
G1 F1500 X111.415 Y124.426 E27.52878
G1 F2700 E22.52878
G0 F9000 X111.23 Y124.852
G0 X112.109 Y122.534
G0 X112.035 Y116.56
G1 F2700 E27.52878
G1 F1500 X111.908 Y116.434 E27.53711
G0 F9000 X112.056 Y116.016
G1 F1500 X112.37 Y116.33 E27.55779
;MESH:NONMESH
G0 F300 X112.37 Y116.33 Z1.12
G0 F9000 X112.598 Y116.729
G0 X111.586 Y118.186
G0 X111.288 Y118.947
G0 X111.186 Y119.676
G0 X111.282 Y120.555
G0 X111.438 Y121.051
G0 X111.998 Y121.943
G0 X112.168 Y122.619
G0 X114.032 Y123.325
G0 X114.046 Y123.234
;TIME_ELAPSED:53.979971
;LAYER:3
M106 S255
;TYPE:WALL-INNER
;MESH:Dickbutt_with_cavity.stl
G1 F1500 X113.637 Y123.152 E27.57721
G1 X113.333 Y123.059 E27.59201
G1 X112.991 Y122.915 E27.60929
G1 X112.758 Y122.789 E27.62163
G1 X112.495 Y122.618 E27.63623
G1 X112.205 Y122.381 E27.65367
G1 X112.019 Y122.197 E27.66585
G1 X111.797 Y121.937 E27.68177
G1 X111.632 Y121.7 E27.69522
G1 X111.474 Y121.424 E27.71003
G1 X111.336 Y121.115 E27.72579
G1 X111.209 Y120.737 E27.74436
G1 X111.136 Y120.341 E27.76311
G1 X111.11 Y120.059 E27.77629
G1 X111.119 Y119.592 E27.79804
G1 X111.182 Y119.161 E27.81832
G1 X111.306 Y118.757 E27.838
G1 X111.426 Y118.458 E27.853
G1 X111.664 Y118.037 E27.87552
G1 X111.909 Y117.716 E27.89433
G1 X112.306 Y117.325 E27.92027
G1 X112.582 Y117.114 E27.93645
G1 X112.856 Y116.946 E27.95142
G1 X113.25 Y116.764 E27.97163
G1 X113.739 Y116.606 E27.99555
G1 X114.318 Y116.534 E28.02272
G1 X114.782 Y116.549 E28.04434
G1 X115.296 Y116.63 E28.06857
G1 X115.752 Y116.791 E28.09109
G1 X116.134 Y116.977 E28.11087
G1 X116.362 Y117.121 E28.12343
G1 X116.689 Y117.376 E28.14274
G1 X117.029 Y117.71 E28.16493
G1 X117.296 Y118.078 E28.1861
G1 X117.454 Y118.354 E28.20091
G1 X117.628 Y118.733 E28.22033
G1 X117.767 Y119.253 E28.24539
G1 X117.812 Y119.563 E28.25998
G1 X117.832 Y119.903 E28.27584
G1 X117.793 Y120.416 E28.29979
G1 X117.692 Y120.862 E28.32109
G1 X117.545 Y121.246 E28.34023
G1 X117.422 Y121.498 E28.35329
G1 X117.245 Y121.788 E28.36911
G1 X116.969 Y122.146 E28.39016
G1 X116.719 Y122.391 E28.40646
G1 X116.48 Y122.589 E28.42091
G1 X116.059 Y122.87 E28.44448
G1 X115.616 Y123.054 E28.46682
G1 X115.278 Y123.159 E28.4833
G1 X114.86 Y123.244 E28.50316
G1 X114.422 Y123.256 E28.52356
G1 X114.046 Y123.234 E28.5411
G0 F9000 X114.412 Y122.856
;TYPE:WALL-OUTER
G1 F1500 X114.042 Y122.83 E28.55837
G1 X113.721 Y122.761 E28.57366
G1 X113.434 Y122.67 E28.58768
G1 X113.181 Y122.563 E28.60047
G1 X112.935 Y122.429 E28.61351
G1 X112.704 Y122.275 E28.62644
G1 X112.487 Y122.097 E28.63951
G1 X112.289 Y121.9 E28.65252
G1 X112.121 Y121.702 E28.66461
G1 X111.951 Y121.456 E28.67853
G1 X111.814 Y121.211 E28.6916
G1 X111.704 Y120.958 E28.70445
G1 X111.597 Y120.638 E28.72016
G1 X111.532 Y120.28 E28.7371
G1 X111.509 Y120.023 E28.74912
G1 X111.515 Y119.65 E28.76649
G1 X111.577 Y119.238 E28.78589
G1 X111.674 Y118.915 E28.80159
G1 X111.81 Y118.581 E28.81838
G1 X112.013 Y118.234 E28.8371
G1 X112.242 Y117.944 E28.85431
G1 X112.604 Y117.596 E28.87769
G1 X112.836 Y117.425 E28.89111
G1 X113.083 Y117.278 E28.9045
G1 X113.434 Y117.122 E28.92238
G1 X113.835 Y116.994 E28.94198
G1 X114.333 Y116.934 E28.96534
G1 X114.742 Y116.948 E28.98439
G1 X115.2 Y117.02 E29.00598
G1 X115.581 Y117.153 E29.02477
G1 X115.92 Y117.315 E29.04227
G1 X116.148 Y117.459 E29.05483
G1 X116.457 Y117.705 E29.07322
G1 X116.732 Y117.982 E29.09139
G1 X116.952 Y118.282 E29.10871
G1 X117.092 Y118.524 E29.12173
G1 X117.248 Y118.859 E29.13894
G1 X117.366 Y119.289 E29.1597
G1 X117.412 Y119.588 E29.17379
G1 X117.432 Y119.937 E29.19007
G1 X117.396 Y120.362 E29.20993
G1 X117.306 Y120.756 E29.22875
G1 X117.176 Y121.089 E29.24539
G1 X117.052 Y121.34 E29.25843
G1 X116.904 Y121.577 E29.27144
G1 X116.684 Y121.865 E29.28831
G1 X116.451 Y122.094 E29.30353
G1 X116.226 Y122.279 E29.31709
G1 X115.876 Y122.511 E29.33664
G1 X115.493 Y122.673 E29.35601
G1 X115.198 Y122.767 E29.37042
G1 X114.826 Y122.843 E29.3881
G1 X114.412 Y122.856 E29.40739
G1 F2700 E24.40739
G0 F9000 X114.393 Y123.154
G0 X115.832 Y123.161
G0 X115.961 Y125.109
G0 X116.924 Y125.433
;TYPE:WALL-INNER
G1 F2700 E29.40739
G1 F1500 X117.188 Y125.399 E29.41979
G1 X117.448 Y125.334 E29.43226
G1 X117.727 Y125.239 E29.44599
G1 X118.01 Y125.12 E29.46028
G1 X118.291 Y124.976 E29.47499
G1 X118.567 Y124.814 E29.48989
G1 X118.829 Y124.633 E29.50472
G1 X119.056 Y124.435 E29.51874
G1 X119.258 Y124.21 E29.53282
G1 X119.439 Y123.965 E29.54701
G1 X119.598 Y123.702 E29.56132
G1 X119.728 Y123.437 E29.57506
G1 X119.823 Y123.146 E29.58931
G1 X119.889 Y122.827 E29.60448
G1 X119.933 Y122.482 E29.62068
G1 X119.951 Y122.122 E29.63746
G1 X119.955 Y121.717 E29.65632
G1 X119.944 Y121.384 E29.67184
G1 X119.902 Y121.007 E29.6895
G1 X119.84 Y120.643 E29.70669
G1 X119.752 Y120.301 E29.72314
G1 X119.632 Y119.929 E29.74134
G1 X119.497 Y119.559 E29.75968
G1 X119.349 Y119.192 E29.7781
G1 X119.064 Y118.569 E29.81
G1 X118.639 Y117.777 E29.85186
G1 X118.028 Y116.751 E29.90746
G1 X117.973 Y116.344 E29.92659
G1 X118.022 Y116.021 E29.9418
G1 X117.924 Y115.804 E29.95289
G1 F1477.8 X117.88 Y115.385 E29.9728
G1 F1351.4 X117.969 Y115.118 E29.98734
G1 F1250 X118.162 Y114.861 E30.0053
G1 F1183.4 X118.593 Y114.164 E30.05367
G1 F1117.3 X118.809 Y113.829 E30.07859
G1 F1090.9 X119.12 Y113.299 E30.11793
G1 F1077.2 X119.326 Y112.971 E30.14305
G1 F1088.9 X119.672 Y112.351 E30.18859
G1 F1119.4 X119.934 Y111.904 E30.22092
G1 F1185.8 X120.263 Y111.294 E30.26174
G1 F1242.2 X120.372 Y111.016 E30.27853
G1 X120.513 Y110.741 E30.29591
G1 X120.564 Y110.669 E30.30087
G1 X120.255 Y110.526 E30.32001
G1 X120.021 Y110.812 E30.34079
G1 X119.851 Y111.045 E30.35701
G1 F1214.6 X119.69 Y111.288 E30.37377
G1 F1140.7 X119.157 Y112.153 E30.43598
G1 F1090.9 X118.644 Y113.015 E30.50021
G1 F1107 X118.143 Y113.888 E30.56371
G1 F1160.5 X117.973 Y114.215 E30.58589
G1 F1207.2 X117.648 Y114.79 E30.62411
G1 F1348.3 X117.153 Y115.056 E30.65322
G1 F1500 X116.705 Y115.021 E30.67414
G1 X116.533 Y115.106 E30.68308
G1 X116.214 Y115.233 E30.69906
G1 X115.956 Y115.247 E30.71109
G1 X115.33 Y115.095 E30.74109
G1 X114.765 Y115.044 E30.76751
G1 X114.133 Y115.055 E30.79694
G1 X113.624 Y115.103 E30.82075
G1 X113.164 Y115.21 E30.84274
G1 X112.76 Y115.241 E30.8616
G1 X112.558 Y115.176 E30.87149
G1 X112.295 Y115.023 E30.88565
G1 X111.955 Y115.057 E30.90156
G1 X111.778 Y115.015 E30.91004
G1 F1363.6 X111.371 Y114.792 E30.93381
G1 F1229.5 X111.09 Y114.342 E30.96394
G1 F1185.8 X110.985 Y114.132 E30.97777
G1 F1129.9 X110.606 Y113.452 E31.0259
G1 F1092.9 X110.012 Y112.426 E31.10166
G1 F1119.4 X109.427 Y111.46 E31.17213
G1 F1171.9 X109.27 Y111.221 E31.18917
G1 F1263.2 X108.996 Y110.778 E31.21797
G1 F1385.7 X108.755 Y110.471 E31.23765
G1 F1428.6 X108.389 Y110.639 E31.25734
G1 F1385.7 X108.619 Y111.008 E31.27925
G1 F1293.1 X108.727 Y111.253 E31.29372
G1 F1219.5 X108.842 Y111.484 E31.3085
G1 F1171.9 X108.985 Y111.731 E31.32551
G1 F1125.7 X109.321 Y112.346 E31.36899
G1 F1094.9 X109.494 Y112.631 E31.39026
G1 F1085 X109.879 Y113.314 E31.44073
G1 F1125.7 X110.603 Y114.501 E31.527
G1 F1234.6 X111.021 Y115.081 E31.56745
G1 F1363.6 X111.077 Y115.273 E31.57769
G1 F1456.3 X111.105 Y115.626 E31.59467
G1 F1485.1 X110.974 Y115.984 E31.6126
G1 F1500 X111.018 Y116.277 E31.6264
G1 X110.94 Y116.751 E31.64877
G1 X110.694 Y117.164 E31.67115
G1 X110.555 Y117.375 E31.68292
G1 X110.324 Y117.766 E31.70406
G1 X110.063 Y118.238 E31.72918
G1 X109.731 Y118.901 E31.7637
G1 X109.484 Y119.483 E31.79314
G1 X109.242 Y120.171 E31.8271
G1 X109.148 Y120.495 E31.84281
G1 X109.079 Y120.819 E31.85824
G1 X109.034 Y121.156 E31.87407
G1 X109.007 Y121.522 E31.89116
G1 X108.996 Y121.889 E31.90825
G1 X108.998 Y122.183 E31.92194
G1 X109.016 Y122.462 E31.93496
G1 X109.061 Y122.819 E31.95172
G1 X109.121 Y123.098 E31.96501
G1 X109.21 Y123.376 E31.9786
G1 X109.32 Y123.625 E31.99127
G1 X109.457 Y123.862 E32.00402
G1 X109.627 Y124.104 E32.01779
G1 X109.818 Y124.339 E32.03189
G1 X110.031 Y124.551 E32.04589
G1 X110.274 Y124.735 E32.06008
G1 X110.546 Y124.909 E32.07511
G1 X110.822 Y125.065 E32.08988
G1 X111.093 Y125.192 E32.10381
G1 X111.367 Y125.298 E32.11749
G1 X111.633 Y125.377 E32.13041
G1 X112.016 Y125.452 E32.14859
G1 X112.383 Y125.439 E32.16569
G1 X112.736 Y125.391 E32.18227
G1 X113.135 Y125.266 E32.20174
G1 X113.503 Y125.089 E32.22076
G1 X113.711 Y124.913 E32.23345
G1 X113.954 Y124.624 E32.25103
G1 X114.152 Y124.48 E32.26243
G1 X114.478 Y124.417 E32.27789
G1 X114.753 Y124.475 E32.29098
G1 X114.997 Y124.633 E32.30451
G1 X115.362 Y125.065 E32.33085
G1 X115.717 Y125.248 E32.34944
G1 X116.123 Y125.362 E32.36908
G1 X116.398 Y125.415 E32.38212
G1 X116.662 Y125.44 E32.39447
G1 X116.924 Y125.433 E32.40667
G1 F2700 E27.40667
G0 F9000 X116.93 Y125.333
G0 X115.201 Y125.125
G0 X114.865 Y124.725
G0 X114.559 Y124.553
G0 X114.142 Y124.652
G0 X113.941 Y124.845
G0 X112.385 Y125.34
G1 F2700 E32.40667
G0 F9000 X112.417 Y125.839
;TYPE:WALL-OUTER
G1 F1500 X112.708 Y125.799 E32.42035
G1 X112.983 Y125.733 E32.43352
G1 X113.273 Y125.642 E32.44767
G1 X113.662 Y125.478 E32.46733
G1 X113.996 Y125.196 E32.48768
G1 X114.255 Y124.89 E32.50635
G1 X114.547 Y124.824 E32.52029
G1 X114.719 Y124.921 E32.52949
G1 X115.035 Y125.298 E32.55239
G1 X115.326 Y125.515 E32.56929
G1 X115.732 Y125.668 E32.5895
G1 X116.031 Y125.752 E32.60396
G1 X116.341 Y125.812 E32.61866
G1 X116.649 Y125.84 E32.63306
G1 X116.955 Y125.833 E32.64732
G1 X117.262 Y125.793 E32.66173
G1 X117.561 Y125.718 E32.67609
G1 X117.869 Y125.613 E32.69124
G1 X118.179 Y125.483 E32.70689
G1 X118.484 Y125.327 E32.72284
G1 X118.783 Y125.151 E32.739
G1 X119.075 Y124.949 E32.75553
G1 X119.337 Y124.721 E32.7717
G1 X119.568 Y124.463 E32.78783
G1 X119.771 Y124.188 E32.80374
G1 X119.95 Y123.894 E32.81977
G1 X120.1 Y123.588 E32.83564
G1 X120.211 Y123.249 E32.85225
G1 X120.284 Y122.893 E32.86917
G1 X120.332 Y122.518 E32.88678
G1 X120.351 Y122.134 E32.90468
G1 X120.355 Y121.704 E32.9247
G1 X120.343 Y121.356 E32.94092
G1 X120.304 Y120.995 E32.95782
G1 X120.232 Y120.559 E32.9784
G1 X120.136 Y120.189 E32.9962
G1 X120.01 Y119.799 E33.01528
G1 X119.869 Y119.411 E33.03451
G1 X119.573 Y118.707 E33.07007
G1 X119.421 Y118.389 E33.08648
G1 X118.983 Y117.573 E33.1296
G1 X118.411 Y116.611 E33.18172
G1 X118.374 Y116.356 E33.19372
G1 X118.428 Y116.013 E33.20989
G1 X118.307 Y115.687 E33.22608
G1 X118.292 Y115.416 E33.23872
G1 X118.517 Y115.126 E33.25581
G1 X119.194 Y114.104 E33.31289
G1 X119.533 Y113.54 E33.34353
G1 X119.735 Y113.222 E33.36107
G1 X120.082 Y112.584 E33.39489
G1 X120.341 Y112.129 E33.41927
G1 X120.671 Y111.463 E33.45388
G1 X120.774 Y111.199 E33.46708
G1 X120.919 Y110.918 E33.4818
G1 X121.139 Y110.677 E33.49699
G1 X121.232 Y110.493 E33.50659
G1 X120.21 Y110.019 E33.55905
G1 X120.059 Y110.069 E33.56646
G1 X119.664 Y110.552 E33.59551
G1 X119.331 Y111.01 E33.62188
G1 X118.757 Y111.899 E33.67115
G1 X118.216 Y112.802 E33.72017
G1 X117.725 Y113.683 E33.76713
G1 X117.56 Y114.031 E33.78507
G1 X117.311 Y114.486 E33.80922
G1 X117.06 Y114.652 E33.82323
G1 X116.627 Y114.611 E33.84348
G1 X116.379 Y114.736 E33.85642
G1 X116.067 Y114.864 E33.87212
G1 X115.398 Y114.699 E33.9042
G1 X114.945 Y114.657 E33.92539
G1 X114.668 Y114.646 E33.9383
G1 X114.358 Y114.646 E33.95273
G1 X114.086 Y114.657 E33.96541
G1 X113.668 Y114.697 E33.98496
G1 X113.398 Y114.743 E33.99771
G1 X113.11 Y114.813 E34.01151
G1 X112.78 Y114.838 E34.02692
G1 X112.383 Y114.611 E34.04822
G1 X111.945 Y114.656 E34.06872
G1 X111.71 Y114.514 E34.08151
G1 X111.51 Y114.18 E34.09963
G1 X111.401 Y113.938 E34.11199
G1 X111.121 Y113.423 E34.13929
G1 X111.017 Y113.216 E34.15008
G1 X110.416 Y112.173 E34.20613
G1 X109.815 Y111.211 E34.25895
G1 X109.322 Y110.505 E34.29904
G1 X109.225 Y110.407 E34.30546
G1 X108.935 Y110.036 E34.32739
G1 X108.833 Y109.987 E34.33266
G1 X107.774 Y110.466 E34.38678
G1 X107.89 Y110.69 E34.39853
G1 X108.063 Y110.882 E34.41056
G1 X108.207 Y111.125 E34.42371
G1 X108.323 Y111.426 E34.43873
G1 X108.43 Y111.671 E34.45118
G1 X108.752 Y112.27 E34.48285
G1 X108.903 Y112.567 E34.49836
G1 X109.074 Y112.854 E34.51392
G1 X109.259 Y113.2 E34.53219
G1 X109.478 Y113.573 E34.55233
G1 X110.23 Y114.762 E34.61784
G1 X110.655 Y115.312 E34.6502
G1 X110.707 Y115.613 E34.66443
G1 X110.553 Y115.936 E34.68109
G1 X110.622 Y116.248 E34.69597
G1 X110.557 Y116.614 E34.71328
G1 X110.361 Y116.942 E34.73107
G1 X110.245 Y117.117 E34.74085
G1 X109.993 Y117.539 E34.76373
G1 X109.66 Y118.144 E34.79589
G1 X109.367 Y118.734 E34.82656
G1 X109.111 Y119.338 E34.85711
G1 X108.861 Y120.049 E34.8922
G1 X108.76 Y120.397 E34.90908
G1 X108.685 Y120.751 E34.92593
G1 X108.636 Y121.114 E34.94298
G1 X108.608 Y121.474 E34.9598
G1 X108.596 Y121.89 E34.97918
G1 X108.598 Y122.197 E34.99347
G1 X108.617 Y122.49 E35.00714
G1 X108.667 Y122.887 E35.02578
G1 X108.734 Y123.2 E35.04068
G1 X108.835 Y123.518 E35.05622
G1 X108.963 Y123.807 E35.07093
G1 X109.119 Y124.078 E35.08549
G1 X109.308 Y124.346 E35.10077
G1 X109.521 Y124.608 E35.11649
G1 X109.768 Y124.853 E35.13269
G1 X110.045 Y125.063 E35.14887
G1 X110.34 Y125.252 E35.16519
G1 X110.638 Y125.421 E35.18114
G1 X110.935 Y125.56 E35.19641
G1 X111.238 Y125.677 E35.21153
G1 X111.537 Y125.766 E35.22606
G1 X111.831 Y125.823 E35.24
G1 X112.124 Y125.849 E35.2537
G1 X112.417 Y125.839 E35.26735
G1 F2700 E30.26735
G0 F9000 X112.385 Y125.34
G0 X113.411 Y124.956
G0 X113.655 Y124.691
G0 X113.904 Y123.395
G0 X113.939 Y123.587
;TYPE:SKIN
G1 F2700 E35.26735
G1 F1500 X113.576 Y123.508 E35.28465
G1 X113.175 Y123.384 E35.3042
G1 X112.845 Y123.246 E35.32085
G1 X112.583 Y123.105 E35.33471
G1 X112.274 Y122.903 E35.3519
G1 X111.955 Y122.641 E35.37112
G1 X111.718 Y122.402 E35.38679
G1 X111.515 Y122.162 E35.40143
G1 X111.302 Y121.854 E35.41886
G1 X111.151 Y121.584 E35.43327
G1 X110.99 Y121.218 E35.45189
G1 X110.859 Y120.825 E35.47118
G1 X110.779 Y120.395 E35.49154
G1 X110.751 Y120.092 E35.50571
G1 X110.754 Y119.593 E35.52895
G1 F1304.3 X110.885 Y118.687 E35.57797
G1 F1192.8 X111.082 Y118.234 E35.60689
G1 F1234.6 X111.365 Y117.753 E35.63847
G1 F1202.4 X111.637 Y117.395 E35.66458
G1 F1315.8 X111.967 Y117.152 E35.68634
G1 F1500 X112.109 Y117.016 E35.69549
G1 X112.381 Y116.815 E35.71124
G1 X112.667 Y116.638 E35.7269
G1 X113.166 Y116.406 E35.75253
G1 X113.691 Y116.247 E35.77807
G1 X114.299 Y116.174 E35.80658
G1 X114.82 Y116.189 E35.83085
G1 X115.388 Y116.28 E35.85764
G1 X115.907 Y116.465 E35.8833
G1 X116.219 Y116.612 E35.89936
G1 X116.623 Y116.865 E35.92155
G1 X116.914 Y117.093 E35.93877
G1 F1470.6 X117.057 Y117.222 E35.94791
G1 F1279.3 X117.338 Y117.423 E35.96678
G1 F1181.1 X117.648 Y117.871 E35.99899
G1 F1209.7 X117.826 Y118.182 E36.01968
G1 F1185.8 X118.025 Y118.598 E36.04685
G1 F1312.9 X118.074 Y119.004 E36.0686
G1 F1500 X118.121 Y119.176 E36.07691
G1 X118.171 Y119.54 E36.09401
G1 X118.192 Y119.912 E36.11136
G1 X118.149 Y120.47 E36.13742
G1 X118.052 Y120.915 E36.15863
G1 X117.887 Y121.364 E36.18091
G1 X117.738 Y121.672 E36.19684
G1 X117.522 Y122.022 E36.21599
G1 X117.244 Y122.38 E36.23709
G1 X116.941 Y122.677 E36.25685
G1 X116.714 Y122.865 E36.27057
G1 X116.221 Y123.19 E36.29807
G1 X115.791 Y123.372 E36.31981
G1 X115.436 Y123.49 E36.33723
G1 F1456.3 X114.856 Y123.629 E36.36584
G1 F1428.6 X114.412 Y123.624 E36.38755
G1 F1470.6 X113.939 Y123.587 E36.41008
G1 F2700 E31.41008
G0 F9000 X113.856 Y123.303
G0 X115.314 Y123.336
G0 X115.193 Y124.552
G0 X116.587 Y125.086
G1 F2700 E36.41008
G1 F1500 X117.119 Y125.043 E36.43493
G1 X117.559 Y124.917 E36.45625
G1 X117.9 Y124.771 E36.47352
G1 X118.143 Y124.645 E36.48626
G1 X118.373 Y124.51 E36.49868
G1 X118.608 Y124.348 E36.51197
G1 X118.802 Y124.179 E36.52395
G1 X118.976 Y123.982 E36.53619
G1 X119.138 Y123.763 E36.54888
G1 X119.281 Y123.529 E36.56165
G1 X119.393 Y123.298 E36.5736
G1 X119.474 Y123.057 E36.58544
G1 X119.532 Y122.769 E36.59912
G1 X119.574 Y122.449 E36.61415
G1 X119.59 Y122.135 E36.62879
G1 X119.594 Y121.746 E36.6469
G1 X119.584 Y121.41 E36.66255
G1 X119.549 Y121.081 E36.67796
G1 X119.494 Y120.755 E36.69335
G1 X119.392 Y120.359 E36.7124
G1 X119.292 Y120.05 E36.72752
G1 X119.159 Y119.68 E36.74583
G1 X118.88 Y119.016 E36.77936
G1 X118.745 Y118.74 E36.79367
G1 F1312.9 X118.498 Y118.397 E36.81616
G1 F1183.4 X118.282 Y117.978 E36.84398
G1 F1209.7 X118.068 Y117.613 E36.86841
G1 F1250 X117.734 Y117.085 E36.90332
G1 F1357.5 X117.671 Y116.809 E36.91789
G1 F1470.6 X117.618 Y116.41 E36.937
G1 F1500 X117.65 Y116.075 E36.95267
G1 X117.588 Y115.945 E36.95938
G1 X117.534 Y115.546 E36.97813
G1 X117.545 Y115.275 E36.99076
G1 X117.332 Y115.365 E37.00152
G1 X117.085 Y115.407 E37.01319
G1 X116.8 Y115.389 E37.02649
G1 X116.313 Y115.58 E37.05085
G1 X115.985 Y115.628 E37.06628
G1 X115.268 Y115.451 E37.10067
G1 X114.795 Y115.408 E37.12279
G1 X114.234 Y115.408 E37.14891
G1 X113.688 Y115.458 E37.17444
G1 X113.213 Y115.568 E37.19714
G1 X112.713 Y115.605 E37.22049
G1 X112.371 Y115.487 E37.23734
G1 X112.21 Y115.391 E37.24606
G1 X111.795 Y115.414 E37.26542
G1 X111.443 Y115.261 E37.28329
G1 X111.468 Y115.667 E37.30223
G1 X111.351 Y116.017 E37.31941
G1 X111.389 Y116.272 E37.33142
G1 X111.316 Y116.698 E37.35154
G1 F1401.9 X111.235 Y117.075 E37.37076
G1 F1276.6 X110.943 Y117.512 E37.39951
G1 F1234.6 X110.66 Y117.994 E37.43114
G1 F1192.8 X110.404 Y118.496 E37.46413
G1 F1295.9 X110.184 Y118.808 E37.48471
G1 F1488.8 X110.047 Y119.078 E37.49891
G1 F1500 X109.807 Y119.647 E37.52767
G1 X109.573 Y120.314 E37.56058
G1 X109.499 Y120.581 E37.57348
G1 X109.435 Y120.882 E37.58781
G1 X109.392 Y121.193 E37.60243
G1 X109.368 Y121.516 E37.61751
G1 X109.358 Y122.17 E37.64797
G1 X109.379 Y122.468 E37.66188
G1 X109.437 Y122.895 E37.68194
G1 X109.547 Y123.248 E37.69916
G1 X109.684 Y123.557 E37.7149
G1 X109.915 Y123.885 E37.73358
G1 X110.086 Y124.096 E37.74623
G1 X110.27 Y124.278 E37.75828
G1 X110.48 Y124.439 E37.7706
G1 X110.73 Y124.599 E37.78442
G1 X110.987 Y124.743 E37.79814
G1 X111.231 Y124.858 E37.8107
G1 X111.483 Y124.955 E37.82327
G1 X111.836 Y125.061 E37.84043
G1 X112.245 Y125.095 E37.85955
G1 X112.667 Y125.036 E37.87939
G1 X113.053 Y124.91 E37.89829
G1 X113.375 Y124.751 E37.91502
G1 X113.737 Y124.325 E37.94105
G1 X113.979 Y124.171 E37.9544
G1 F1485.1 X114.385 Y124.039 E37.97448
G1 F1432 X114.803 Y124.072 E37.99493
G1 F1418.4 X115.21 Y124.327 E38.01858
G1 F1456.3 X115.598 Y124.783 E38.0473
G1 F1485.1 X116.051 Y124.979 E38.07051
G1 F1500 X116.587 Y125.086 E38.09596
G0 F9000 X116.564 Y125.33
G0 X117.519 Y125.127
G0 X118.633 Y124.645
G0 X118.518 Y124.16
G1 F1500 X118.808 Y123.87 E38.11506
G0 F9000 X119.155 Y124.174
G0 X119.775 Y122.879
G0 X119.322 Y122.79
G1 F1500 X117.343 Y124.769 E38.24538
G0 F9000 X116.669 Y124.877
G1 F1500 X119.387 Y122.159 E38.42437
G0 F9000 X119.39 Y121.591
G1 F1500 X116.181 Y124.8 E38.63568
G0 F9000 X115.774 Y124.641
G1 F1500 X119.344 Y121.072 E38.87074
G0 F9000 X119.247 Y120.602
G1 F1500 X117.575 Y122.275 E38.98088
G0 F9000 X117.211 Y122.002
G0 X116.544 Y122.667
G0 X116.816 Y123.034
G1 F1500 X115.495 Y124.355 E39.06787
G0 F9000 X115.2 Y124.084
G1 F1500 X115.66 Y123.624 E39.09816
G0 F9000 X115.532 Y123.185
G0 X113.921 Y123.317
G0 X113.823 Y123.764
G1 F1500 X112.81 Y124.777 E39.16487
G0 F9000 X112.137 Y124.884
G1 F1500 X113.369 Y123.653 E39.24596
G0 F9000 X112.951 Y123.505
G1 F1500 X111.658 Y124.797 E39.33108
G0 F9000 X111.246 Y124.643
G1 F1500 X112.568 Y123.322 E39.4181
G0 F9000 X112.218 Y123.106
G1 F1500 X110.875 Y124.45 E39.50657
G0 F9000 X110.527 Y124.231
G1 F1500 X111.903 Y122.855 E39.59718
G0 F9000 X111.613 Y122.58
G1 F1500 X110.234 Y123.959 E39.68799
G0 F9000 X109.982 Y123.645
G1 F1500 X111.351 Y122.276 E39.77815
G0 F9000 X111.122 Y121.939
G1 F1500 X109.773 Y123.289 E39.86701
G0 F9000 X109.636 Y122.86
G1 F1500 X110.927 Y121.569 E39.95203
G0 F9000 X110.763 Y121.167
G1 F1500 X109.572 Y122.358 E40.03046
G0 F9000 X109.564 Y121.801
G1 F1500 X110.636 Y120.729 E40.10105
G0 F9000 X110.563 Y120.236
G1 F1500 X109.591 Y121.208 E40.16506
G0 F9000 X109.728 Y120.505
G1 F1500 X110.554 Y119.679 E40.21945
G0 F9000 X110.024 Y119.643
G1 F1500 X110.63 Y119.037 E40.25936
G1 F2700 E35.25936
G0 F9000 X111.119 Y119.019
G0 X111.258 Y118.391
G0 X110.514 Y117.839
G0 X111.464 Y117.072
G1 F2700 E40.25936
G1 F1500 X112.732 Y115.804 E40.34286
G0 F9000 X112.297 Y115.674
G1 F1500 X111.569 Y116.401 E40.39076
G0 F9000 X111.645 Y115.76
G1 F1500 X111.805 Y115.599 E40.40133
G0 F9000 X112.23 Y115.13
G0 X112.876 Y115.432
G0 X113.258 Y116.568
G0 X112.698 Y116.403
G1 F1500 X113.365 Y115.737 E40.44522
G0 F9000 X113.603 Y116.065
G1 F1500 X114.042 Y115.626 E40.47413
G0 F9000 X114.257 Y115.976
G1 F1500 X114.626 Y115.607 E40.49843
G0 F9000 X114.811 Y115.988
G1 F1500 X115.158 Y115.64 E40.52131
G0 F9000 X115.301 Y116.063
G1 F1500 X115.621 Y115.743 E40.54239
G0 F9000 X115.739 Y116.191
G1 F1500 X116.121 Y115.809 E40.56754
G0 F9000 X116.141 Y116.355
G1 F1500 X116.901 Y115.594 E40.61762
G0 F9000 X117.352 Y115.71
G1 F1500 X116.505 Y116.556 E40.67337
G0 F9000 X116.841 Y116.786
G1 F1500 X117.434 Y116.193 E40.71242
G0 F9000 X117.458 Y116.735
G1 F1500 X117.156 Y117.037 E40.7323
G1 F2700 E35.7323
G0 F9000 X117.194 Y117.765
G0 X117.764 Y118.59
G0 X118.619 Y118.163
G0 X118.384 Y118.637
G1 F2700 E40.7323
G1 F1500 X118.269 Y118.752 E40.73988
G0 F9000 X118.629 Y118.958
G1 F1500 X118.335 Y119.252 E40.75924
G0 F9000 X118.803 Y119.35
G1 F1500 X118.383 Y119.77 E40.78689
G0 F9000 X118.97 Y119.748
G1 F1500 X118.359 Y120.36 E40.82716
G0 F9000 X118.205 Y121.079
G1 F1500 X119.115 Y120.169 E40.88709
;MESH:NONMESH
G0 F300 X119.115 Y120.169 Z1.4
G0 F9000 X119.604 Y120.167
G0 X117.733 Y115.518
G0 X118.032 Y114.676
G0 X112.595 Y115.362
G0 X112.258 Y115.19
G0 X110.976 Y114.639
G0 X111.198 Y115.518
G0 X111.308 Y115.518
;TIME_ELAPSED:73.972323
;LAYER:4
;TYPE:WALL-INNER
;MESH:Dickbutt_with_cavity.stl
G1 F1176.8 X111.712 Y115.257 E40.90948
G1 X112.063 Y115.065 E40.92811
G1 X112.553 Y114.849 E40.95305
G1 X112.29 Y114.76 E40.96598
G1 X112.19 Y114.715 E40.97108
G1 X111.778 Y114.711 E40.99027
G1 X111.559 Y114.59 E41.00192
G1 X111.337 Y114.396 E41.01565
G1 X110.939 Y113.752 E41.0509
G1 X110.805 Y113.513 E41.06366
G1 X110.48 Y113.003 E41.09182
G1 F949 X110.184 Y112.714 E41.1157
G1 F806 X110.073 Y112.522 E41.13078
G1 F848.2 X109.821 Y112.138 E41.16046
G1 F924.8 X109.49 Y111.611 E41.19733
G1 F974.6 X109.005 Y110.988 E41.24172
G1 F894.9 X108.671 Y110.67 E41.26996
G1 X108.79 Y111.115 E41.29817
G1 F974.6 X108.962 Y111.606 E41.32742
G1 X109.08 Y111.86 E41.34317
G1 F924.8 X109.361 Y112.407 E41.3796
G1 F854.3 X109.547 Y112.745 E41.40435
G1 F811.6 X109.671 Y113.01 E41.4241
G1 F845.1 X109.712 Y113.163 E41.43437
G1 F1021.1 X109.802 Y113.421 E41.44904
G1 F1176.8 X110.287 Y114.267 E41.49445
G1 X110.395 Y114.478 E41.50548
G1 X110.572 Y114.742 E41.52028
G1 X110.801 Y115.173 E41.54301
G1 X110.868 Y115.4 E41.55403
G1 X110.803 Y115.771 E41.57157
G1 X110.73 Y115.979 E41.58183
G1 X111.308 Y115.518 E41.61626
G0 F9000 X110.609 Y116.378
G0 X110.472 Y116.664
;TYPE:WALL-OUTER
G1 F712.1 X110.285 Y116.954 E41.64281
G1 F761.7 X110.048 Y117.35 E41.67601
G1 F779.3 X109.801 Y117.834 E41.71422
G1 F737.8 X109.562 Y118.371 E41.75787
G0 F9000 X109.333 Y119.034
G0 X109.236 Y119.611
G0 X109.284 Y120.637
G0 X109.468 Y121.465
G0 X109.923 Y122.502
G0 X110.652 Y123.48
G0 X112.573 Y125.118
G0 X113.104 Y125.313
G0 X112.194 Y125.583
G0 X112.194 Y125.695
;TYPE:WALL-INNER
G1 F1176.8 X112.561 Y125.655 E41.77506
G1 X112.819 Y125.602 E41.78733
G1 X113.215 Y125.48 E41.80662
G1 X113.504 Y125.327 E41.82185
G1 X113.64 Y125.232 E41.82957
G1 X113.148 Y125.13 E41.85297
G1 X112.771 Y125.019 E41.87127
G1 X112.414 Y124.887 E41.88899
G1 X112.101 Y124.746 E41.90498
G1 X111.73 Y124.549 E41.92454
G1 X111.309 Y124.275 E41.94793
G1 X110.893 Y123.944 E41.97268
G1 X110.548 Y123.603 E41.99527
G1 X110.273 Y123.292 E42.0146
G1 X110.035 Y122.973 E42.03313
G1 X109.768 Y122.561 E42.05599
G1 X109.518 Y122.056 E42.08223
G1 X109.326 Y121.555 E42.10722
G1 X109.187 Y121.014 E42.13323
G1 X109.127 Y120.68 E42.14903
G1 X109.078 Y120.219 E42.17061
G1 X109.005 Y120.462 E42.18243
G1 X108.922 Y120.803 E42.19877
G1 X108.86 Y121.156 E42.21546
G1 X108.826 Y121.498 E42.23146
G1 X108.806 Y121.86 E42.24835
G1 X108.804 Y122.207 E42.2645
G1 X108.82 Y122.548 E42.2804
G1 X108.867 Y122.871 E42.2956
G1 X108.933 Y123.169 E42.30981
G1 X109.028 Y123.469 E42.32446
G1 X109.146 Y123.729 E42.33776
G1 X109.285 Y123.986 E42.35136
G1 X109.454 Y124.239 E42.36553
G1 X109.646 Y124.481 E42.37992
G1 X109.874 Y124.703 E42.39473
G1 X110.131 Y124.915 E42.41025
G1 X110.405 Y125.095 E42.42551
G1 X110.71 Y125.264 E42.44175
G1 X110.985 Y125.398 E42.45599
G1 X111.277 Y125.516 E42.47066
G1 X111.686 Y125.65 E42.4907
G1 X112.194 Y125.695 E42.51445
G1 F2700 E37.51445
G0 F9000 X112.194 Y125.583
G0 X113.782 Y125.351
G0 X114.9 Y125.082
G0 X116.847 Y125.679
G1 F2700 E42.51445
G1 F1176.8 X117.258 Y125.621 E42.53377
G1 X117.526 Y125.55 E42.54668
G1 X117.849 Y125.433 E42.56268
G1 X118.114 Y125.317 E42.57615
G1 X118.427 Y125.157 E42.59252
G1 X118.719 Y124.983 E42.60835
G1 X118.981 Y124.793 E42.62342
G1 X119.228 Y124.57 E42.63891
G1 X119.441 Y124.33 E42.65385
G1 X119.623 Y124.072 E42.66855
G1 X119.781 Y123.789 E42.68365
G1 X119.915 Y123.49 E42.6989
G1 X120.022 Y123.174 E42.71444
G1 X120.088 Y122.852 E42.72974
G1 X120.131 Y122.472 E42.74755
G1 X120.148 Y122.101 E42.76485
G1 X120.145 Y121.717 E42.78273
G1 X120.113 Y121.34 E42.80034
G1 X120.061 Y120.959 E42.81825
G1 X119.982 Y120.598 E42.83546
G1 X119.865 Y120.188 E42.85531
G1 X119.789 Y120.785 E42.88333
G1 X119.712 Y121.168 E42.90152
G1 X119.599 Y121.575 E42.92119
G1 X119.417 Y122.047 E42.94475
G1 X119.232 Y122.432 E42.96464
G1 X119.018 Y122.803 E42.98458
G1 X118.71 Y123.233 E43.00921
G1 X118.472 Y123.516 E43.02643
G1 X118.104 Y123.888 E43.05079
G1 X117.704 Y124.218 E43.07494
G1 X117.296 Y124.492 E43.09782
G1 X116.936 Y124.695 E43.11707
G1 X116.572 Y124.864 E43.13576
G1 X116.259 Y124.989 E43.15145
G1 X115.873 Y125.107 E43.17025
G1 X115.34 Y125.227 E43.19569
G1 X115.29 Y125.231 E43.19802
G1 X115.524 Y125.398 E43.21141
G1 X115.904 Y125.535 E43.23022
G1 X116.173 Y125.607 E43.24318
G1 X116.444 Y125.653 E43.25598
G1 X116.847 Y125.679 E43.27479
G0 F9000 X116.713 Y126.071
;TYPE:WALL-OUTER
G1 F1176.8 X117.025 Y126.06 E43.28932
G1 X117.339 Y126.013 E43.30411
G1 X117.645 Y125.932 E43.31885
G1 X117.98 Y125.812 E43.33542
G1 X118.302 Y125.671 E43.35179
G1 X118.621 Y125.507 E43.36849
G1 X118.939 Y125.318 E43.38571
G1 X119.233 Y125.105 E43.40262
G1 X119.513 Y124.852 E43.42019
G1 X119.755 Y124.579 E43.43718
G1 X119.962 Y124.286 E43.45388
G1 X120.139 Y123.969 E43.47079
G1 X120.289 Y123.636 E43.48779
G1 X120.41 Y123.278 E43.50539
G1 X120.484 Y122.915 E43.52264
G1 X120.53 Y122.52 E43.54116
G1 X120.548 Y122.099 E43.56078
G1 X120.545 Y121.709 E43.57894
G1 X120.51 Y121.287 E43.59866
G1 X120.456 Y120.896 E43.61704
G1 X120.368 Y120.493 E43.63624
G1 X120.266 Y120.12 E43.65425
G1 X120.137 Y119.736 E43.67311
G1 X119.998 Y119.376 E43.69108
G1 X119.659 Y118.609 E43.73013
G1 F871.7 X119.347 Y118.285 E43.75841
G1 X119.326 Y118.733 E43.7866
G1 F1176.8 X119.4 Y119.093 E43.80371
G1 X119.444 Y119.454 E43.82065
G1 X119.462 Y119.799 E43.83673
G1 X119.453 Y120.267 E43.85853
G1 X119.4 Y120.692 E43.87847
G1 X119.33 Y121.047 E43.89532
G1 X119.207 Y121.488 E43.91664
G1 X119.039 Y121.913 E43.93792
G1 X118.885 Y122.232 E43.95441
G1 X118.671 Y122.603 E43.97436
G1 X118.397 Y122.981 E43.9961
G1 X118.165 Y123.258 E44.01292
G1 X117.849 Y123.579 E44.03389
G1 X117.449 Y123.909 E44.05804
G1 X117.061 Y124.167 E44.07974
G1 X116.75 Y124.341 E44.09633
G1 X116.425 Y124.492 E44.11302
G1 X116.111 Y124.617 E44.12875
G1 X115.745 Y124.727 E44.14655
G1 X115.295 Y124.829 E44.16804
G1 X114.893 Y124.874 E44.18687
G1 F1084.6 X114.758 Y124.921 E44.19409
G1 F862.1 X114.486 Y124.999 E44.21208
G1 F807.4 X114.607 Y125.066 E44.22147
G1 F999.4 X114.755 Y125.232 E44.23366
G1 F1176.8 X115.05 Y125.563 E44.25431
G1 X115.267 Y125.705 E44.26638
G1 X115.503 Y125.816 E44.27852
G1 X115.784 Y125.917 E44.29243
G1 X116.088 Y125.999 E44.30709
G1 X116.398 Y126.051 E44.32173
G1 X116.713 Y126.071 E44.33642
G1 F2700 E39.33642
G0 F9000 X116.704 Y125.569
G0 X114.9 Y125.082
G0 X114.048 Y125.081
G0 X112.039 Y126.083
G1 F2700 E44.33642
G1 F1176.8 X112.318 Y126.084 E44.34942
G1 X112.624 Y126.051 E44.36375
G1 X112.918 Y125.99 E44.37773
G1 X113.211 Y125.9 E44.392
G1 X113.476 Y125.794 E44.40529
G1 X113.71 Y125.671 E44.4176
G1 X113.928 Y125.518 E44.43
G1 F1139.8 X114.211 Y125.192 E44.45076
G1 F1003.7 X114.258 Y125.106 E44.45611
G1 F825.8 X114.424 Y125.004 E44.46904
G1 F893.2 X114.096 Y124.89 E44.49034
G1 F1139.8 X113.697 Y124.836 E44.5097
G1 F1176.8 X113.259 Y124.745 E44.53053
G1 X112.909 Y124.643 E44.5475
G1 X112.578 Y124.521 E44.56393
G1 X112.252 Y124.375 E44.58056
G1 X111.923 Y124.198 E44.59796
G1 X111.574 Y123.973 E44.61729
G1 X111.15 Y123.637 E44.64248
G1 X110.822 Y123.31 E44.66405
G1 X110.583 Y123.039 E44.68088
G1 X110.362 Y122.742 E44.69811
G1 X110.12 Y122.37 E44.71878
G1 X109.885 Y121.894 E44.7435
G1 X109.7 Y121.412 E44.76754
G1 X109.581 Y120.944 E44.79002
G1 X109.519 Y120.594 E44.80657
G1 X109.476 Y120.177 E44.82609
G1 X109.475 Y119.613 E44.85236
G1 F1179.8 X109.522 Y119.188 E44.87222
G1 F1210.1 X109.596 Y118.837 E44.88846
G1 F896.6 X109.562 Y118.371 E44.91702
G1 F748.4 X109.474 Y118.455 E44.92592
G1 F972.6 X109.239 Y118.711 E44.9455
G1 F1216.3 X109.105 Y119.015 E44.96047
G1 F1185.7 X108.843 Y119.67 E44.99307
G1 F1176.8 X108.724 Y120.011 E45.00989
G1 X108.619 Y120.355 E45.02664
G1 X108.531 Y120.717 E45.04399
G1 X108.464 Y121.096 E45.06191
G1 X108.426 Y121.476 E45.07969
G1 X108.406 Y121.84 E45.09666
G1 X108.404 Y122.215 E45.11413
G1 X108.422 Y122.586 E45.13142
G1 X108.473 Y122.943 E45.14821
G1 X108.547 Y123.274 E45.16401
G1 X108.654 Y123.612 E45.18052
G1 X108.787 Y123.907 E45.19558
G1 X108.942 Y124.193 E45.21073
G1 X109.13 Y124.475 E45.22651
G1 X109.348 Y124.749 E45.24282
G1 X109.606 Y125.002 E45.25964
G1 X109.894 Y125.237 E45.27695
G1 X110.197 Y125.437 E45.29386
G1 X110.535 Y125.624 E45.31184
G1 X110.822 Y125.763 E45.32669
G1 X111.139 Y125.892 E45.34263
G1 X111.459 Y125.996 E45.3583
G1 X111.743 Y126.056 E45.37181
G1 X112.039 Y126.083 E45.38565
G1 F2700 E40.38565
G0 F9000 X112.05 Y125.581
G0 X112.923 Y125.393
G0 X113.674 Y125.054
G0 X113.836 Y123.981
G0 X118.591 Y120.198
G0 X119.347 Y118.285
G1 F2700 E45.38565
G1 F716.5 X119.152 Y117.85 E45.42211
G1 F748.4 X118.992 Y117.527 E45.44851
G1 X118.773 Y117.131 E45.48164
G1 F702.6 X118.502 Y116.693 E45.52181
G0 F9000 X118.382 Y116.429
G0 X117.708 Y115.451
G0 X117.706 Y115.574
;TYPE:WALL-INNER
G1 F1176.8 X118.073 Y115.881 E45.54409
G1 X118.253 Y116.055 E45.55575
G1 X118.273 Y115.972 E45.55972
G1 X118.161 Y115.707 E45.57312
G1 X118.115 Y115.407 E45.58725
G1 X118.172 Y115.209 E45.59685
G1 X118.479 Y114.664 E45.62597
G1 X118.882 Y113.992 E45.66246
G1 X119.083 Y113.619 E45.68219
G1 F947.1 X119.19 Y113.239 E45.70503
G1 F796.5 X119.349 Y112.983 E45.72576
G1 F831.7 X119.573 Y112.518 E45.75977
G1 F900.1 X119.824 Y112.066 E45.79125
G1 F935.8 X120.143 Y111.312 E45.83919
G1 F923 X120.211 Y110.999 E45.8582
G1 F870.1 X120.312 Y110.715 E45.87719
G1 F881.5 X120.018 Y110.999 E45.9026
G1 F935.8 X119.614 Y111.506 E45.94056
G1 X119.388 Y111.821 E45.96326
G1 F901.8 X119.123 Y112.22 E45.99236
G1 F834.6 X118.842 Y112.686 E46.02809
G1 F796.5 X118.69 Y112.921 E46.04735
G1 F947.1 X118.382 Y113.216 E46.07202
G1 F1176.8 X117.938 Y113.939 E46.11153
G1 X117.723 Y114.338 E46.13263
G1 X117.418 Y114.624 E46.1521
G1 X117.038 Y114.737 E46.17056
G1 X116.741 Y114.733 E46.18439
G1 X116.438 Y114.863 E46.19975
G1 X116.958 Y115.108 E46.22651
G1 X117.296 Y115.3 E46.24461
G1 X117.706 Y115.574 E46.26758
G0 F9000 X117.708 Y115.451
G0 X118.382 Y116.429
G0 X118.482 Y116.682
;TYPE:WALL-OUTER
G1 F988.9 X118.619 Y116.266 E46.29184
G1 F1176.8 X118.68 Y115.998 E46.30464
G1 X118.654 Y115.844 E46.31192
G1 X118.49 Y115.458 E46.33144
G1 X118.822 Y114.87 E46.36289
G1 X119.225 Y114.199 E46.39933
G1 X119.508 Y113.673 E46.42715
G1 X119.789 Y113.21 E46.45237
G1 X120.012 Y112.694 E46.47854
G1 X120.23 Y112.264 E46.50099
G1 X120.576 Y111.446 E46.54235
G1 X120.627 Y111.198 E46.55414
G1 X120.756 Y110.929 E46.56803
G1 X121.158 Y110.659 E46.59058
G1 X121.293 Y110.443 E46.60244
G1 X121.288 Y110.432 E46.603
G1 X120.324 Y109.991 E46.65236
G1 X120.226 Y110.035 E46.65736
G1 X120.056 Y110.256 E46.67035
G1 X120.03 Y110.306 E46.67297
G1 X119.675 Y110.705 E46.69784
G1 X119.257 Y111.229 E46.72905
G1 X118.674 Y112.043 E46.77567
G1 F1179.8 X118.067 Y112.96 E46.82675
G1 X117.596 Y113.73 E46.86868
G1 F1176.8 X117.393 Y114.102 E46.88841
G1 X117.182 Y114.281 E46.90129
G1 X117.003 Y114.339 E46.91006
G1 X116.663 Y114.33 E46.92589
G1 X116.341 Y114.47 E46.94224
G1 F1115.5 X115.992 Y114.578 E46.96019
G1 F1014.5 X115.472 Y114.464 E46.98894
G1 F974.6 X115.222 Y114.428 E47.00315
G1 F978.6 X114.728 Y114.384 E47.03092
G1 X114.461 Y114.379 E47.04587
G1 F980.7 X114.196 Y114.385 E47.06068
G1 X113.939 Y114.406 E47.07509
G1 F976.6 X113.524 Y114.457 E47.09855
G1 F966.6 X112.953 Y114.577 E47.13163
G1 F1057.8 X112.681 Y114.471 E47.14675
G1 F1176.8 X112.418 Y114.381 E47.15969
G1 X112.298 Y114.317 E47.16603
G1 X111.868 Y114.311 E47.18605
G1 X111.653 Y114.15 E47.19856
G1 X111.288 Y113.556 E47.23102
G1 X111.149 Y113.308 E47.24426
G1 X110.475 Y112.247 E47.30279
G1 X110.278 Y111.977 E47.31835
G1 X109.85 Y111.356 E47.35347
G1 X109.346 Y110.707 E47.39173
G1 X109.203 Y110.551 E47.40159
G1 X108.962 Y110.261 E47.41915
G1 X108.82 Y110.068 E47.4303
G1 X108.665 Y109.974 E47.43874
G1 X107.715 Y110.407 E47.48736
G1 X107.869 Y110.641 E47.5004
G1 X108.238 Y110.879 E47.52085
G1 X108.548 Y111.762 E47.56442
G1 X108.943 Y112.615 E47.6082
G1 X109.093 Y112.914 E47.62377
G1 X109.237 Y113.27 E47.64165
G1 X109.463 Y113.633 E47.66157
G1 X109.931 Y114.451 E47.70545
G1 X110.05 Y114.681 E47.71751
G1 X110.236 Y114.962 E47.7332
G1 X110.455 Y115.374 E47.75492
G1 X110.422 Y115.649 E47.76782
G1 X110.309 Y115.907 E47.78094
G1 X110.382 Y116.308 E47.79992
G1 F1087.1 X110.414 Y116.361 E47.80304
G1 F901.8 X110.477 Y116.661 E47.82166
G1 F964.6 X110.83 Y116.47 E47.84446
G1 F1176.8 X111.138 Y116.167 E47.86458
G1 X111.558 Y115.831 E47.88963
G1 X111.939 Y115.588 E47.91067
G1 X112.253 Y115.417 E47.92732
G1 F1057.8 X113.078 Y115.049 E47.97411
G1 F968.6 X113.449 Y114.961 E47.99569
G1 F980.7 X113.81 Y114.903 E48.01612
G1 F982.7 X114.236 Y114.862 E48.03998
G1 X114.795 Y114.868 E48.07115
G1 F978.6 X115.305 Y114.925 E48.09989
G1 F966.6 X115.853 Y115.05 E48.13175
G1 F1057.8 X116.248 Y115.23 E48.15424
G1 F1176.8 X116.439 Y115.305 E48.16379
G1 X116.762 Y115.457 E48.18042
G1 X117.076 Y115.634 E48.1972
G1 X117.434 Y115.87 E48.21717
G1 X117.784 Y116.158 E48.23827
G1 X118.097 Y116.465 E48.25869
G1 F988.9 X118.482 Y116.682 E48.28318
G0 F9000 X118.382 Y116.429
G0 X118.228 Y115.446
G0 X119.957 Y111.342
G0 X120.312 Y110.715
;TYPE:WALL-INNER
G1 F831.7 X120.433 Y110.571 E48.29557
G0 F9000 X117.585 Y114.251
G0 X117.327 Y114.481
G0 X116.032 Y114.788
G0 X113.956 Y114.604
G0 X112.881 Y114.789
G0 X111.775 Y114.546
G0 X111.539 Y114.37
G0 X109.048 Y111.329
G0 X108.671 Y110.67
G1 F830.2 X108.574 Y110.546 E48.30596
G0 F9000 X109.909 Y113.402
G0 X110.167 Y113.256
;TYPE:SKIN
G1 F954.8 X110.455 Y113.731 E48.33784
G1 F917.6 X110.758 Y114.261 E48.3743
G1 F908.7 X110.933 Y114.534 E48.39385
G1 F903.5 X111.001 Y114.655 E48.40227
G1 F791.1 X111.249 Y114.972 E48.43015
G0 F9000 X111.456 Y115.299
G0 X113.773 Y114.706
G0 X114.795 Y114.667
G0 X115.535 Y114.802
G0 X117.602 Y114.59
G0 X117.727 Y114.989
G1 F735.5 X117.82 Y114.886 E48.44049
G1 F852.8 X118.049 Y114.595 E48.46428
G1 F928.5 X118.306 Y114.14 E48.49512
G1 F914 X118.514 Y113.798 E48.51912
G1 F937.7 X118.702 Y113.47 E48.54121
G1 F2700 E43.54121
G0 F9000 X119.012 Y113.317
G0 X118.228 Y115.446
G0 X118.41 Y116.504
G0 X117.677 Y117.291
G0 X117.266 Y122.94
G0 X116.529 Y125.289
G1 F2700 E48.54121
G1 F1131.6 X116.957 Y125.294 E48.56194
G1 X117.298 Y125.241 E48.57865
G1 X117.687 Y125.1 E48.59869
G1 X117.978 Y124.974 E48.61405
G1 F1105 X118.238 Y124.829 E48.62881
G1 F1050.7 X118.513 Y124.65 E48.64592
G1 F1012.3 X118.731 Y124.485 E48.66072
G1 F993.1 X118.944 Y124.287 E48.67677
G1 F991 X119.129 Y124.083 E48.692
G1 F1010.1 X119.292 Y123.862 E48.70689
G1 F1046.1 X119.441 Y123.618 E48.72187
G1 F1072.3 X119.562 Y123.349 E48.73694
G1 X119.661 Y123.062 E48.75246
G1 X119.715 Y122.776 E48.76733
G1 X119.752 Y122.447 E48.78425
G1 X119.763 Y122.206 E48.79658
G1 X119.562 Y122.623 E48.82024
G1 X119.336 Y123.011 E48.84318
G1 F1062.6 X119.007 Y123.479 E48.87269
G1 F1025.5 X118.734 Y123.817 E48.8959
G1 F1001.5 X118.416 Y124.137 E48.92058
G1 F1048.4 X117.943 Y124.506 E48.95194
G1 F1112.8 X117.436 Y124.838 E48.98178
G1 F1131.6 X117.076 Y125.038 E49.00173
G1 X116.529 Y125.289 E49.03087
G1 F2700 E44.03087
G0 F9000 X116.511 Y125.556
G0 X114.9 Y125.082
G0 X114.048 Y125.081
G0 X111.764 Y125.326
G1 F2700 E49.03087
G1 F1368.4 X112.362 Y125.355 E49.05485
G1 X112.595 Y125.307 E49.06437
G1 X112.275 Y125.189 E49.07803
G1 X111.953 Y125.045 E49.09216
G1 F1307.6 X111.549 Y124.847 E49.11101
G1 F1179.8 X111.073 Y124.563 E49.13676
G1 F1069.8 X110.578 Y124.183 E49.16872
G1 F1018.9 X110.227 Y123.834 E49.19534
G1 F1034.6 X109.981 Y123.541 E49.2156
G1 F1110.2 X109.725 Y123.159 E49.2383
G1 F1055.4 X109.541 Y122.953 E49.25264
G1 F831.7 X109.341 Y122.783 E49.26994
G1 X109.32 Y123.046 E49.28732
G1 F1055.4 X109.363 Y123.328 E49.30213
G1 F1139.8 X109.541 Y123.686 E49.32135
G1 F1067.4 X109.758 Y123.994 E49.3407
G1 F1014.5 X109.94 Y124.215 E49.35616
G1 F1005.8 X110.144 Y124.415 E49.37172
G1 F1016.7 X110.362 Y124.6 E49.38713
G1 F1043.7 X110.597 Y124.763 E49.40215
G1 F1089.6 X110.861 Y124.923 E49.41767
G1 F1145.3 X111.129 Y125.065 E49.43218
G1 F1210.1 X111.39 Y125.185 E49.44519
G1 F1307.6 X111.764 Y125.326 E49.46194
G1 F2700 E44.46194
;MESH:NONMESH
G0 F300 X111.764 Y125.326 Z1.68
G0 F9000 X111.726 Y125.54
G0 X112.785 Y125.445
G0 X113.104 Y125.313
G0 X112.588 Y125.075
G0 X111 Y123.796
G0 X111.718 Y122.984
G0 X111.259 Y117.294
G0 X110.583 Y116.153
;TIME_ELAPSED:90.027139
;LAYER:5
;TYPE:WALL-INNER
;MESH:Dickbutt_with_cavity.stl
G1 F2700 E49.46194
G1 F1236 X110.904 Y115.84 E49.48282
G1 X111.319 Y115.51 E49.50751
G1 X111.749 Y115.235 E49.53128
G1 X112.103 Y115.045 E49.54998
G1 X112.498 Y114.869 E49.57012
G1 F1163.3 X112.939 Y114.696 E49.59356
G1 F1139.2 X112.698 Y114.678 E49.60577
G1 F1208.8 X112.38 Y114.594 E49.62143
G1 F1236 X112.095 Y114.484 E49.63565
G1 X111.69 Y114.458 E49.65455
G1 X111.422 Y114.346 E49.66807
G1 X111.138 Y114.068 E49.68658
G1 F1103.6 X110.902 Y113.675 E49.71049
G1 F908.8 X110.598 Y113.406 E49.73619
G1 F859.8 X110.13 Y112.677 E49.79418
G1 F886 X109.794 Y112.29 E49.82747
G1 X109.512 Y111.927 E49.85733
G1 X109.175 Y111.558 E49.88979
G1 X109.232 Y111.763 E49.90361
G1 X109.351 Y112.053 E49.92397
G1 X109.493 Y112.453 E49.95154
G1 X109.653 Y112.957 E49.98589
G1 F882.8 X109.876 Y113.321 E50.01372
G1 F856.8 X110.095 Y113.712 E50.04382
G1 F996.8 X110.182 Y114.106 E50.06712
G1 F1236 X110.315 Y114.375 E50.08109
G1 X110.549 Y114.781 E50.10291
G1 X110.673 Y115.29 E50.12731
G1 X110.649 Y115.629 E50.14313
G1 X110.542 Y115.911 E50.15718
G1 X110.583 Y116.153 E50.16861
G0 F9000 X110.999 Y115.637
G0 X113.029 Y114.862
G0 X113.874 Y114.69
G0 X114.794 Y114.667
G0 X115.815 Y114.837
G0 X117.975 Y115.667
G0 X118.395 Y116.199
G1 F1236 X118.45 Y115.943 E50.1808
G1 X118.33 Y115.651 E50.1955
G1 X118.301 Y115.434 E50.20569
G1 X118.341 Y115.094 E50.22163
G1 X118.535 Y114.628 E50.24514
G1 F1106 X118.844 Y114.056 E50.27897
G1 F927.6 X118.941 Y113.615 E50.30699
G1 F873.5 X119.329 Y113.008 E50.35445
G1 F892.4 X119.833 Y111.566 E50.45296
G1 F898.9 X119.537 Y111.883 E50.48073
G1 X119.185 Y112.325 E50.51691
G1 X118.998 Y112.528 E50.53458
G1 F895.6 X118.83 Y112.751 E50.55252
G1 F865.8 X118.428 Y113.365 E50.60131
G1 F1000.8 X118.118 Y113.652 E50.6256
G1 F1236 X117.776 Y114.17 E50.6545
G1 X117.38 Y114.452 E50.67714
G1 X117.12 Y114.496 E50.68942
G1 X116.877 Y114.487 E50.70074
G1 F1202.9 X116.417 Y114.67 E50.72443
G1 F1141.8 X115.973 Y114.697 E50.74685
G1 F1152.4 X116.216 Y114.784 E50.75974
G1 F1214.7 X116.572 Y114.927 E50.77792
G1 F1236 X116.919 Y115.087 E50.79571
G1 X117.26 Y115.279 E50.81393
G1 X117.706 Y115.574 E50.83883
G1 X118.078 Y115.884 E50.86138
G1 X118.395 Y116.199 E50.88219
G1 F2700 E45.88219
G0 F9000 X117.975 Y115.667
G0 X118.52 Y116.607
G0 X117.677 Y117.291
G0 X117.266 Y122.94
G0 X116.477 Y125.856
G1 F2700 E50.88219
G1 F1236 X116.753 Y125.867 E50.89505
G1 X117.036 Y125.852 E50.90825
G1 X117.323 Y125.808 E50.92177
G1 X117.598 Y125.735 E50.93501
G1 X117.914 Y125.616 E50.95074
G1 X118.231 Y125.475 E50.96689
G1 X118.544 Y125.315 E50.98326
G1 X118.843 Y125.134 E50.99954
G1 X119.12 Y124.922 E51.01578
G1 X119.375 Y124.683 E51.03205
G1 X119.599 Y124.426 E51.04793
G1 X119.787 Y124.148 E51.06355
G1 X119.944 Y123.857 E51.07895
G1 X120.074 Y123.544 E51.09473
G1 X120.181 Y123.199 E51.11155
G1 X120.254 Y122.853 E51.12802
G1 X120.293 Y122.454 E51.14668
G1 X120.304 Y122.064 E51.16485
G1 X120.289 Y121.664 E51.18349
G1 X120.246 Y121.296 E51.20074
G1 X120.18 Y120.915 E51.21875
G1 X120.091 Y120.547 E51.23638
G1 X119.987 Y120.2 E51.25325
G1 X119.87 Y119.866 E51.26972
G1 X119.844 Y120.357 E51.29262
G1 X119.79 Y120.786 E51.31275
G1 X119.722 Y121.125 E51.32885
G1 X119.592 Y121.596 E51.3516
G1 X119.418 Y122.046 E51.37407
G1 X119.252 Y122.392 E51.39194
G1 X119.018 Y122.802 E51.41392
G1 X118.716 Y123.225 E51.43812
G1 X118.477 Y123.51 E51.45544
G1 X118.104 Y123.888 E51.48017
G1 X117.654 Y124.254 E51.50718
G1 X117.296 Y124.493 E51.52722
G1 X116.935 Y124.696 E51.54651
G1 X116.56 Y124.869 E51.56574
G1 X116.259 Y124.989 E51.58083
G1 X115.873 Y125.107 E51.59962
G1 X115.407 Y125.215 E51.6219
G1 X115.106 Y125.253 E51.63602
G1 X115.25 Y125.41 E51.64594
G1 X115.551 Y125.625 E51.66317
G1 X115.932 Y125.752 E51.68187
G1 X116.202 Y125.817 E51.6948
G1 X116.477 Y125.856 E51.70773
G0 F9000 X116.474 Y125.755
G0 X114.855 Y125.217
G0 X114.526 Y125.083
G0 X112.402 Y125.885
G1 F1236 X112.775 Y125.818 E51.72538
G1 X113.034 Y125.75 E51.73785
G1 X113.406 Y125.611 E51.75634
G1 X113.648 Y125.449 E51.7699
G1 X113.818 Y125.269 E51.78143
G1 X113.194 Y125.141 E51.81109
G1 X112.805 Y125.03 E51.82993
G1 X112.415 Y124.887 E51.84927
G1 X112.089 Y124.741 E51.8659
G1 X111.735 Y124.552 E51.88459
G1 X111.309 Y124.275 E51.90825
G1 X110.889 Y123.94 E51.93326
G1 X110.548 Y123.603 E51.95559
G1 X110.279 Y123.3 E51.97446
G1 X110.057 Y123.005 E51.99165
G1 X109.763 Y122.55 E52.01687
G1 X109.534 Y122.09 E52.0408
G1 X109.305 Y121.488 E52.07079
G1 X109.187 Y121.013 E52.09358
G1 X109.129 Y120.685 E52.10909
G1 X109.077 Y120.225 E52.13065
G1 X109.075 Y119.899 E52.14583
G1 X108.993 Y120.113 E52.1565
G1 X108.895 Y120.425 E52.17173
G1 X108.805 Y120.772 E52.18842
G1 X108.735 Y121.111 E52.20454
G1 X108.683 Y121.481 E52.22193
G1 X108.655 Y121.854 E52.23935
G1 X108.647 Y122.227 E52.25672
G1 X108.663 Y122.572 E52.27281
G1 X108.707 Y122.901 E52.28826
G1 X108.783 Y123.237 E52.3043
G1 X108.878 Y123.543 E52.31922
G1 X108.995 Y123.821 E52.33327
G1 X109.136 Y124.092 E52.34749
G1 X109.303 Y124.353 E52.36192
G1 X109.508 Y124.605 E52.37705
G1 X109.746 Y124.85 E52.39295
G1 X110.002 Y125.07 E52.40867
G1 X110.285 Y125.258 E52.42449
G1 X110.605 Y125.436 E52.44154
G1 X110.914 Y125.587 E52.45755
G1 X111.191 Y125.706 E52.47159
G1 X111.473 Y125.801 E52.48545
G1 X111.75 Y125.858 E52.49862
G1 X112.027 Y125.884 E52.51157
G1 X112.402 Y125.885 E52.52903
G0 F9000 X111.69 Y126.254
;TYPE:WALL-OUTER
G1 F1236 X112.007 Y126.284 E52.54386
G1 X112.438 Y126.285 E52.56393
G1 X112.862 Y126.209 E52.58399
G1 X113.154 Y126.132 E52.59805
G1 X113.43 Y126.03 E52.61175
G1 X113.677 Y125.91 E52.62454
G1 X113.908 Y125.757 E52.63744
G1 F1202.9 X114.276 Y125.357 E52.66344
G1 F1166 X114.485 Y125.328 E52.67386
G1 F1194.2 X114.715 Y125.417 E52.68574
G1 F1232.9 X114.983 Y125.712 E52.70435
G1 F1236 X115.291 Y125.93 E52.72192
G1 X115.533 Y126.04 E52.7343
G1 X115.821 Y126.137 E52.74845
G1 X116.127 Y126.211 E52.76311
G1 X116.441 Y126.255 E52.77787
G1 X116.756 Y126.268 E52.79255
G1 X117.078 Y126.25 E52.80757
G1 X117.405 Y126.2 E52.82297
G1 X117.72 Y126.116 E52.83815
G1 X118.066 Y125.986 E52.85536
G1 X118.403 Y125.836 E52.87254
G1 X118.738 Y125.665 E52.89005
G1 X119.069 Y125.466 E52.90804
G1 X119.379 Y125.228 E52.92624
G1 X119.663 Y124.961 E52.94439
G1 X119.917 Y124.671 E52.96234
G1 X120.13 Y124.356 E52.98004
G1 X120.306 Y124.029 E52.99734
G1 X120.451 Y123.68 E53.01493
G1 X120.569 Y123.299 E53.03351
G1 X120.65 Y122.914 E53.05183
G1 X120.692 Y122.498 E53.07129
G1 X120.705 Y122.078 E53.09086
G1 X120.687 Y121.619 E53.11225
G1 X120.643 Y121.247 E53.12969
G1 X120.569 Y120.821 E53.14983
G1 X120.475 Y120.433 E53.16842
G1 X120.373 Y120.089 E53.18512
G1 X120.232 Y119.692 E53.20474
G1 X120.148 Y119.484 E53.21519
G1 F1232.9 X119.941 Y118.994 E53.24002
G1 F1182.8 X119.777 Y118.683 E53.25712
G1 F1208.8 X119.553 Y118.152 E53.28456
G1 F1314.9 X119.193 Y117.399 E53.3211
G1 F1307.9 X118.914 Y116.865 E53.34761
G1 F1258 X118.778 Y116.567 E53.36259
G1 F1245.3 X118.794 Y116.218 E53.37874
G1 F1236 X118.853 Y115.985 E53.38993
G1 X118.834 Y115.822 E53.39757
G1 X118.71 Y115.527 E53.41247
G1 X118.711 Y115.243 E53.4257
G1 X118.913 Y114.764 E53.4499
G1 F1239.1 X119.229 Y114.187 E53.48046
G1 X119.48 Y113.665 E53.50736
G1 F1236 X119.756 Y113.226 E53.53151
G1 X120.307 Y111.648 E53.60934
G1 X120.352 Y111.339 E53.62388
G1 X120.354 Y111.072 E53.63631
G1 X120.417 Y110.88 E53.64572
G1 F1047.4 X120.373 Y110.816 E53.64999
G1 F908.8 X120.526 Y110.716 E53.66156
G1 X120.988 Y110.605 E53.69165
G1 X121.241 Y110.43 E53.71113
G1 X120.518 Y110.054 E53.76274
G1 X120.37 Y110.254 E53.7785
G1 X120.332 Y110.54 E53.79677
G1 X120.247 Y110.702 E53.80835
G1 F1047.4 X120.18 Y110.665 E53.81256
G1 F1236 X119.698 Y111.015 E53.8403
G1 X119.179 Y111.569 E53.87564
G1 X118.802 Y112.041 E53.90377
G1 X118.643 Y112.211 E53.91461
G1 X118.446 Y112.465 E53.92958
G1 X118.291 Y112.707 E53.94296
G1 F1239.1 X117.959 Y113.164 E53.9692
G1 X117.484 Y113.881 E54.00915
G1 F1236 X117.188 Y114.099 E54.02626
G1 X116.809 Y114.083 E54.04393
G1 X116.331 Y114.273 E54.06788
G1 X116.025 Y114.278 E54.08213
G1 X115.749 Y114.214 E54.09532
G1 X115.498 Y114.169 E54.1072
G1 X114.987 Y114.108 E54.13116
G1 X114.72 Y114.092 E54.14361
G1 X114.178 Y114.086 E54.16885
G1 X113.886 Y114.108 E54.18249
G1 X113.517 Y114.155 E54.19981
G1 X112.861 Y114.278 E54.23089
G1 X112.552 Y114.229 E54.24546
G1 X112.159 Y114.081 E54.26501
G1 X111.855 Y114.095 E54.27918
G1 X111.649 Y114.006 E54.28963
G1 X111.45 Y113.81 E54.30264
G1 X111.209 Y113.41 E54.32438
G1 X110.858 Y112.918 E54.35252
G1 X110.513 Y112.387 E54.38201
G1 X110.174 Y111.998 E54.40604
G1 X109.898 Y111.64 E54.42709
G1 X109.32 Y111.007 E54.467
G1 X109.104 Y110.847 E54.47952
G1 F1202.9 X108.999 Y110.79 E54.48523
G1 F1136.5 X108.713 Y110.472 E54.50689
G1 F998.8 X108.542 Y110.076 E54.53175
G1 F912.2 X108.467 Y110.037 E54.53708
G1 X107.736 Y110.413 E54.58894
G1 X108.043 Y110.583 E54.61109
G1 F931.1 X108.385 Y110.663 E54.6328
G1 F1111 X108.531 Y110.826 E54.64413
G1 F1284.1 X108.652 Y111.094 E54.65731
G1 F1236 X108.625 Y111.36 E54.66976
G1 X108.776 Y111.915 E54.69654
G1 X108.902 Y112.223 E54.71204
G1 X109.036 Y112.598 E54.73058
G1 X109.238 Y113.236 E54.76174
G1 X109.483 Y113.602 E54.78225
G1 X109.954 Y114.55 E54.83154
G1 X110.181 Y114.95 E54.85296
G1 X110.282 Y115.374 E54.87325
G1 X110.274 Y115.487 E54.87853
G1 X110.137 Y115.85 E54.8966
G1 X110.205 Y116.296 E54.9176
G1 F1270.9 X110.19 Y116.58 E54.93048
G1 F1343.5 X109.841 Y117.239 E54.96243
G1 F1384.9 X109.58 Y117.764 E54.98679
G1 F1329 X109.286 Y118.395 E55.01694
G1 F1254.8 X108.877 Y119.302 E55.06257
G1 F1236 X108.612 Y119.992 E55.09699
G1 X108.508 Y120.324 E55.11319
G1 X108.416 Y120.677 E55.13018
G1 X108.339 Y121.051 E55.14796
G1 X108.285 Y121.438 E55.16615
G1 X108.255 Y121.823 E55.18413
G1 X108.247 Y122.245 E55.20379
G1 X108.264 Y122.608 E55.22071
G1 X108.313 Y122.971 E55.23776
G1 X108.396 Y123.341 E55.25542
G1 X108.502 Y123.68 E55.27196
G1 X108.632 Y123.991 E55.28766
G1 X108.79 Y124.293 E55.30353
G1 X108.978 Y124.587 E55.31978
G1 X109.208 Y124.871 E55.33679
G1 X109.472 Y125.142 E55.35441
G1 X109.76 Y125.39 E55.37211
G1 X110.077 Y125.6 E55.38981
G1 X110.427 Y125.794 E55.40845
G1 X110.73 Y125.944 E55.42419
G1 X111.049 Y126.08 E55.44034
G1 X111.369 Y126.188 E55.45606
G1 X111.69 Y126.254 E55.47132
G1 F2700 E50.47132
G0 F9000 X111.793 Y125.76
G0 X112.666 Y125.666
G0 X114.245 Y125.134
G1 F2700 E55.47132
G0 F9000 X114.255 Y124.914
G1 F1171.6 X113.697 Y124.836 E55.499
G1 F1236 X113.259 Y124.745 E55.51983
G1 X112.91 Y124.643 E55.53676
G1 X112.578 Y124.521 E55.55323
G1 X112.252 Y124.375 E55.56987
G1 X111.923 Y124.198 E55.58726
G1 X111.558 Y123.961 E55.60753
G1 X111.149 Y123.636 E55.63185
G1 X110.822 Y123.31 E55.65335
G1 X110.583 Y123.039 E55.67018
G1 X110.366 Y122.748 E55.68708
G1 X110.132 Y122.39 E55.707
G1 X109.885 Y121.894 E55.7328
G1 X109.693 Y121.39 E55.75791
G1 X109.581 Y120.943 E55.77937
G1 X109.523 Y120.615 E55.79488
G1 X109.475 Y120.181 E55.81521
G1 X109.476 Y119.613 E55.84166
G1 X109.523 Y119.173 E55.86226
G1 X109.586 Y118.834 E55.87832
G1 F1261.2 X109.703 Y118.398 E55.89892
G1 F1336.2 X109.905 Y117.906 E55.92183
G1 F1384.9 X110.151 Y117.416 E55.94461
G1 F1332.6 X110.385 Y117.029 E55.96414
G1 F1264.4 X110.595 Y116.741 E55.98037
G1 F1239.1 X110.819 Y116.481 E55.99631
G1 F1236 X111.138 Y116.167 E56.01715
G1 X111.561 Y115.828 E56.04239
G1 X111.939 Y115.587 E56.06327
G1 X112.267 Y115.411 E56.0806
G1 X112.677 Y115.228 E56.10151
G1 X113.102 Y115.089 E56.12233
G1 X113.465 Y115 E56.13973
G1 X113.913 Y114.927 E56.16087
G1 X114.341 Y114.902 E56.18083
G1 X114.711 Y114.905 E56.19806
G1 X114.79 Y114.907 E56.20174
G1 X115.299 Y114.966 E56.2256
G1 X115.761 Y115.069 E56.24764
G1 X116.129 Y115.184 E56.26559
G1 X116.439 Y115.305 E56.28109
G1 X116.762 Y115.457 E56.29771
G1 X117.064 Y115.627 E56.31385
G1 X117.434 Y115.87 E56.33446
G1 X117.8 Y116.172 E56.35656
G1 X118.052 Y116.417 E56.37292
G1 F1239.1 X118.356 Y116.752 E56.39393
G1 F1270.9 X118.662 Y117.194 E56.41828
G1 F1325.5 X118.876 Y117.583 E56.43756
G1 F1343.5 X119.029 Y117.899 E56.4526
G1 F1304.5 X119.207 Y118.324 E56.47292
G1 F1205.8 X119.372 Y118.833 E56.49846
G1 F1188.4 X119.425 Y119.277 E56.52012
G1 F1236 X119.458 Y119.647 E56.53741
G1 X119.462 Y119.994 E56.55357
G1 X119.443 Y120.35 E56.57017
G1 X119.398 Y120.707 E56.58693
G1 X119.33 Y121.047 E56.60307
G1 X119.207 Y121.488 E56.62439
G1 X119.039 Y121.913 E56.64567
G1 X118.885 Y122.231 E56.66212
G1 X118.671 Y122.602 E56.68207
G1 X118.397 Y122.981 E56.70384
G1 X118.176 Y123.246 E56.71991
G1 X117.849 Y123.579 E56.74164
G1 X117.449 Y123.909 E56.76579
G1 X117.061 Y124.167 E56.78749
G1 X116.75 Y124.341 E56.80408
G1 X116.413 Y124.497 E56.82137
G1 X116.111 Y124.617 E56.8365
G1 X115.746 Y124.726 E56.85424
G1 X115.317 Y124.825 E56.87474
G1 F1226.8 X114.769 Y124.889 E56.90063
G1 F1163.3 X114.255 Y124.914 E56.92609
G1 F2700 E51.92609
G0 F9000 X114.245 Y125.134
G0 X113.217 Y124.96
G0 X113.479 Y123.908
G0 X112.39 Y116.326
G0 X112.939 Y114.696
;TYPE:WALL-INNER
G1 F2700 E56.92609
G1 F1131.3 X113.385 Y114.596 E56.94934
G1 F1177.1 X113.85 Y114.523 E56.97235
G1 F1179.9 X114.208 Y114.497 E56.98986
G1 F1185.6 X114.803 Y114.501 E57.01874
G1 F1188.4 X115.354 Y114.56 E57.04558
G1 F1160.6 X115.674 Y114.623 E57.06175
G1 F1128.8 X115.973 Y114.697 E57.07746
G0 F9000 X116.76 Y114.641
G0 X118.153 Y115.704
G0 X118.208 Y115.284
G0 X117.94 Y115.268
;TYPE:SKIN
G1 F1133.9 X117.972 Y115.015 E57.0904
G1 F1051.9 X118.125 Y114.461 E57.12185
G1 X117.651 Y114.724 E57.15151
G1 F1133.9 X117.525 Y114.806 E57.15914
G1 X117.274 Y114.852 E57.17209
G1 X117.506 Y114.986 E57.18569
G1 X117.94 Y115.268 E57.21195
G0 F9000 X118.129 Y114.446
G1 F908.8 X118.438 Y113.927 E57.25021
G0 F9000 X118.76 Y113.768
G0 X118.869 Y113.193
G0 X117.257 Y114.34
G0 X116.373 Y114.511
G0 X113.874 Y114.69
G0 X112.83 Y114.946
G0 X111.222 Y115.459
G0 X111.051 Y115.243
G1 F1144.4 X111.549 Y114.914 E57.28022
